caihaodong111/robot/as33_020rb_400-error-rate-trend.csv
Timestamp,error1_c1,count,tem1_m,tem2_m,tem3_m,tem4_m,tem5_m,tem6_m,tem7_m,A1_e_rate,A2_e_rate,A3_e_rate,A4_e_rate,A5_e_rate,A6_e_rate,A7_e_rate,A1_Rms,A2_Rms,A3_Rms,A4_Rms,A5_Rms,A6_Rms,A7_Rms,A1_E,A2_E,A3_E,A4_E,A5_E,A6_E,A7_E,Q1,Q2,Q3,Q4,Q5,Q6,Q7,Curr_A1_max,Curr_A2_max,Curr_A3_max,Curr_A4_max,Curr_A5_max,Curr_A6_max,Curr_A7_max,Curr_A1_min,Curr_A2_min,Curr_A3_min,Curr_A4_min,Curr_A5_min,Curr_A6_min,Curr_A7_min,reference
2025-07-31,0,7218,54.604738154613464,53.62621224715988,49.08645054031588,46.25006927126628,46.201163757273484,52.59365475200887,-272.0,0.0042948185092823495,0.008174009420892215,0.0016625103906899418,0.003047935716264893,0.0019395954558049321,0.0023552230534774174,0.0,0.2613820566270586,0.512122409681535,0.5665766952641277,0.3620492994058937,0.3425582362346896,0.2136497022047078,0.0,0.015625,0.1171875,0.0,0.0234375,0.0,0.0,0.0,0.12954183368173977,0.3193341635455161,0.0487766074796554,0.16237285211076508,0.06951514631959409,0.05481691905467969,0.0,68.5660324,54.2795525,56.2637329,37.0895271,29.9071846,32.7959518,0.0,-58.9927559,-71.6727219,-52.4284134,-38.0718422,-32.6214256,-37.0914345,0.0,250410-250516
2025-08-01,0,7222,55.833979507061755,54.95139850456937,49.99584602603157,47.00013846579895,46.9026585433398,53.68305178620881,-272.0,0.0029077817779008587,0.008031016338964275,0.001661589587371919,0.001938521185267239,0.001800055386319579,0.0015231237884242592,0.0,0.3769876113871027,0.8416197943004851,0.19980822737785886,0.2273575778302319,0.2164616273291944,0.38084949051507166,0.0,0.015873015873015872,0.07142857142857142,0.0,0.031746031746031744,0.007936507936507936,0.007936507936507936,0.0,0.12005259831942867,0.2950703341598278,0.07488161637639108,0.1536121006987727,0.4447148823149787,0.0829485999728094,0.0,63.8566437,54.3963852,58.1530228,36.938839,29.206213,32.9494972,0.0,-58.8048744,-71.3403549,-49.3455696,-38.6545525,-36.4944153,-36.8673134,0.0,250410-250516
2025-08-02,0,600,39.16166666666667,37.611666666666665,36.501666666666665,36.415,36.751666666666665,38.68333333333333,-272.0,0.0033333333333333335,0.006666666666666667,0.01,0.025,0.013333333333333334,0.02,0.0,0.09497426170336651,0.12685168485353931,0.15669518892610426,0.14356989311343255,0.11768806451123245,0.20458686848073393,0.0,0.23809523809523808,0.0,0.2857142857142857,0.23809523809523808,0.3333333333333333,0.14285714285714285,0.0,0.352387248251859,0.14408567295862054,0.6082680046106441,0.4072601865772703,0.5160577559230388,0.9149753937395781,0.0,60.5062828,53.9748421,47.3551903,35.5998421,29.1919079,32.2943077,0.0,-49.6035461,-67.1798248,-48.5449333,-41.2123871,-34.4496765,-36.070015,0.0,250410-250516
2025-08-03,0,1019,40.14524043179588,38.63395485770363,37.83120706575074,37.549558390579,37.76054955839058,39.39057899901864,-272.0,0.004906771344455349,0.007850834151128557,0.009813542688910697,0.018645731108930325,0.008832188420019628,0.012757605495583905,0.0,0.4003782546727974,1.0862656510127198,0.5710249266453004,0.17062297442898527,0.3703341589471147,0.1548079030273351,0.0,0.12121212121212122,0.15151515151515152,0.18181818181818182,0.15151515151515152,0.09090909090909091,0.12121212121212122,0.0,0.3068704088305925,0.4814913378762501,0.35574710302438445,0.33367110708454595,0.21404795513824584,0.31377890616471804,0.0,57.1711845,53.3716278,48.504879,35.9126587,29.7336102,32.5813713,0.0,-58.9198,-71.8768158,-51.9606247,-28.3717251,-30.8284645,-34.3714714,0.0,250410-250516
2025-08-04,0,4212,54.35493827160494,53.20322886989554,49.072174738841404,46.46866096866097,46.42568850902184,52.373931623931625,-272.0,0.003798670465337132,0.004748338081671415,0.001899335232668566,0.006885090218423552,0.004510921177587844,0.004510921177587844,0.0,0.10601401416294513,0.1866136137763777,0.20466669356614411,0.3848044812155369,0.0795182498075,0.2642184986558756,0.0,0.01818181818181818,0.03636363636363636,0.00909090909090909,0.03636363636363636,0.02727272727272727,0.01818181818181818,0.0,0.15285167621540566,0.1844538740547779,0.12698904378857884,0.17185895051972852,0.12172111220438046,0.19681899980840245,0.0,60.9645386,57.0996513,56.1168594,37.8582115,30.1932964,35.0095,0.0,-55.2299194,-67.6676407,-49.053257,-28.8819542,-32.486,-34.0376778,0.0,250410-250516
2025-08-05,0,7120,54.68792134831461,53.627247191011236,49.21025280898876,46.37261235955056,46.30842696629213,52.639044943820224,-272.0,0.0023876404494382023,0.0057584269662921345,0.0012640449438202246,0.0022471910112359553,0.001544943820224719,0.003089887640449438,0.0,0.540255642230227,0.5022361574579753,0.08813672348192872,0.2023178780865592,0.19959941237489462,0.3181050959543662,0.0,0.031007751937984496,0.06976744186046512,0.015503875968992248,0.015503875968992248,0.007751937984496124,0.023255813953488372,0.0,3.5715460283900478,0.2603997857096961,0.12016127629287457,0.49660243863270187,1.4467055166390186,0.4295416028107342,0.0,66.1183548,56.3400269,56.1054153,35.7724609,29.7126293,32.5060272,0.0,-64.2934418,-69.7872467,-46.6566,-38.958786,-31.9280834,-34.5927315,0.0,250410-250516
2025-08-06,0,7001,54.82288244536495,53.838165976289105,49.34280817026139,46.62248250249964,46.556349092986714,52.79502928153121,-272.0,0.002428224539351521,0.003285244965004999,0.0022853878017426083,0.0011426939008713042,0.0018568775889158692,0.000999857163262391,0.0,0.3773949217036223,0.26902346286765094,0.08859212798812194,0.09452324589620945,0.07029335624471472,0.05583806493029055,0.0,0.007936507936507936,0.03968253968253968,0.0,0.015873015873015872,0.0,0.0,0.0,0.10674510133371645,0.279962570254422,0.07898923854832533,0.08047012643339055,0.06041577969251256,0.07173283486203984,0.0,60.4485817,54.2585716,58.0104408,37.1972961,30.0359364,33.1173515,0.0,-64.3912,-69.8554382,-48.7366295,-41.3258743,-34.9055443,-33.7277222,0.0,250410-250516
2025-08-07,0,6071,56.12370284961291,55.2859495964421,50.29369131938725,47.25761818481305,47.17773019271949,54.02503706143963,-272.0,0.004282655246252677,0.004776807774666447,0.0023060451325975953,0.001647175094712568,0.0019766101136550816,0.0018118926041838248,0.0,0.5371723621550443,0.533491287299868,0.5679054179259185,0.32133481745353343,0.2425667328530271,0.31339285102623354,0.0,0.036036036036036036,0.02702702702702703,0.018018018018018018,0.0,0.0,0.0,0.0,0.16465394728105048,0.16411473066202148,0.11233652100209555,0.08732687530652915,0.06754525865595429,0.09319368539397764,0.0,67.8178482,55.6347656,58.0781517,36.774807,29.7145367,33.1555023,0.0,-65.4540939,-71.8138733,-49.4533348,-42.259552,-35.4224548,-34.0729637,0.0,250410-250516
2025-08-08,0,5309,54.399321906197024,53.6021849689207,48.441514409493315,45.38896213976267,45.320210962516484,52.557167074778675,-272.0,0.0033904690148803917,0.002448672066302505,0.001130156338293464,0.0016952345074401959,0.0018835938971557733,0.002260312676586928,0.0,0.8083579377030616,0.7192197895470667,0.20092294425591614,0.3772974584150009,0.22244220196600403,0.43438862144631046,0.0,0.03389830508474576,0.0423728813559322,0.01694915254237288,0.00847457627118644,0.00847457627118644,0.0,0.0,0.19552807425107996,0.18389892073775357,0.12353930366903933,0.08372108328485955,0.1417400804043227,0.0720549258162032,0.0,68.1974258,54.6186,56.039135,36.5621262,29.2167034,33.3109512,0.0,-52.2295647,-69.6189194,-52.359272,-39.9992752,-31.9442959,-35.4949341,0.0,250410-250516
2025-08-09,0,533,37.58536585365854,36.08255159474672,35.30018761726079,35.22326454033771,35.54033771106942,37.20637898686679,-272.0,0.009380863039399626,0.00375234521575985,0.00375234521575985,0.00375234521575985,0.00375234521575985,0.00375234521575985,0.0,0.6502442025084316,0.4610230577400525,0.374624482379535,0.1859006737633914,0.24268780444925708,0.0743150832089118,0.0,0.1111111111111111,0.1111111111111111,0.1111111111111111,0.05555555555555555,0.05555555555555555,0.05555555555555555,0.0,0.26323289190765803,0.25008572064410683,0.2971296421302245,0.1829337636254174,0.14439445772990325,0.1417121109839862,0.0,59.276,54.4664803,48.8582268,32.177,31.5103626,31.3539543,0.0,-64.3082199,-65.8055344,-44.5908813,-28.2582321,-31.4979649,-34.0271835,0.0,250410-250516
2025-08-11,0,7400,54.96675675675676,54.01527027027027,49.388108108108106,46.597702702702705,46.50621621621622,52.983513513513515,-272.0,0.0033783783783783786,0.002837837837837838,0.0024324324324324323,0.001081081081081081,0.0017567567567567568,0.0025675675675675674,0.0,0.5509215803093125,0.3482522670321987,0.3622204237484472,0.26189242111634015,0.20001431105962839,0.1958976041930615,0.0,0.007692307692307693,0.038461538461538464,0.0,0.0,0.0,0.0,0.0,0.13543618180451955,0.17167616727711352,0.06966243442037033,0.034967278426401356,0.053933059240400816,0.06817602602278315,0.0,66.1874924,56.3467026,58.0037651,36.9483757,29.5714817,33.6285362,0.0,-55.4535637,-72.4790726,-51.4966507,-42.8851814,-32.6509895,-33.2194,0.0,250410-250516
2025-08-12,0,7460,54.69798927613941,53.918498659517425,48.88914209115281,45.86621983914209,45.80107238605898,52.699463806970506,-272.0,0.0032171581769436996,0.00482573726541555,0.0021447721179624667,0.001742627345844504,0.001742627345844504,0.001742627345844504,0.0,0.4350459808624965,0.5597917952116779,0.3606353676439082,0.1414491129430431,0.18871433611299324,0.23367379484767856,0.0,0.016,0.032,0.016,0.008,0.0,0.0,0.0,0.12414879650958385,0.18123709245479408,0.09903913554762604,0.07774551068891894,0.06123799772036735,0.05643107993205671,0.0,60.9283,55.9261208,58.0881653,37.3517914,29.821352,32.9657135,0.0,-58.6642036,-69.4892197,-49.4981613,-38.8367119,-36.6489143,-33.2689896,0.0,250410-250516
2025-08-13,0,7572,54.283280507131536,53.4418911780243,48.42049656629688,45.40055467511886,45.321051241415745,52.392894875858424,-272.0,0.003169572107765452,0.002509244585314316,0.0019809825673534074,0.0011885895404120444,0.001584786053882726,0.0013206550449022716,0.0,0.6943307122540634,0.480244969730768,0.32162204208704737,0.17982441121385034,0.2926776952308076,0.21864671093741986,0.0,0.007936507936507936,0.015873015873015872,0.015873015873015872,0.0,0.0,0.007936507936507936,0.0,0.6946684147317113,0.10999937225866578,1.1096029131609253,0.058974420918871215,0.05301019565012826,0.618753190233037,0.0,58.8554192,56.6414,58.030468,36.9483757,30.2648239,33.9241829,0.0,-64.5666809,-69.7138138,-52.4198303,-41.6882858,-36.3036766,-35.8411293,0.0,250410-250516
2025-08-14,0,7477,53.9850207302394,53.09027684900361,48.15728233248629,45.143640497525745,45.048013909321924,52.04868262672195,-272.0,0.0028086130801123444,0.0026748696001069948,0.001471178280058847,0.0010699478400427978,0.0009362043600374481,0.0009362043600374481,0.0,0.5667019893009396,0.7235086740565135,0.2195662514255084,0.17879714476774,0.18675016538775688,0.31130055364157666,0.0,0.015873015873015872,0.0,0.015873015873015872,0.0,0.0,0.0,0.0,0.09578349317123977,0.07233054159012325,0.10555376454702214,0.028668293761134937,0.028435742465823033,0.05191242629872724,0.0,63.2629623,56.2446594,58.1134453,37.2125549,30.5156479,33.748703,0.0,-51.849514,-67.6447525,-48.5787888,-35.2393417,-32.4173317,-34.509758,0.0,250410-250516
2025-08-15,0,7104,54.76703265765766,53.8795045045045,48.8585304054054,45.7495777027027,45.630067567567565,52.77435247747748,-272.0,0.002533783783783784,0.003519144144144144,0.0021114864864864866,0.0014076576576576576,0.0015484234234234234,0.0008445945945945946,0.0,0.6199702899633068,0.7145226607675953,0.3599786838069077,0.4056906979412663,0.24372054872629154,0.46835912955358516,0.0,0.01639344262295082,0.02459016393442623,0.0,0.0,0.0,0.0,0.0,0.10489402710545272,0.16070165543292983,0.05444104718296504,0.02326807846190498,0.03476367096888268,0.04936758270203441,0.0,65.9881744,56.2704086,56.0095711,35.3690453,29.567667,32.8560333,0.0,-59.2626495,-69.5345154,-48.207325,-33.6151848,-31.8756275,-36.9245338,0.0,250410-250516
2025-08-16,0,531,36.89453860640301,35.18079096045198,34.31261770244821,34.13559322033898,34.433145009416194,36.43691148775895,-272.0,0.003766478342749529,0.0018832391713747645,0.0018832391713747645,0.0018832391713747645,0.003766478342749529,0.0018832391713747645,0.0,0.105780716350312,0.12115999402710723,0.042876212335193266,0.06361486820411671,0.06589497772832537,0.10244260767426924,0.0,0.2,0.1,0.05,0.05,0.1,0.1,0.0,0.5188383882248303,0.5853328823995417,0.21241441828733365,0.3277863727695991,0.3229833001605284,0.5201087809509961,0.0,58.7986755,53.7759972,48.9679,34.363842,29.5752964,30.5957584,0.0,-64.2281113,-61.6516838,-48.0142,-28.2401123,-32.2771416,-35.5550156,0.0,250410-250516
2025-08-17,0,803,38.81569115815691,37.220423412204234,36.316313823163135,35.91407222914072,36.12826899128269,38.04109589041096,-272.0,0.0037359900373599006,0.0062266500622665,0.0037359900373599006,0.007471980074719801,0.0049813200498132005,0.009962640099626401,0.0,0.1049199861264993,0.1622677968781125,0.09190000136501454,0.09820738589033233,0.06024754277766588,0.09740035908545565,0.0,0.041666666666666664,0.125,0.041666666666666664,0.16666666666666666,0.08333333333333333,0.16666666666666666,0.0,0.15515304230860016,0.288676071600067,0.22754266929074013,0.5133696844603116,0.25945937995758084,0.43523903751659104,0.0,59.5268326,56.2012672,53.9762726,36.9769897,31.5380192,31.9280834,0.0,-59.1367645,-65.0382843,-40.2167206,-26.8553352,-31.4722118,-35.3547401,0.0,250410-250516
2025-08-18,0,9066,52.772998014559896,51.61250827266711,47.73538495477609,45.115045223913526,45.05801897198324,50.91826604897419,-272.0,0.0022060445621001545,0.002867857930730201,0.0025369512464151777,0.001985440105890139,0.0008824178248400617,0.0012133245091550848,0.0,0.6546741173824545,0.6053028562541638,0.3848403751246103,0.07370257862099454,0.11340288690673889,0.11731582882178997,0.0,0.014925373134328358,0.029850746268656716,0.05970149253731343,0.014925373134328358,0.007462686567164179,0.014925373134328358,0.0,0.6871348181902501,0.20753978383446878,0.19821440206713456,0.143498222514254,0.08975467557861533,0.1977062655821573,0.0,66.4340286,56.3152313,56.0825272,37.2192307,31.0096684,32.7635269,0.0,-60.0752106,-69.5435791,-47.2731705,-40.9758682,-34.3485832,-33.1926956,0.0,250410-250516
2025-08-19,0,7614,53.9866036249015,53.14276333070659,48.181901759915945,45.199369582348304,45.11925400577883,52.091410559495664,-272.0,0.0015760441292356187,0.002626740215392698,0.001313370107696349,0.0010506960861570791,0.0007880220646178094,0.0010506960861570791,0.0,0.31657079923028447,0.18432364664541698,0.35076511832569696,0.37027364716866923,0.0688049008847958,0.4060154461092934,0.0,0.015625,0.015625,0.015625,0.0,0.0,0.0,0.0,0.11611792352453873,0.17388509541701,0.1730447822499223,0.03502355673215701,0.030999997336246223,0.04081867415589895,0.0,68.1979,54.901844,56.0167236,37.1562843,30.6310482,33.9289513,0.0,-59.2402382,-69.6904449,-52.333046,-40.3025551,-33.4206276,-36.7957878,0.0,250410-250516
2025-08-20,0,7674,55.0217617930675,54.11297888975762,49.112197028928854,46.01068543132656,45.87620536877769,53.0444357571019,-272.0,0.001954652071931196,0.0026062027625749283,0.0011727912431587178,0.0010424811050299713,0.0011727912431587178,0.0006515506906437321,0.0,0.23730645998514174,0.5634083265522569,0.24251058940527906,0.07141809602794344,0.04734270181957464,0.05546604966750649,0.0,0.00819672131147541,0.02459016393442623,0.0,0.00819672131147541,0.0,0.0,0.0,0.0806424470737829,0.1503437596284779,0.07897451658540669,0.05866890116140895,0.052326569555680005,0.050910457960207316,0.0,67.8774567,56.487854,55.7978516,37.2478409,29.8471031,33.5016937,0.0,-58.9870338,-68.0367203,-48.8978043,-43.6643562,-36.2874641,-33.605648,0.0,250410-250516
2025-08-21,0,13652,54.19652798124817,53.354380310577206,48.38565777907999,45.38016407852329,45.31541166129505,52.28493993554058,-272.0,0.0024904775857017285,0.0022707295634339293,0.00183123351889833,0.0016847348373864636,0.0006592440668033988,0.000732493407559332,0.0,0.18945438055268962,0.2456905896891655,0.17166449153378122,0.14643900572091292,0.14362468470947404,0.2555880613532324,0.0,0.020833333333333332,0.034722222222222224,0.020833333333333332,0.006944444444444444,0.006944444444444444,0.006944444444444444,0.0,0.12704877455024524,0.16399671262164575,0.12478438310826488,0.29955519374753903,0.11841963751461718,0.31057384953764705,0.0,64.1742325,55.6857872,55.836,36.8682671,29.6849728,33.6209068,0.0,-65.2724152,-69.567421,-52.4665642,-41.7731628,-32.1531563,-33.7162781,0.0,250410-250516
2025-08-22,0,6855,53.820131291028446,52.89380014587892,48.06214442013129,45.07016776075857,44.988475565280815,51.905324580598105,-272.0,0.00262582056892779,0.0023340627279358132,0.0020423048869438365,0.0020423048869438365,0.0011670313639679066,0.0016046681254558717,0.0,0.3017560532351588,0.4446041170163241,0.42974875099325655,0.3533643278532808,0.2930080530624902,0.3426368746430331,0.0,0.008264462809917356,0.024793388429752067,0.01652892561983471,0.008264462809917356,0.0,0.008264462809917356,0.0,0.09801094488891794,0.15155074758802067,0.1404574828845696,0.39702102098212083,0.03987777136113488,0.6365386471640475,0.0,66.0263214,56.1168594,57.9770622,36.4419594,30.7731476,33.7172318,0.0,-55.006279,-69.8172836,-52.1542244,-42.2900696,-35.6570625,-36.8291664,0.0,250410-250516
2025-08-23,0,545,36.38532110091743,34.84403669724771,33.45137614678899,33.222018348623855,33.63669724770642,35.69357798165137,-272.0,0.009174311926605505,0.005504587155963303,0.005504587155963303,0.009174311926605505,0.007339449541284404,0.007339449541284404,0.0,0.21458942252966867,0.2719215987720544,0.09821363032845422,0.1252789727423987,0.11108611094571917,0.16151219946502918,0.0,0.1,0.05,0.05,0.05,0.0,0.05,0.0,0.23923552354491381,0.13648254043511995,0.2183606853171324,0.21406377142405328,0.04377951948757,0.2964450699108343,0.0,58.0166397,54.8079071,42.7025452,37.9573975,31.2776566,31.4140377,0.0,-55.446888,-71.4547958,-47.9703293,-39.5825043,-38.0632591,-35.3099174,0.0,250410-250516
2025-08-25,0,3658,51.98715144887917,51.07053034445052,46.50410060142154,43.79879715691635,43.694641880809186,50.49097867687261,-272.0,0.0016402405686167304,0.0038272279934390375,0.0019136139967195188,0.0008201202843083652,0.0010934937124111536,0.0005467468562055768,0.0,0.903804771119992,0.7551178363698359,0.27945397034236014,0.1402899146116021,0.3504934390262624,0.18810021114202846,0.0,0.0,0.020202020202020204,0.010101010101010102,0.0,0.0,0.0,0.0,0.05160840613302825,0.08454248657755582,0.08671862393347038,0.03546063950686696,0.03742291810671311,0.029472235930251306,0.0,60.8486633,56.8879318,53.8847198,33.541748,29.3511772,33.8526573,0.0,-54.2957649,-65.8646622,-48.9473953,-28.2944736,-31.9977036,-33.2995071,0.0,250410-250516
2025-08-26,1,6788,53.013995285798465,52.08618149675899,47.3581319976429,44.44401885680613,44.33161461402475,51.26502651738362,-272.0,0.0038302887448438423,0.004714201532115498,0.0035356511490866236,0.0019151443724219211,0.0026517383618149676,0.0017678255745433118,0.0,0.794214768824603,1.0512531858958745,0.6870887312006438,0.33546710820296477,0.2952617744491574,0.25986666796119406,0.0,0.024,0.008,0.024,0.008,0.008,0.008,0.0,1.9328794402637937,0.1589160642535809,0.6231363485281571,0.6838175340173109,0.8941417970867755,0.6611730529604866,0.0,62.0021629,55.9752388,57.8897934,36.2216568,29.3445,34.1311378,0.0,-64.8518295,-69.9078903,-48.6493645,-40.3988762,-36.7614517,-33.5598717,0.0,250410-250516
2025-08-27,0,6978,52.43393522499284,51.60146173688736,46.711808541129265,43.69977070793924,43.59959873889367,50.75379764975638,-272.0,0.0024362281456004587,0.0021496130696474634,0.002292920607623961,0.0018629979936944684,0.0018629979936944684,0.0024362281456004587,0.0,0.3763648262978328,0.3708360555670118,0.5887515960075582,0.24949048694003134,0.17711287562612235,0.48584116117836385,0.0,0.0,0.01639344262295082,0.00819672131147541,0.0,0.0,0.0,0.0,0.050409451742527554,0.10303242304907734,0.12132585501068088,0.041929617886653,0.024774599390928197,0.03183022137138425,0.0,67.3557816,56.6657181,56.0472412,36.9121361,30.7149734,33.5570107,0.0,-58.1897392,-69.819191,-48.7881317,-42.3205872,-35.8716469,-37.4633789,0.0,250410-250516
2025-08-28,0,11024,54.59189042089986,53.663370827285924,49.046534833091435,46.132347605224965,46.04571843251089,52.65529753265602,-272.0,0.002993468795355588,0.003265602322206096,0.003265602322206096,0.001451378809869376,0.00272133526850508,0.0011792452830188679,0.0,0.6557839253541201,0.6612352273528411,0.36663118605252437,0.3206242347847804,0.39447123347293594,0.32847243451839325,0.0,0.036231884057971016,0.057971014492753624,0.043478260869565216,0.007246376811594203,0.028985507246376812,0.0,0.0,1.4618759544632165,3.302672081541631,0.2096704006348151,0.07494410031907482,1.4822050765416341,0.07625602039468532,0.0,61.9420815,55.677681,58.0729065,37.3145981,29.6916485,33.530304,0.0,-52.7336,-69.8125153,-51.5085678,-42.4388504,-32.6805573,-33.1163979,0.0,250410-250516
2025-08-29,0,2238,54.558087578194815,53.54781054512958,48.9562109025916,46.08266309204647,46.01742627345845,52.24352100089366,-272.0,0.002680965147453083,0.002234137622877569,0.0013404825737265416,0.0008936550491510277,0.0017873100983020554,0.0013404825737265416,0.0,0.9035127728033391,0.2791500858814575,0.48007402140745425,0.20821936874153094,0.34338606027989477,0.25740411012348174,0.0,0.04285714285714286,0.04285714285714286,0.0,0.0,0.014285714285714285,0.0,0.0,0.23823337724528515,0.21828064520473064,0.06017688182789602,0.056489867770410464,0.07969850826588398,0.06749134134164295,0.0,57.5908127,54.9853,54.673912,33.4597321,29.9634552,32.3601112,0.0,-56.5803642,-66.2719,-42.8837509,-42.9042549,-32.0148697,-32.7673416,0.0,250410-250516
2025-09-01,0,2236,54.72898032200358,54.12432915921288,49.029964221824685,45.959749552772806,45.896690518783544,53.23121645796064,-272.0,0.0017889087656529517,0.0017889087656529517,0.0022361359570661895,0.0017889087656529517,0.0022361359570661895,0.0022361359570661895,0.0,0.09902994473997792,0.21675403845216554,0.30221414203967495,0.525848823074885,0.05451969380850085,0.35339565494061514,0.0,0.0,0.04054054054054054,0.02702702702702703,0.013513513513513514,0.013513513513513514,0.013513513513513514,0.0,0.11316770762432965,0.184018693075375,0.12952719336397128,0.0854815008869764,0.0929700142937873,0.10497471152875236,0.0,58.8072586,55.9413795,55.2671127,37.1667786,28.643528,32.7587585,0.0,-51.4141502,-66.6777,-46.6723366,-36.7194901,-34.8797951,-33.4072762,0.0,250410-250516
2025-09-02,1,7098,55.20273316427163,54.41110171879403,49.46294730910115,46.47464074387151,46.396590588898285,53.19047619047619,-272.0,0.0016906170752324597,0.002817695125387433,0.0016906170752324597,0.0014088475626937165,0.0018315018315018315,0.0008453085376162299,0.0,0.3608978686382612,0.26410632633784004,0.16976422505787822,0.21076852537821777,0.13644765883481308,0.05381666339606491,0.0,0.008,0.016,0.008,0.0,0.0,0.0,0.0,0.1618662155782053,0.14227625403565888,0.08769239669438987,0.06524087323142957,0.06453175954130226,0.03955718722493752,0.0,66.228981,56.1130447,57.9460678,37.6855927,30.7597961,33.663826,0.0,-60.0361061,-72.2578201,-52.4307976,-42.4007,-32.2065659,-34.7529526,0.0,250410-250516
2025-09-03,0,4258,51.803193987787694,50.85251291686237,46.96453734147487,44.502818224518556,44.459840300610615,50.3107092531705,-272.0,0.0028182245185533112,0.0011742602160638798,0.0014091122592766556,0.0011742602160638798,0.0004697040864255519,0.0007045561296383278,0.0,0.23641331021800574,0.105975691450548,0.0561592774299728,0.04672145999875116,0.03233884646532268,0.030906590159770122,0.0,0.0,0.01818181818181818,0.01818181818181818,0.00909090909090909,0.0,0.00909090909090909,0.0,0.06616403558414523,0.10615834855368632,0.17481157433051692,0.12215582388599795,0.051546928945614356,0.06696399342641389,0.0,57.9465446,54.1980095,55.4430733,37.4710083,30.1112766,33.2403793,0.0,-64.4822693,-69.7057,-48.7671471,-41.6377373,-34.6451836,-32.0730438,0.0,250410-250516
2025-09-04,0,6911,54.45290117204457,53.73867747069889,48.93864853132687,46.04283027058313,45.97163941542468,52.693532050354506,-272.0,0.0021704529011720448,0.0021704529011720448,0.0020257560410939083,0.0002893937201562726,0.0015916654608594994,0.0013022717407032266,0.0,0.10747336366597834,0.2211707713996946,0.40560242304184696,0.025470273657733723,0.09540749559405964,0.1590704777528277,0.0,0.0,0.016260162601626018,0.016260162601626018,0.0,0.0,0.0,0.0,0.06559884382467042,0.09742986105801187,0.09055223697256116,0.03933595765237317,0.0690801784915006,0.05050985479411818,0.0,71.3851776,54.5942764,58.0085335,35.7591095,29.5905552,33.6294899,0.0,-64.5690613,-69.7114258,-49.4399834,-42.2862549,-35.6503868,-37.5301361,0.0,250410-250516
2025-09-05,0,6919,53.937852290793465,53.170111287758345,48.46379534614829,45.591848533025,45.5239196415667,52.19815002167943,-272.0,0.0026015320132967193,0.0027460615695909813,0.0020234137881196706,0.0011562364503540975,0.0011562364503540975,0.000867177337765573,0.0,0.4083969391944821,0.22753744680196203,0.17046693507446234,0.04008662370668638,0.11886976126380625,0.10143735128888696,0.0,0.023622047244094488,0.031496062992125984,0.007874015748031496,0.0,0.0,0.0,0.0,0.21660783723467808,0.15632465841514764,0.06820063263461154,0.034893719193293725,0.022845826075739442,0.051943854547767135,0.0,66.60569,56.5245705,56.207943,35.3280373,30.9181118,34.2093391,0.0,-55.155529,-69.5612183,-52.1070175,-35.1134529,-33.5732231,-36.606,0.0,250410-250516
2025-09-06,0,6716,54.45131030375224,53.67153067301965,49.173168552709946,46.459648600357355,46.39949374627755,52.69669446098868,-272.0,0.0031268612269207863,0.004169148302561048,0.0029779630732578916,0.0014889815366289458,0.0025312686122692077,0.0013400833829660512,0.0,0.7492095406804941,0.6514605961244208,0.4869978029846096,0.32583337807628954,0.3941609028921339,0.36346639974123524,0.0,0.0,0.024390243902439025,0.008130081300813009,0.0,0.008130081300813009,0.0,0.0,0.07170659482512534,0.13576661759889516,0.0997204693969665,0.06283597208504935,0.06496557331224398,0.0628274485445446,0.0,67.8893814,55.5413,55.8445816,35.2469711,29.3521309,33.8469353,0.0,-54.2356834,-72.0489578,-52.2309952,-40.463726,-33.6123238,-32.486,0.0,250410-250516
2025-09-07,0,784,38.110969387755105,36.55229591836735,35.51913265306123,35.38647959183673,35.62755102040816,37.57142857142857,-272.0,0.0012755102040816326,0.0,0.0,0.0012755102040816326,0.002551020408163265,0.0012755102040816326,0.0,0.3253361327227063,0.044483239297309934,0.007425239285714369,0.2090567608459858,0.38215978097403613,0.09968705694358074,0.0,0.06666666666666667,0.0,0.0,0.0,0.0,0.0,0.0,0.18062159489658053,0.09924273162392963,0.03795839648215353,0.030458771184220346,0.08807954409861335,0.0015670908350199114,0.0,58.0462036,54.2085037,48.5525627,30.6567974,29.5161667,31.3615837,0.0,-49.1452904,-64.6596603,-47.7423935,-34.2513046,-29.4494095,-33.7992477,0.0,250410-250516
2025-09-08,0,6969,54.68589467642416,53.70842301621467,49.2379107475965,46.49519299756063,46.45401061845315,52.747309513560054,-272.0,0.003730807863395035,0.005596211795092553,0.0024393743722198307,0.002008896541828096,0.001004448270914048,0.0012914334911752045,0.0,0.39724758256035925,0.29812310878820825,0.36116237081991037,0.27521585399152393,0.33247569251081815,0.1120346834031077,0.0,0.031496062992125984,0.031496062992125984,0.007874015748031496,0.015748031496062992,0.007874015748031496,0.0,0.0,2.547351061835017,0.630252273323514,0.569182457056181,0.13999429609626782,0.8028125628866436,0.04354620857662865,0.0,64.1332169,55.3319626,56.0048027,36.8396568,29.5276108,33.4559174,0.0,-52.6616,-72.0761337,-52.0559959,-41.2371826,-36.5974159,-32.9075356,0.0,250410-250516
2025-09-09,1,6425,54.77727626459144,53.99517509727627,49.435953307393,46.72871595330739,46.67206225680934,52.763268482490275,-272.0,0.0031128404669260703,0.0038910505836575876,0.0028015564202334632,0.0014007782101167316,0.0015564202334630351,0.001245136186770428,0.0,0.3379092285245771,0.43630425010655494,0.20945339984234757,0.2867117783546494,0.05847872539271395,0.19234959413166375,0.0,0.023809523809523808,0.031746031746031744,0.015873015873015872,0.0,0.0,0.0,0.0,2.1575711689971455,2.8736200412441697,0.14615063261253777,0.048461802311072444,0.055007869111360665,0.07107549926705478,0.0,67.7487106,55.7430077,55.9213524,37.6112022,29.9100456,33.1049538,0.0,-60.3966064,-72.5701599,-52.5485802,-42.4274025,-36.5306549,-33.0734825,0.0,250410-250516
2025-09-10,0,7004,54.04254711593375,53.22144488863506,48.68789263278127,45.990862364363224,45.9548829240434,52.17118789263278,-272.0,0.002569960022844089,0.003997715591090805,0.0019988577955454027,0.001142204454597373,0.002284408909194746,0.0009994288977727014,0.0,0.5787247882849839,0.2314217879582423,0.3824609794412958,0.18335067719887926,0.16249684141703719,0.31876125734930016,0.0,0.016,0.016,0.016,0.0,0.008,0.0,0.0,0.11063264235580139,0.18640462303431357,0.1038364307814878,0.03394766766311783,0.07297915384870647,0.05832809399376367,0.0,68.4873505,55.8512573,58.2221642,34.5631676,29.7488728,33.2022324,0.0,-64.4269562,-66.0110626,-52.4722862,-38.0995,-31.7030106,-33.6275826,0.0,250410-250516
2025-09-11,0,7150,57.5,56.7793006993007,51.76629370629371,48.72223776223776,48.638881118881116,55.31118881118881,-272.0,0.0044755244755244755,0.006713286713286713,0.004195804195804196,0.0034965034965034965,0.0025174825174825175,0.0025174825174825175,0.0,0.5931995239456743,0.6273231696808527,0.27180363697775384,0.12645691010353677,0.19728839359482583,0.166581785217973,0.0,0.06976744186046512,0.06976744186046512,0.03875968992248062,0.023255813953488372,0.007751937984496124,0.015503875968992248,0.0,0.7463091059376079,0.24370709691064482,0.19211482911363392,0.3314076224343639,0.11869686282525102,0.11887008102566606,0.0,59.2965126,56.1235352,58.0662308,36.7957878,29.2624836,32.3467598,0.0,-65.4893799,-69.6828156,-49.0332298,-28.4852142,-32.4478493,-33.6533356,0.0,250410-250516
2025-09-12,0,6687,55.60834454912517,54.82024824285928,50.11873784955885,47.316733961417675,47.269328547928815,53.521609092268584,-272.0,0.0037385972783011813,0.005533123971885748,0.0034395094960370867,0.0029908778226409452,0.0020936144758486614,0.002841333931508898,0.0,0.4069095985931136,0.40767305696868694,0.3372634948326843,0.4052795090117171,0.11128713614618393,0.31842694652007913,0.0,0.0,0.07377049180327869,0.01639344262295082,0.01639344262295082,0.0,0.02459016393442623,0.0,0.08302052976789762,0.2140327256104866,0.10407817214256845,0.12293054212326868,0.05401587651862688,0.1288096857336999,0.0,66.8116913,56.2308311,58.3032303,36.8730354,30.0407047,32.2380371,0.0,-60.2969475,-71.9512,-52.6759033,-42.80793,-35.911705,-33.1183052,0.0,250410-250516
2025-09-13,0,5544,54.18650793650794,53.276875901875904,48.87049062049062,46.20472582972583,46.183621933621936,52.29058441558441,-272.0,0.005591630591630592,0.00468975468975469,0.004148629148629149,0.0030663780663780665,0.002886002886002886,0.001984126984126984,0.0,0.4769377900096841,0.6085834270334819,0.6756968910505737,0.2988927564023717,0.38153571972690103,0.2705323635912307,0.0,0.017094017094017096,0.02564102564102564,0.008547008547008548,0.0,0.017094017094017096,0.008547008547008548,0.0,0.13507634685154637,0.1895565927461601,0.10775626010174025,0.04879271839971891,0.1189397201435704,0.06369772990525477,0.0,66.100708,56.2484741,58.0857811,34.5669823,29.3759727,33.2909241,0.0,-59.8229523,-66.7477951,-51.5095215,-42.1632309,-36.6517754,-36.7671738,0.0,250410-250516
2025-09-15,0,7341,53.25595967851791,52.38019343413704,47.929982291240975,45.01512055578259,44.968669118648684,51.4427189756164,-272.0,0.0031330881351314534,0.003950415474730963,0.002588203242065114,0.0023157607955319437,0.002043318348998774,0.002588203242065114,0.0,0.7017583070865409,0.8183038939314997,0.3910215684265283,0.2893023910133623,0.18788076466238138,0.23178446751360968,0.0,0.05511811023622047,0.023622047244094488,0.0,0.0,0.023622047244094488,0.007874015748031496,0.0,3.688696199915459,3.004643214496482,0.07690515264633559,0.05888005058090244,0.7607127415561636,0.8931019035042553,0.0,66.6199951,56.187439,58.137764,37.4099693,29.8289814,33.9566116,0.0,-65.1665573,-69.7996445,-48.9674225,-44.8965416,-32.7654343,-32.9494972,0.0,250410-250516
2025-09-16,0,8365,54.9581589958159,54.39701135684399,49.11416616855947,45.94716078900179,45.839808726838015,53.3237298266587,-272.0,0.0027495517035265988,0.002630005977286312,0.0022713687985654514,0.001315002988643156,0.0016736401673640166,0.0007172743574417215,0.0,0.38337754809979524,0.7217362901330832,0.3060805219961777,0.14786069752552178,0.1207108495735665,0.1461744952616139,0.0,0.0078125,0.0234375,0.0234375,0.0,0.0078125,0.0,0.0,0.09243512252586372,0.16175056134321603,0.13107221616884263,0.04507634602776591,0.0911903754852391,0.050958739707493726,0.0,58.3466225,56.1845779,58.1806793,36.1329613,29.6592236,33.1755295,0.0,-64.5037308,-69.8683167,-51.0970459,-40.33498,-37.0475616,-33.5989723,0.0,250410-250516
2025-09-17,0,5683,52.613760337849726,51.842864684145695,46.93155023755059,44.000879816998065,43.948618687313036,50.84708780573641,-272.0,0.0015836705965159247,0.002991377793418969,0.0014077071969030442,0.0019355973957416858,0.0015836705965159247,0.0017596339961288051,0.0,0.3303844714687107,0.6475893141900576,0.5479796157183133,0.2730166763347753,0.3029446355853906,0.49797655693893983,0.0,0.0,0.00847457627118644,0.00847457627118644,0.0,0.0,0.00847457627118644,0.0,0.04815489957107415,0.06859609570253859,0.0832914854424302,0.05059719378176739,0.04257719305124106,0.09651611165264175,0.0,61.7866287,56.4787941,58.0748138,35.5922089,29.7879734,34.5393257,0.0,-56.6261406,-69.8859558,-47.7609901,-44.5570221,-31.5694904,-33.5045547,0.0,250410-250516
2025-09-18,0,7933,54.90281104248078,54.20206731375268,48.97579730240766,45.83448884406908,45.73956888944914,53.03176604058994,-272.0,0.0023950586159082314,0.004285894365309467,0.0017647800327744863,0.0016387243161477374,0.0013866128828942392,0.0011345014496407413,0.0,0.312166379241384,0.4464116436270954,0.10863728065904335,0.11630750390409614,0.2317462305749069,0.08128631262699505,0.0,0.0,0.016,0.008,0.0,0.0,0.0,0.0,0.05509096060794911,0.18758126387547205,0.09749045074399772,0.06495042991272826,0.05732927526021498,0.06787913819113581,0.0,61.1672,55.7468224,56.0892029,34.7710724,29.9663162,33.6762238,0.0,-52.2691498,-71.177269,-48.7342453,-44.5617905,-31.5170383,-35.850666,0.0,250410-250516
2025-09-19,0,5964,53.59121395036888,52.780348759222,47.94751844399732,44.908115358819586,44.80902079141516,51.87961099932931,-272.0,0.0035211267605633804,0.003688799463447351,0.0025150905432595573,0.002347417840375587,0.0026827632461435278,0.0013413816230717639,0.0,0.6528481590813198,0.615669606574511,0.5124804666492341,0.2940050841487614,0.4214474713392367,0.36611353206555525,0.0,0.008547008547008548,0.0,0.008547008547008548,0.0,0.008547008547008548,0.008547008547008548,0.0,0.12846374239266461,0.033263641474189566,0.09963796048732475,0.019873657183471047,0.16346570172790845,0.057205882788079976,0.0,66.4550095,55.7196426,56.1721802,32.4116096,29.4913712,32.9065819,0.0,-64.6048279,-69.8277817,-48.1887245,-28.0655823,-29.4789734,-33.8679161,0.0,250410-250516
2025-09-20,0,4867,53.82535442777892,52.86028354222314,48.253133347031024,45.24943497020752,45.11690980069858,51.94390795151017,-272.0,0.0018491884117526197,0.004314772960756112,0.0022601191699198686,0.0032874460653379905,0.002465584549003493,0.002054653790836244,0.0,0.6527049643116544,0.4322713125261708,0.5678856643453476,0.12436600511286042,0.17359158916212,0.14863300709823746,0.0,0.018691588785046728,0.018691588785046728,0.009345794392523364,0.009345794392523364,0.0,0.0,0.0,0.11335479326596849,0.5072726017483118,0.09173367637046087,0.0785289344021916,0.04137965556218212,0.04521905185692454,0.0,63.491375,57.041,55.414463,34.8368797,29.7851124,33.8831749,0.0,-56.6471214,-69.6050873,-48.8701477,-44.1879387,-33.1841125,-33.1965103,0.0,250410-250516
2025-09-22,0,3716,52.269375672766415,51.399623250807316,46.59230355220667,43.81189451022605,43.7421959095802,50.65554359526372,-272.0,0.002691065662002153,0.0034983853606027986,0.002691065662002153,0.002691065662002153,0.0008073196986006459,0.002152852529601722,0.0,0.7317766901280444,0.8264027902307216,0.35967766193082423,0.303114006631062,0.37346340830105684,0.11585536867318828,0.0,0.0,0.010309278350515464,0.010309278350515464,0.010309278350515464,0.0,0.020618556701030927,0.0,0.05882938579915484,0.09805919593276018,0.11293472452287699,0.1504678587934101,0.04888557671802507,0.09832425475922048,0.0,60.5716095,53.9057,57.8697662,37.7056198,29.6840191,33.9795,0.0,-57.4701653,-65.3191452,-49.1910706,-37.9364128,-32.5632477,-34.535511,0.0,250410-250516
2025-09-23,0,7054,52.135809469804364,51.29047349021832,46.34689537850865,43.46158208108874,43.39963141480011,50.45435214062943,-272.0,0.001984689537850865,0.0026935072299404594,0.001984689537850865,0.001417635384179189,0.0012758718457612703,0.0009923447689254325,0.0,0.3838982793303182,0.33792664408178597,0.24646359871233023,0.1981983452809668,0.32672971919776195,0.25295149393557376,0.0,0.007936507936507936,0.015873015873015872,0.007936507936507936,0.0,0.0,0.0,0.0,0.08116387311865506,0.13081712787889724,0.08050692859707147,0.025022081082378026,0.03348742077203599,0.010243575263656844,0.0,68.0806,56.3500481,55.8212166,35.5435715,29.9920654,33.999527,0.0,-52.4303207,-69.9407959,-52.1961861,-41.4889603,-35.1000977,-33.6876678,0.0,250410-250516
2025-09-24,0,7349,52.278269152265615,51.359776840386445,46.51367532997687,43.69179480201388,43.650972921485916,50.56728806640359,-272.0,0.0021771669614913595,0.003129677507143829,0.002857531636957409,0.0010885834807456798,0.0014968022860253095,0.0014968022860253095,0.0,0.34588733060886934,0.344510135545061,0.3585759985389381,0.10648777109093369,0.11198224652742442,0.15534078663874712,0.0,0.0,0.007874015748031496,0.007874015748031496,0.0,0.0,0.0,0.0,0.04716583386320001,0.07130643043581125,0.08014868731206197,0.015628713078476766,0.04157480793896522,0.04673327288669494,0.0,71.2044525,56.6361542,57.9413,37.0818977,29.7116756,34.0062027,0.0,-59.3298912,-68.940834,-48.8062515,-43.7425613,-32.7158432,-37.8868217,0.0,250410-250516
2025-09-25,0,7053,54.24060683397136,53.40507585424642,48.41840351623423,45.49794413724656,45.42237345810293,52.38239047213951,-272.0,0.002552105487026797,0.002552105487026797,0.001417836381681554,0.0012760527435133986,0.001417836381681554,0.0011342691053452432,0.0,0.5832093767104923,0.409127832355442,0.45898784540725135,0.2686344458797105,0.25776597157800835,0.24097465017474431,0.0,0.022727272727272728,0.0,0.007575757575757576,0.0,0.0,0.0,0.0,0.15132530297837365,0.06825625324202671,0.10624211802479565,0.04816029857316332,0.03666093817445011,0.05061475705567681,0.0,68.3686142,56.3023567,57.9670486,36.9369316,29.7898808,33.392971,0.0,-54.8460541,-69.6298904,-52.417923,-44.2108307,-32.5785103,-32.9886,0.0,250410-250516
2025-09-26,0,6793,53.73870160459296,52.844398645664654,48.163697924333874,45.382158103930514,45.33460915648462,51.93375533637568,-272.0,0.002502576181363168,0.0029442072721919624,0.00235536581775357,0.0017665243633151774,0.0008832621816575887,0.0008832621816575887,0.0,0.2826048884620508,0.34699754297359603,0.17836412767520052,0.27931327090156566,0.3422223357860599,0.26559737565892844,0.0,0.0,0.008264462809917356,0.008264462809917356,0.0,0.0,0.0,0.0,0.05757568605839587,0.12039341295059192,0.0774602673328855,0.03376158342510683,0.04847323682515324,0.05256622904342438,0.0,60.4218788,55.3167038,57.9451141,36.5421,29.474205,34.0510292,0.0,-57.9756317,-69.7977371,-51.2534485,-40.3950615,-33.5131378,-33.3214417,0.0,250410-250516
2025-09-27,0,1036,37.41216216216216,36.02413127413127,34.060810810810814,33.41216216216216,33.66119691119691,36.17181467181467,-272.0,0.006756756756756757,0.011583011583011582,0.007722007722007722,0.01833976833976834,0.013513513513513514,0.02027027027027027,0.0,0.7567278084100572,1.5616748975123578,0.7047232640542177,0.2338471525958753,0.2893760316551286,0.326527043204893,0.0,0.029411764705882353,0.17647058823529413,0.08823529411764706,0.11764705882352941,0.11764705882352941,0.14705882352941177,0.0,0.5620986201122034,0.7326286327158572,0.36244077132994446,0.29134810705217234,0.3952608602342219,0.45538960850825844,0.0,64.1646957,57.7310104,57.4196205,30.7187881,29.8633156,32.6738815,0.0,-56.4153748,-68.4973679,-44.6337967,-29.3759727,-29.3788338,-35.6561089,0.0,250410-250516
2025-09-28,0,7474,53.55177950227455,52.57091249665507,47.98233877441798,45.15359914369815,45.06355365266256,51.83342253144233,-272.0,0.002408348943002408,0.002675943270002676,0.0018731602890018732,0.001337971635001338,0.0010703773080010704,0.0018731602890018732,0.0,0.44413842821051563,0.1292857273033627,0.09950707304140607,0.1746277955937983,0.07894320260786608,0.1933098291727726,0.0,0.024,0.008,0.0,0.0,0.0,0.008,0.0,0.14474061399844326,0.0856062877445642,0.04830950711647194,0.04753318319708852,0.03248548640183316,0.061875200964313946,0.0,65.7907562,54.8412857,57.98946,34.8530922,30.0292587,33.7000656,0.0,-55.2270584,-68.2260361,-52.3511658,-38.9292221,-36.5668945,-36.8635,0.0,250410-250516
2025-09-29,0,7142,54.862083450014005,54.09899187902548,49.16409969196304,46.26701204144497,46.189442733127976,53.02268272192663,-272.0,0.0036404368524222907,0.003220386446373565,0.0019602352282273874,0.0015401848221786615,0.0012601512181461775,0.0015401848221786615,0.0,0.5903005831331487,0.3303730207880364,0.3685015099640454,0.3080323936239353,0.3488843743885654,0.2682933321182454,0.0,0.008064516129032258,0.016129032258064516,0.0,0.008064516129032258,0.0,0.008064516129032258,0.0,0.12242133039972473,0.14302521310216382,0.09749007739884803,0.07530540244096054,0.045626646664689255,0.05642928932290926,0.0,65.8584671,55.5360565,58.074337,35.4539261,29.4093513,34.4639816,0.0,-58.66325,-69.9484253,-48.9535942,-34.649,-31.8689518,-36.5268402,0.0,250410-250516
2025-09-24,0,7349,52.278269152265615,51.359776840386445,46.51367532997687,43.69179480201388,43.650972921485916,50.56728806640359,-272.0,0.0021771669614913595,0.003129677507143829,0.002857531636957409,0.0010885834807456798,0.0014968022860253095,0.0014968022860253095,0.0,0.34588733060886934,0.344510135545061,0.3585759985389381,0.10648777109093369,0.11198224652742442,0.15534078663874712,0.0,0.0,0.007874015748031496,0.007874015748031496,0.0,0.0,0.0,0.0,0.04716583386320001,0.07130643043581125,0.08014868731206197,0.015628713078476766,0.04157480793896522,0.04673327288669494,0.0,71.2044525,56.6361542,57.9413,37.0818977,29.7116756,34.0062027,0.0,-59.3298912,-68.940834,-48.8062515,-43.7425613,-32.7158432,-37.8868217,0.0,250410-250516
2025-09-25,0,7053,54.24060683397136,53.40507585424642,48.41840351623423,45.49794413724656,45.42237345810293,52.38239047213951,-272.0,0.002552105487026797,0.002552105487026797,0.001417836381681554,0.0012760527435133986,0.001417836381681554,0.0011342691053452432,0.0,0.5832093767104923,0.409127832355442,0.45898784540725135,0.2686344458797105,0.25776597157800835,0.24097465017474431,0.0,0.022727272727272728,0.0,0.007575757575757576,0.0,0.0,0.0,0.0,0.15132530297837365,0.06825625324202671,0.10624211802479565,0.04816029857316332,0.03666093817445011,0.05061475705567681,0.0,68.3686142,56.3023567,57.9670486,36.9369316,29.7898808,33.392971,0.0,-54.8460541,-69.6298904,-52.417923,-44.2108307,-32.5785103,-32.9886,0.0,250410-250516
2025-09-26,0,6793,53.73870160459296,52.844398645664654,48.163697924333874,45.382158103930514,45.33460915648462,51.93375533637568,-272.0,0.002502576181363168,0.0029442072721919624,0.00235536581775357,0.0017665243633151774,0.0008832621816575887,0.0008832621816575887,0.0,0.2826048884620508,0.34699754297359603,0.17836412767520052,0.27931327090156566,0.3422223357860599,0.26559737565892844,0.0,0.0,0.008264462809917356,0.008264462809917356,0.0,0.0,0.0,0.0,0.05757568605839587,0.12039341295059192,0.0774602673328855,0.03376158342510683,0.04847323682515324,0.05256622904342438,0.0,60.4218788,55.3167038,57.9451141,36.5421,29.474205,34.0510292,0.0,-57.9756317,-69.7977371,-51.2534485,-40.3950615,-33.5131378,-33.3214417,0.0,250410-250516
2025-09-27,0,1036,37.41216216216216,36.02413127413127,34.060810810810814,33.41216216216216,33.66119691119691,36.17181467181467,-272.0,0.006756756756756757,0.011583011583011582,0.007722007722007722,0.01833976833976834,0.013513513513513514,0.02027027027027027,0.0,0.7567278084100572,1.5616748975123578,0.7047232640542177,0.2338471525958753,0.2893760316551286,0.326527043204893,0.0,0.029411764705882353,0.17647058823529413,0.08823529411764706,0.11764705882352941,0.11764705882352941,0.14705882352941177,0.0,0.5620986201122034,0.7326286327158572,0.36244077132994446,0.29134810705217234,0.3952608602342219,0.45538960850825844,0.0,64.1646957,57.7310104,57.4196205,30.7187881,29.8633156,32.6738815,0.0,-56.4153748,-68.4973679,-44.6337967,-29.3759727,-29.3788338,-35.6561089,0.0,250410-250516
2025-09-28,0,7474,53.55177950227455,52.57091249665507,47.98233877441798,45.15359914369815,45.06355365266256,51.83342253144233,-272.0,0.002408348943002408,0.002675943270002676,0.0018731602890018732,0.001337971635001338,0.0010703773080010704,0.0018731602890018732,0.0,0.44413842821051563,0.1292857273033627,0.09950707304140607,0.1746277955937983,0.07894320260786608,0.1933098291727726,0.0,0.024,0.008,0.0,0.0,0.0,0.008,0.0,0.14474061399844326,0.0856062877445642,0.04830950711647194,0.04753318319708852,0.03248548640183316,0.061875200964313946,0.0,65.7907562,54.8412857,57.98946,34.8530922,30.0292587,33.7000656,0.0,-55.2270584,-68.2260361,-52.3511658,-38.9292221,-36.5668945,-36.8635,0.0,250410-250516
2025-09-29,0,7142,54.862083450014005,54.09899187902548,49.16409969196304,46.26701204144497,46.189442733127976,53.02268272192663,-272.0,0.0036404368524222907,0.003220386446373565,0.0019602352282273874,0.0015401848221786615,0.0012601512181461775,0.0015401848221786615,0.0,0.5903005831331487,0.3303730207880364,0.3685015099640454,0.3080323936239353,0.3488843743885654,0.2682933321182454,0.0,0.008064516129032258,0.016129032258064516,0.0,0.008064516129032258,0.0,0.008064516129032258,0.0,0.12242133039972473,0.14302521310216382,0.09749007739884803,0.07530540244096054,0.045626646664689255,0.05642928932290926,0.0,65.8584671,55.5360565,58.074337,35.4539261,29.4093513,34.4639816,0.0,-58.66325,-69.9484253,-48.9535942,-34.649,-31.8689518,-36.5268402,0.0,250410-250516
2025-10-08,0,938,31.684434968017058,30.171641791044777,28.925373134328357,28.726012793176974,29.131130063965884,31.224946695095948,-272.0,0.01812366737739872,0.014925373134328358,0.007462686567164179,0.03304904051172708,0.03304904051172708,0.03411513859275053,0.0,1.8846276926292163,0.5055056632724769,0.1259214426362165,0.18778676874038103,0.19213015113520363,0.19072168524902058,0.0,0.11764705882352941,0.17647058823529413,0.058823529411764705,0.20588235294117646,0.23529411764705882,0.11764705882352941,0.0,0.8787022890922694,0.7037781855149305,0.1878249462275978,0.3222514265061623,0.40184095321773605,0.3144552979243326,0.0,71.6922684,55.7306099,49.6164207,35.404335,30.7941284,33.1287956,0.0,-55.4297218,-66.9743,-51.7503319,-45.2074509,-32.460247,-38.8710442,0.0,250410-250516
2025-10-09,0,6968,45.96239954075775,44.896239954075774,40.06960390355913,37.25918484500574,37.31084959816303,45.00717566016073,-272.0,0.004448909299655569,0.007032146957520092,0.0028702640642939152,0.008897818599311137,0.007893226176808266,0.012055109070034443,0.0,0.8073711614462019,0.44263087058677714,0.5283911914332393,0.3021878527215163,0.2630742494800342,0.29365518984056654,0.0,0.016129032258064516,0.08064516129032258,0.008064516129032258,0.04032258064516129,0.03225806451612903,0.04838709677419355,0.0,0.11173385468818012,0.2726016752889979,0.09594666949584318,0.20624780775055418,0.20220584056787347,0.2473441094431805,0.0,65.9824524,57.6842728,55.4034958,36.8768501,30.8036652,35.1668587,0.0,-52.29776,-71.4142685,-48.5954819,-41.5471344,-37.3718224,-36.2321472,0.0,250410-250516
2025-10-10,0,7067,47.44743172491864,46.533748408093956,41.36578463280034,38.38191594736097,38.33762558369888,46.548464695061554,-272.0,0.0035375689825951607,0.005235602094240838,0.0028300551860761286,0.006509126927975096,0.004952596575633225,0.008490165558228386,0.0,0.8233894051740145,0.8969248333311565,0.6500527850002698,0.32465092828404163,0.4246469127714871,0.45910553187631403,0.0,0.016,0.032,0.016,0.008,0.008,0.04,0.0,0.21133747467296132,0.2996555944811677,0.11141136559280644,0.12498222818975765,0.08318994010830627,0.18540039862231034,0.0,63.0421829,56.9046211,55.6538391,37.3460693,30.7321396,36.1434517,0.0,-61.4380531,-70.091,-51.9529953,-28.6940746,-31.6009636,-36.9684067,0.0,250410-250516
2025-10-11,0,6609,48.2121349674686,47.25979724617945,42.28294749583901,39.33151762747768,39.24269934937207,47.208503555757304,-272.0,0.003026176426085641,0.004387955817824179,0.0021183234982599486,0.002420941140868513,0.0025722499621727945,0.005144499924345589,0.0,0.5659974465937361,0.3162853787964962,0.13981391051638922,0.08905697037221029,0.0715047872088961,0.08081172662247314,0.0,0.00847457627118644,0.025423728813559324,0.00847457627118644,0.0,0.0,0.0,0.0,0.09839614275277979,0.11225534387290066,0.05906291179753005,0.04122473469481717,0.05097459919768777,0.06061925120222895,0.0,66.4945831,56.6433067,57.718132,37.5883141,30.6968517,34.2026634,0.0,-59.616478,-69.8587799,-48.7504578,-44.9470863,-36.9998779,-35.331852,0.0,250410-250516
2025-10-12,0,870,30.979310344827585,29.439080459770114,27.96896551724138,27.78390804597701,27.99655172413793,30.502298850574714,-272.0,0.027586206896551724,0.016091954022988506,0.020689655172413793,0.04597701149425287,0.05057471264367816,0.06206896551724138,0.0,0.29985374692032657,0.25056983047426473,0.2228940429841699,0.2878169279966022,0.2755609077054906,0.36658936464362496,0.0,0.3225806451612903,0.1935483870967742,0.1935483870967742,0.3870967741935484,0.41935483870967744,0.45161290322580644,0.0,0.6487062313354478,0.758375589593608,0.4642671287722836,0.7029793386631533,0.6909760238159705,0.9644825845803252,0.0,59.0094452,54.5666161,51.9844666,37.6989441,32.8035812,34.3771935,0.0,-60.2030029,-65.9891281,-43.8622513,-29.8547325,-30.7006664,-38.1986809,0.0,250410-250516
2025-10-13,0,6953,49.17345030921904,48.09506687760679,43.45951387890119,40.47245793182799,40.400258881058534,47.9626060693226,-272.0,0.0023011649647634116,0.003883215878038257,0.0017258737235725586,0.004314684308931396,0.003164101826549691,0.004746152739824536,0.0,0.382641334802529,0.43381475529746627,0.18951560743714213,0.3065016640627708,0.32446627256488075,0.3091079762113583,0.0,0.0,0.007936507936507936,0.0,0.007936507936507936,0.0,0.007936507936507936,0.0,0.06060174372409695,0.08573746942087077,0.016747958987659482,0.07264581478631948,0.034465020836194335,0.06975300628646493,0.0,60.4671822,56.2332153,57.7186127,31.8260365,30.5156479,36.3322868,0.0,-64.7168808,-71.1267242,-51.9763603,-36.862545,-31.0859623,-35.8964462,0.0,250410-250516
2025-10-14,0,6834,49.84299092771437,48.91703248463565,44.07667544629792,41.07228563067018,40.95346795434592,48.51726660813579,-272.0,0.0014632718759145448,0.002780216564237635,0.0014632718759145448,0.0016095990635059995,0.001755926251097454,0.0030728709394205445,0.0,0.6712319442831146,0.3540604171004105,0.5126455451104199,0.14794353017540796,0.23003881414536578,0.13269812929642266,0.0,0.015625,0.0078125,0.0078125,0.0,0.0,0.0,0.0,0.1066144501825513,0.10474738648470111,0.07613150284862968,0.020786645814809,0.027962758770159902,0.04232296622220471,0.0,68.3285599,57.3876724,55.8994179,37.6379051,30.0149536,34.7357864,0.0,-64.6243744,-69.5850601,-51.4298859,-44.3968,-31.9862595,-34.855,0.0,250410-250516
2025-10-15,0,6896,50.060614849187935,49.10614849187935,44.253335266821345,41.245214617169374,41.14907192575406,48.71925754060325,-272.0,0.0020301624129930394,0.002900232018561485,0.0014501160092807424,0.002465197215777262,0.0014501160092807424,0.002900232018561485,0.0,0.6058301371905926,0.6620767863830525,0.5822380166747911,0.4200469178346307,0.1997764405102821,0.4797753558405913,0.0,0.016260162601626018,0.0,0.008130081300813009,0.008130081300813009,0.008130081300813009,0.008130081300813009,0.0,3.128830548995306,0.0695750595234893,4.191347228696408,2.3294591519775363,0.5756511577043398,1.5350703355447395,0.0,68.301857,57.1425743,57.6680603,36.6889725,30.220953,34.35812,0.0,-58.3022766,-69.832077,-51.1037216,-33.6933899,-32.7959518,-37.3517914,0.0,250410-250516
2025-10-16,0,6949,49.083033530004315,48.08850194272557,43.25399338034249,40.125053964599225,40.07425528853072,47.88055835371996,-272.0,0.004029356741977263,0.0047488847316160595,0.003309828752338466,0.004461073535760541,0.0038854511440495035,0.006475751906749172,0.0,0.8387040634662195,0.9796288794147756,0.6086323866238442,0.31891668815800966,0.3460954222637837,0.39238003462223237,0.0,0.032,0.048,0.032,0.024,0.024,0.048,0.0,4.05501000369807,0.6649798666819279,1.5802302032751265,1.1926788066291127,1.5072461681664096,1.3305356669222588,0.0,65.9133,56.7482185,57.8502197,37.5329971,30.6234188,34.6346931,0.0,-64.6510773,-69.8726044,-48.2264,-44.9604378,-32.2895393,-34.9999619,0.0,250410-250516
2025-10-17,0,6849,48.49788290261352,47.519199883194624,42.267484304278,38.99941597313477,38.9526938239159,47.36852095196379,-272.0,0.0032121477587969045,0.005256241787122208,0.002190100744634253,0.0036501679077237553,0.0033581544751058547,0.005840268652358009,0.0,0.1717474562069755,0.1897938589009328,0.369171845594546,0.10138776348814048,0.2250194992513118,0.10010148428796369,0.0,0.03225806451612903,0.06451612903225806,0.016129032258064516,0.008064516129032258,0.008064516129032258,0.016129032258064516,0.0,0.2260630053703428,0.26650693694896327,0.19810487810485555,0.12111528132622534,0.283005248741012,0.14662960591539195,0.0,66.3496246,57.2298355,57.7839355,37.2716827,30.8017578,34.6165733,0.0,-54.8355637,-69.8983536,-51.3521614,-29.4188881,-31.9595547,-33.9308586,0.0,250410-250516
2025-10-18,0,210,28.67142857142857,27.67142857142857,25.366666666666667,25.17142857142857,25.561904761904763,28.576190476190476,-272.0,0.023809523809523808,0.023809523809523808,0.03333333333333333,0.10476190476190476,0.08571428571428572,0.1,0.0,0.32419515346907346,0.30664524958259665,0.2403843075487731,0.40746902867729035,0.4570841428697689,0.6008229689185,0.0,1.0,0.0,0.0,1.0,1.0,1.0,0.0,1.166379899999999,0.0,0.0,1.0996199000000004,0.6237220999999984,0.9975737999999996,0.0,41.7412148,56.9961777,48.1262589,31.486517,31.9595547,30.1685,0.0,-55.6605148,-61.2687721,-43.659111,-28.0589066,-24.0428619,-40.0212097,0.0,250410-250516
2025-10-20,0,6905,44.861694424330196,43.72715423606083,38.7519188993483,35.64952932657494,35.54800868935554,44.09746560463432,-272.0,0.008834178131788559,0.016364952932657495,0.005503258508327299,0.017523533671252714,0.012889210716871833,0.023171614771904415,0.0,0.49652832160214877,0.8330327014068877,0.3773225991318844,0.44740012441515603,0.22864932163831075,0.5221394037353816,0.0,0.06557377049180328,0.21311475409836064,0.04918032786885246,0.11475409836065574,0.05737704918032787,0.18032786885245902,0.0,0.258213094937992,0.5078168034411512,0.20495592914202213,0.3994946748789291,0.2575761908083984,0.4086348418962477,0.0,66.517,58.1658974,57.4568138,37.7075272,32.9647598,39.040802,0.0,-65.0311279,-69.5044785,-51.1027679,-34.8635826,-32.3219643,-37.9936371,0.0,250410-250516
2025-10-21,0,4703,45.75802679140974,44.65128641292792,39.61769083563683,36.4543908143738,36.381458643419094,44.864554539655536,-272.0,0.010206251328938975,0.014458856049330214,0.006804167552625983,0.020625132893897512,0.017435679353604083,0.027429300446523495,0.0,0.5111549370555886,0.7157419150021538,0.3741986411476789,0.28752266969091633,0.3025168132601662,0.3555886695399852,0.0,0.061946902654867256,0.23008849557522124,0.10619469026548672,0.18584070796460178,0.19469026548672566,0.2920353982300885,0.0,0.3035262740915597,0.6709529749174994,0.44193286193898224,0.5928068525192144,0.4839278945118928,0.8482684283896955,0.0,63.220047,58.7171364,57.7696304,39.8600349,32.565155,36.495369,0.0,-53.884243,-70.0437927,-51.318306,-39.8562202,-37.3413,-37.0885735,0.0,250410-250516
2025-10-22,0,6718,44.60509080083358,43.4164930038702,38.60404882405478,35.67788032152426,35.580678773444475,43.69455194998511,-272.0,0.008186960404882405,0.011759452217922,0.006549568323905924,0.017415897588568027,0.013545698124441799,0.02485858886573385,0.0,0.4625717661697252,0.4984796684118599,0.2605505322920828,0.22182968703685146,0.36411015363319443,0.34890884973103703,0.0,0.04838709677419355,0.1693548387096774,0.04838709677419355,0.12903225806451613,0.08064516129032258,0.1693548387096774,0.0,0.2879813396985508,3.008284967786774,0.8562490835052556,0.3453953397877085,2.0368762109055085,0.4460062184889989,0.0,72.0341721,58.0652771,57.7095451,33.8421669,32.1178703,35.6246376,0.0,-59.8634911,-67.9523239,-51.1928902,-40.0049973,-32.769249,-37.5940361,0.0,250410-250516
2025-10-23,0,6755,46.1899333826795,45.08956328645448,39.964026646928204,36.861139896373054,36.760325684678016,45.27520355292376,-272.0,0.0051813471502590676,0.00917838638045892,0.0044411547002220575,0.012435233160621761,0.007549962990377498,0.014063656550703183,0.0,0.44686526833649454,0.8508170380713096,0.601625831929845,0.23795454593545035,0.14359811549594834,0.3922267841012723,0.0,0.024793388429752067,0.0743801652892562,0.04132231404958678,0.08264462809917356,0.024793388429752067,0.11570247933884298,0.0,0.2235403623001941,1.1986690643011788,1.4800941748841807,0.367619014508546,0.34573096552255755,0.41505795974482873,0.0,66.441658,56.8655205,57.762,37.7380447,30.7912674,35.9670181,0.0,-59.1281815,-69.8893,-47.6851692,-42.7449875,-36.9254875,-34.7987289,0.0,250410-250516
2025-10-24,0,5803,46.42236774082371,45.32259176288127,40.3517146303636,37.25056005514389,37.14819920730657,45.37377218679993,-272.0,0.004652765810787524,0.009994830260210237,0.004135791831811132,0.01033947957952783,0.008443908323281062,0.01154575219713941,0.0,0.7288196376733294,0.5082479869754771,0.3461416715175495,0.21114528913659078,0.2752590826443608,0.33818453959024425,0.0,0.017391304347826087,0.11304347826086956,0.02608695652173913,0.05217391304347826,0.017391304347826087,0.06956521739130435,0.0,0.946090673208924,0.3173682969621892,0.14140964202118828,0.20465035896300549,0.1615731831268953,0.25030270259894044,0.0,62.984,57.4997292,55.6652832,32.0997505,31.6438789,34.8673973,0.0,-64.7412,-69.9875259,-48.1968346,-45.1626244,-30.6854076,-35.5082855,0.0,250410-250516
2025-10-27,0,6966,45.76399655469423,44.5360321561872,39.77289692793569,36.73069193224232,36.63695090439276,44.80002871088142,-272.0,0.009331036462819409,0.014211886304909561,0.00717772035601493,0.019092736146999714,0.014211886304909561,0.01923629055412001,0.0,0.6776696985592892,0.8387745320957936,0.5549891662415856,0.35904191144635306,0.2493602950988661,0.5251303137436512,0.0,0.07086614173228346,0.09448818897637795,0.015748031496062992,0.11811023622047244,0.047244094488188976,0.11811023622047244,0.0,0.32067693733367897,0.30249852822714485,0.13931310986774492,0.3284860722680033,0.29673337841842873,0.4204219891289533,0.0,64.0855331,58.0395279,57.5440826,37.6121559,32.3353157,34.5307426,0.0,-55.1746025,-70.296524,-47.3480377,-37.9554901,-32.6443138,-35.1077309,0.0,250410-250516
2025-10-28,0,4583,45.16255727689286,44.0868426794676,39.14902902029238,36.151429194850536,36.07156884137028,44.32489635609863,-272.0,0.006764128300240017,0.013528256600480034,0.005891337551821951,0.015273838097316169,0.014401047348898102,0.0196377918394065,0.0,0.3362579850601585,0.5898216177508128,0.17979842077435323,0.24552134617228535,0.2648948094569457,0.43119012749474483,0.0,0.07017543859649122,0.15789473684210525,0.07894736842105263,0.13157894736842105,0.14035087719298245,0.20175438596491227,0.0,0.5568017286911331,3.529928966250002,0.3327499257445383,0.39598896948379453,0.3976734220006674,0.6019337024017196,0.0,67.0682373,56.2761307,57.7605743,37.3432083,33.2451477,35.8678322,0.0,-60.3327103,-67.5155258,-52.0021095,-43.0005798,-38.3446,-38.2177544,0.0,250410-250516
2025-10-29,0,7143,46.09995800083998,44.80414391712166,40.07237855242895,37.102337953240934,36.97060058798824,45.12697746045079,-272.0,0.004899902001959961,0.011199776004479911,0.004199916001679967,0.010779784404311914,0.007699846003079938,0.012459750804983901,0.0,0.7134689016434503,0.7898406706402822,0.5380877429432486,0.32929021031657335,0.377065908277099,0.4670077650067728,0.0,0.024,0.12,0.016,0.056,0.04,0.08,0.0,0.2034709339694619,0.366495478916931,0.15487046867804574,0.2992297386900052,0.21605650558314582,0.3719045064105103,0.0,67.7882843,58.0695686,57.604641,37.7122955,31.8966122,34.9961472,0.0,-60.2387657,-70.8406143,-51.3354721,-44.3777275,-37.3193665,-36.0385437,0.0,250410-250516
2025-10-30,0,6952,46.37615074798619,45.291426927502876,40.147871116225545,37.10284810126582,36.95224395857307,45.44059263521289,-272.0,0.0034522439585730723,0.00805523590333717,0.0035960874568469504,0.009205983889528193,0.007479861910241657,0.010788262370540851,0.0,0.17926534129484684,0.34279401779776675,0.21826332375667976,0.3817063430132594,0.10497309195631983,0.27884573408558455,0.0,0.02459016393442623,0.09836065573770492,0.02459016393442623,0.02459016393442623,0.02459016393442623,0.02459016393442623,0.0,0.22334586654525138,0.2510904726693369,0.11882901319653799,0.15218417710288995,0.1848728539916234,0.19529381139213298,0.0,62.5414848,57.4615822,57.7114525,36.0299606,31.5551853,35.2336197,0.0,-59.1567917,-69.9345932,-48.7189865,-42.6028862,-36.1491737,-36.2874641,0.0,250410-250516
2025-10-31,1,6948,46.76237766263673,45.75158318940702,40.57210708117444,37.47510074841681,37.3307426597582,45.743235463442716,-272.0,0.004605641911341394,0.009499136442141624,0.004173862982153138,0.009930915371329879,0.006188831318364997,0.013241220495106506,0.0,0.9075751684250065,0.6158775482176029,0.6826205037640442,0.28100901793450755,0.42420643424610505,0.2287608260384768,0.0,0.040983606557377046,0.10655737704918032,0.00819672131147541,0.00819672131147541,0.0,0.04918032786885246,0.0,0.27541176166840686,0.28702159197337945,0.10268375165207337,0.1351004462139198,0.11075798591230542,0.21617990459812644,0.0,67.5841904,57.5378838,54.5961838,38.2339706,31.3205757,35.0152206,0.0,-52.4789619,-70.716629,-47.239315,-45.1817,-32.2351761,-36.7671738,0.0,250410-250516
2025-11-01,0,7455,47.65472837022133,46.70114017437961,41.4560697518444,38.310127431254195,38.116566063044935,46.775184439973174,-272.0,0.0038900067069081155,0.006438631790744467,0.0026827632461435278,0.005499664654594232,0.004694835680751174,0.007511737089201878,0.0,0.732777920017279,0.8278171942706568,0.22680800885535787,0.15171907605006113,0.2671215569645513,0.1488761958517348,0.0,0.016129032258064516,0.04838709677419355,0.008064516129032258,0.008064516129032258,0.0,0.016129032258064516,0.0,0.22577460902635846,0.22368369893087153,0.12375754139219046,0.10934542949405195,0.07001662032968503,0.12689467308327806,0.0,66.3987427,56.6576118,57.6852264,37.6531677,30.7578888,35.9164734,0.0,-64.6277161,-69.6894913,-48.764286,-42.180397,-34.6814232,-35.1802101,0.0,250410-250516
2025-11-02,0,755,27.95364238410596,26.572185430463577,25.103311258278147,24.94701986754967,25.203973509933775,27.781456953642383,-272.0,0.026490066225165563,0.02781456953642384,0.02913907284768212,0.09403973509933775,0.0913907284768212,0.08344370860927153,0.0,0.3567107433764642,0.3472952026751072,0.24761520839292656,0.4975943142580774,0.40362110045147154,0.6308803665317766,0.0,0.24242424242424243,0.3333333333333333,0.3939393939393939,0.6363636363636364,0.6363636363636364,0.6363636363636364,0.0,0.8880564107764445,1.153875045753974,0.8653382061122881,1.5220899980902955,1.131550967361848,1.9192305554976117,0.0,59.1625137,56.4325409,50.4866714,37.4700546,34.5221596,36.1024437,0.0,-53.6219788,-64.2409897,-46.4444046,-33.1545486,-32.4564323,-40.5352554,0.0,250410-250516
2025-11-03,0,3992,43.96142284569138,42.596442885771545,38.25325651302605,35.453406813627254,35.38627254509018,42.93687374749499,-272.0,0.010521042084168337,0.01778557114228457,0.011272545090180362,0.02530060120240481,0.025050100200400802,0.027304609218436873,0.0,0.788761751877984,0.57295854661936,0.1828792978037494,0.345457100021237,0.2509960028987195,0.4171589660802898,0.0,0.15,0.24,0.12,0.23,0.21,0.28,0.0,2.1036737890802004,0.5788206997786075,0.3937661275686188,0.8852956299123634,0.6155437646485772,0.9886489080892047,0.0,66.7621,57.9379616,55.686264,37.471962,32.8922768,38.6707649,0.0,-64.745018,-70.0681152,-47.5659561,-31.045908,-32.8112106,-38.6202202,0.0,250410-250516
2025-11-04,0,6000,45.7685,44.477833333333336,39.83,36.80616666666667,36.66016666666667,44.799,-272.0,0.007833333333333333,0.012833333333333334,0.0036666666666666666,0.013666666666666667,0.010166666666666666,0.013,0.0,0.7728525977258225,0.8690347573206155,0.25913470367308516,0.37051949564831493,0.17572775721389783,0.618942324622818,0.0,0.06722689075630252,0.14285714285714285,0.025210084033613446,0.08403361344537816,0.06722689075630252,0.10084033613445378,0.0,0.35728871514349053,0.4256665374115695,0.3280882178140031,0.2857675352828748,0.19194933048156587,0.27915474345098196,0.0,67.8602905,56.1798096,57.5970116,38.0222473,32.2027512,35.9546204,0.0,-54.6209793,-67.1850662,-51.9000664,-40.4026909,-37.2373505,-37.8181534,0.0,250410-250516
2025-11-05,0,6675,46.907865168539324,45.795205992509366,40.79056179775281,37.667415730337076,37.49722846441948,45.83670411985019,-272.0,0.0052434456928838954,0.010486891385767791,0.003445692883895131,0.00749063670411985,0.0052434456928838954,0.010337078651685393,0.0,0.6586538274617432,0.39188718048124105,0.3204453171000925,0.23327774203595153,0.25333976025187693,0.215802366741509,0.0,0.01680672268907563,0.12605042016806722,0.008403361344537815,0.01680672268907563,0.0,0.04201680672268908,0.0,0.12820529652446544,0.3198286582599281,0.09117017732740271,0.14422973354919405,0.11633676384222091,0.22332218299521964,0.0,65.7492676,57.9498825,55.7711487,34.2331848,31.3472786,36.3151207,0.0,-60.3575058,-69.7872467,-51.2124405,-38.3779793,-36.967453,-36.0509415,0.0,250410-250516
2025-11-06,0,6397,46.85743317179928,45.703454744411445,40.89166796936064,37.875254025324374,37.72737220572143,45.7394090980147,-272.0,0.004220728466468657,0.007347193997186181,0.0035954353603251522,0.01109895263404721,0.007972487103329685,0.012662185399405971,0.0,0.4010681834407653,0.287509719739535,0.11364298741548053,0.24986492069227145,0.2081360773117413,0.333769772301431,0.0,0.025,0.08333333333333333,0.025,0.06666666666666667,0.05,0.06666666666666667,0.0,0.18598082972195676,0.296955461063283,0.3426852863591004,0.6228964711526503,0.643179008091349,0.4253357841113924,0.0,68.1235123,56.8416786,55.8002357,33.8650551,31.4502773,37.1705933,0.0,-60.3827782,-68.1435394,-48.6627159,-43.781662,-35.5912552,-37.1782227,0.0,250410-250516
2025-11-07,0,4305,47.45528455284553,46.443205574912895,41.180720092915216,37.93449477351916,37.796747967479675,46.49709639953542,-272.0,0.003716608594657375,0.008362369337979094,0.004413472706155633,0.011149825783972125,0.008594657375145181,0.013008130081300813,0.0,0.14392890549481693,0.7041967359723451,0.12531523569460054,0.19176391257540548,0.16651397864600095,0.20497102681670756,0.0,0.06306306306306306,0.0990990990990991,0.05405405405405406,0.10810810810810811,0.10810810810810811,0.13513513513513514,0.0,0.5662715215225603,4.260762830405593,0.2641032471689082,0.5379154308709659,0.6290966416128936,0.6020556537599095,0.0,60.552536,57.3957787,57.6871338,38.2120323,29.8595,34.7014503,0.0,-56.7572784,-69.9369812,-51.9091263,-30.8380013,-31.6305275,-34.3714714,0.0,250410-250516
2025-10-29,0,7143,46.09995800083998,44.80414391712166,40.07237855242895,37.102337953240934,36.97060058798824,45.12697746045079,-272.0,0.004899902001959961,0.011199776004479911,0.004199916001679967,0.010779784404311914,0.007699846003079938,0.012459750804983901,0.0,0.7134689016434503,0.7898406706402822,0.5380877429432486,0.32929021031657335,0.377065908277099,0.4670077650067728,0.0,0.024,0.12,0.016,0.056,0.04,0.08,0.0,0.2034709339694619,0.366495478916931,0.15487046867804574,0.2992297386900052,0.21605650558314582,0.3719045064105103,0.0,67.7882843,58.0695686,57.604641,37.7122955,31.8966122,34.9961472,0.0,-60.2387657,-70.8406143,-51.3354721,-44.3777275,-37.3193665,-36.0385437,0.0,250410-250516
2025-10-30,0,6952,46.37615074798619,45.291426927502876,40.147871116225545,37.10284810126582,36.95224395857307,45.44059263521289,-272.0,0.0034522439585730723,0.00805523590333717,0.0035960874568469504,0.009205983889528193,0.007479861910241657,0.010788262370540851,0.0,0.17926534129484684,0.34279401779776675,0.21826332375667976,0.3817063430132594,0.10497309195631983,0.27884573408558455,0.0,0.02459016393442623,0.09836065573770492,0.02459016393442623,0.02459016393442623,0.02459016393442623,0.02459016393442623,0.0,0.22334586654525138,0.2510904726693369,0.11882901319653799,0.15218417710288995,0.1848728539916234,0.19529381139213298,0.0,62.5414848,57.4615822,57.7114525,36.0299606,31.5551853,35.2336197,0.0,-59.1567917,-69.9345932,-48.7189865,-42.6028862,-36.1491737,-36.2874641,0.0,250410-250516
2025-10-31,1,6948,46.76237766263673,45.75158318940702,40.57210708117444,37.47510074841681,37.3307426597582,45.743235463442716,-272.0,0.004605641911341394,0.009499136442141624,0.004173862982153138,0.009930915371329879,0.006188831318364997,0.013241220495106506,0.0,0.9075751684250065,0.6158775482176029,0.6826205037640442,0.28100901793450755,0.42420643424610505,0.2287608260384768,0.0,0.040983606557377046,0.10655737704918032,0.00819672131147541,0.00819672131147541,0.0,0.04918032786885246,0.0,0.27541176166840686,0.28702159197337945,0.10268375165207337,0.1351004462139198,0.11075798591230542,0.21617990459812644,0.0,67.5841904,57.5378838,54.5961838,38.2339706,31.3205757,35.0152206,0.0,-52.4789619,-70.716629,-47.239315,-45.1817,-32.2351761,-36.7671738,0.0,250410-250516
2025-11-01,0,7455,47.65472837022133,46.70114017437961,41.4560697518444,38.310127431254195,38.116566063044935,46.775184439973174,-272.0,0.0038900067069081155,0.006438631790744467,0.0026827632461435278,0.005499664654594232,0.004694835680751174,0.007511737089201878,0.0,0.732777920017279,0.8278171942706568,0.22680800885535787,0.15171907605006113,0.2671215569645513,0.1488761958517348,0.0,0.016129032258064516,0.04838709677419355,0.008064516129032258,0.008064516129032258,0.0,0.016129032258064516,0.0,0.22577460902635846,0.22368369893087153,0.12375754139219046,0.10934542949405195,0.07001662032968503,0.12689467308327806,0.0,66.3987427,56.6576118,57.6852264,37.6531677,30.7578888,35.9164734,0.0,-64.6277161,-69.6894913,-48.764286,-42.180397,-34.6814232,-35.1802101,0.0,250410-250516
2025-11-02,0,755,27.95364238410596,26.572185430463577,25.103311258278147,24.94701986754967,25.203973509933775,27.781456953642383,-272.0,0.026490066225165563,0.02781456953642384,0.02913907284768212,0.09403973509933775,0.0913907284768212,0.08344370860927153,0.0,0.3567107433764642,0.3472952026751072,0.24761520839292656,0.4975943142580774,0.40362110045147154,0.6308803665317766,0.0,0.24242424242424243,0.3333333333333333,0.3939393939393939,0.6363636363636364,0.6363636363636364,0.6363636363636364,0.0,0.8880564107764445,1.153875045753974,0.8653382061122881,1.5220899980902955,1.131550967361848,1.9192305554976117,0.0,59.1625137,56.4325409,50.4866714,37.4700546,34.5221596,36.1024437,0.0,-53.6219788,-64.2409897,-46.4444046,-33.1545486,-32.4564323,-40.5352554,0.0,250410-250516
2025-11-03,0,3992,43.96142284569138,42.596442885771545,38.25325651302605,35.453406813627254,35.38627254509018,42.93687374749499,-272.0,0.010521042084168337,0.01778557114228457,0.011272545090180362,0.02530060120240481,0.025050100200400802,0.027304609218436873,0.0,0.788761751877984,0.57295854661936,0.1828792978037494,0.345457100021237,0.2509960028987195,0.4171589660802898,0.0,0.15,0.24,0.12,0.23,0.21,0.28,0.0,2.1036737890802004,0.5788206997786075,0.3937661275686188,0.8852956299123634,0.6155437646485772,0.9886489080892047,0.0,66.7621,57.9379616,55.686264,37.471962,32.8922768,38.6707649,0.0,-64.745018,-70.0681152,-47.5659561,-31.045908,-32.8112106,-38.6202202,0.0,250410-250516
2025-11-04,0,6000,45.7685,44.477833333333336,39.83,36.80616666666667,36.66016666666667,44.799,-272.0,0.007833333333333333,0.012833333333333334,0.0036666666666666666,0.013666666666666667,0.010166666666666666,0.013,0.0,0.7728525977258225,0.8690347573206155,0.25913470367308516,0.37051949564831493,0.17572775721389783,0.618942324622818,0.0,0.06722689075630252,0.14285714285714285,0.025210084033613446,0.08403361344537816,0.06722689075630252,0.10084033613445378,0.0,0.35728871514349053,0.4256665374115695,0.3280882178140031,0.2857675352828748,0.19194933048156587,0.27915474345098196,0.0,67.8602905,56.1798096,57.5970116,38.0222473,32.2027512,35.9546204,0.0,-54.6209793,-67.1850662,-51.9000664,-40.4026909,-37.2373505,-37.8181534,0.0,250410-250516
2025-11-05,0,6675,46.907865168539324,45.795205992509366,40.79056179775281,37.667415730337076,37.49722846441948,45.83670411985019,-272.0,0.0052434456928838954,0.010486891385767791,0.003445692883895131,0.00749063670411985,0.0052434456928838954,0.010337078651685393,0.0,0.6586538274617432,0.39188718048124105,0.3204453171000925,0.23327774203595153,0.25333976025187693,0.215802366741509,0.0,0.01680672268907563,0.12605042016806722,0.008403361344537815,0.01680672268907563,0.0,0.04201680672268908,0.0,0.12820529652446544,0.3198286582599281,0.09117017732740271,0.14422973354919405,0.11633676384222091,0.22332218299521964,0.0,65.7492676,57.9498825,55.7711487,34.2331848,31.3472786,36.3151207,0.0,-60.3575058,-69.7872467,-51.2124405,-38.3779793,-36.967453,-36.0509415,0.0,250410-250516
2025-11-06,0,6397,46.85743317179928,45.703454744411445,40.89166796936064,37.875254025324374,37.72737220572143,45.7394090980147,-272.0,0.004220728466468657,0.007347193997186181,0.0035954353603251522,0.01109895263404721,0.007972487103329685,0.012662185399405971,0.0,0.4010681834407653,0.287509719739535,0.11364298741548053,0.24986492069227145,0.2081360773117413,0.333769772301431,0.0,0.025,0.08333333333333333,0.025,0.06666666666666667,0.05,0.06666666666666667,0.0,0.18598082972195676,0.296955461063283,0.3426852863591004,0.6228964711526503,0.643179008091349,0.4253357841113924,0.0,68.1235123,56.8416786,55.8002357,33.8650551,31.4502773,37.1705933,0.0,-60.3827782,-68.1435394,-48.6627159,-43.781662,-35.5912552,-37.1782227,0.0,250410-250516
2025-11-07,0,4305,47.45528455284553,46.443205574912895,41.180720092915216,37.93449477351916,37.796747967479675,46.49709639953542,-272.0,0.003716608594657375,0.008362369337979094,0.004413472706155633,0.011149825783972125,0.008594657375145181,0.013008130081300813,0.0,0.14392890549481693,0.7041967359723451,0.12531523569460054,0.19176391257540548,0.16651397864600095,0.20497102681670756,0.0,0.06306306306306306,0.0990990990990991,0.05405405405405406,0.10810810810810811,0.10810810810810811,0.13513513513513514,0.0,0.5662715215225603,4.260762830405593,0.2641032471689082,0.5379154308709659,0.6290966416128936,0.6020556537599095,0.0,60.552536,57.3957787,57.6871338,38.2120323,29.8595,34.7014503,0.0,-56.7572784,-69.9369812,-51.9091263,-30.8380013,-31.6305275,-34.3714714,0.0,250410-250516
2025-11-08,0,6659,46.082444811533264,44.81784051659408,40.06577564198829,37.01156329779246,36.90479050908545,45.07748911247935,-272.0,0.006006907944135756,0.01036191620363418,0.006006907944135756,0.013515542874305451,0.009911398107823998,0.012914852079891875,0.0,0.9484298248000778,0.7067181577553441,0.6502447497476495,0.25753428088511243,0.27181302973451604,0.23405092231522165,0.0,0.075,0.1,0.05,0.09166666666666666,0.05,0.075,0.0,1.254092926182951,0.352143716869697,0.7372226746200141,0.4678009092753129,0.3852081619332005,0.45169740861608304,0.0,66.1998901,58.7967682,55.4363976,38.1910515,31.9767208,37.4815,0.0,-55.3510361,-69.3833542,-46.9265022,-36.7118607,-32.4182854,-37.5396729,0.0,250410-250516
2025-11-09,2,770,27.71948051948052,26.206493506493505,24.78181818181818,24.494805194805195,24.733766233766232,27.24025974025974,-272.0,0.03506493506493506,0.048051948051948054,0.03766233766233766,0.12337662337662338,0.1,0.13766233766233765,0.0,0.4701057013820011,0.6899680120119578,0.658163849910105,0.793396521980998,1.1670402107428022,0.9208301635420375,0.0,0.2692307692307692,0.2692307692307692,0.38461538461538464,0.5384615384615384,0.6923076923076923,0.5,0.0,1.5234165810884415,1.2371821495005055,0.9477275837494654,1.380578442751193,1.7269134324537145,1.8810768280378636,0.0,60.7456627,56.3891487,50.0603676,33.4597321,33.8078308,38.2892838,0.0,-54.009182,-67.0210266,-46.1911964,-31.8985195,-30.2800827,-38.8433876,0.0,250410-250516
2025-11-10,0,6750,45.30237037037037,44.04607407407408,39.2282962962963,36.252,36.16755555555556,44.42651851851852,-272.0,0.00874074074074074,0.01451851851851852,0.006222222222222222,0.014962962962962963,0.010518518518518519,0.01748148148148148,0.0,1.1199502201039715,1.2386450095010706,0.655489004025683,0.5473598818646254,0.5241934816776322,0.5722662724915757,0.0,0.015625,0.140625,0.046875,0.0859375,0.0546875,0.09375,0.0,0.13057284936477995,0.43942965521299726,0.17922702411467006,0.24792743124666894,0.2340174717578985,0.2629570905081064,0.0,67.3390961,59.204,57.2970695,38.1557655,31.5055943,35.2450638,0.0,-55.6428719,-69.8463821,-51.2849274,-43.486969,-36.4495888,-36.0042114,0.0,250410-250516
2025-11-11,0,4403,45.66818078582784,44.54326595503066,39.62639109697933,36.63820122643652,36.54394730865319,44.6325232795821,-272.0,0.006132182602770838,0.009993186463774699,0.005450828980240745,0.015216897569838746,0.012491483079718374,0.017488076311605722,0.0,0.2350415492522634,0.400236130039533,0.2460605091927655,0.36510073018426814,0.2425387511803368,0.25822599284022496,0.0,0.04424778761061947,0.13274336283185842,0.061946902654867256,0.168141592920354,0.07964601769911504,0.1415929203539823,0.0,0.32468102930884674,1.5500527554110557,0.5789530608611583,0.46752466844562873,0.3132099403217029,0.5431332735368383,0.0,61.1552773,57.5374069,55.3796539,36.3074913,31.7535553,36.1377296,0.0,-64.4794083,-68.2551193,-48.612648,-42.5485268,-36.3694801,-38.9025154,0.0,250410-250516
2025-11-12,0,6096,46.8500656167979,45.39484908136483,40.75803805774278,37.65255905511811,37.5246062992126,45.889599737532805,-272.0,0.006561679790026247,0.011482939632545932,0.0036089238845144356,0.009350393700787402,0.005741469816272966,0.011482939632545932,0.0,0.38647665483083476,0.4313006627051612,0.2958478563808876,0.13408575360925976,0.20585150761680887,0.13933235331916738,0.0,0.05785123966942149,0.1487603305785124,0.01652892561983471,0.049586776859504134,0.024793388429752067,0.08264462809917356,0.0,0.23667862448325877,1.7501081913902978,0.7415224869620196,0.23230756039266545,0.15064904205189095,0.23863533216759275,0.0,61.1710129,57.9885063,57.8697662,37.3193665,32.5022125,35.4739532,0.0,-60.7990685,-69.9155197,-51.8709793,-29.0812798,-31.9948425,-36.209259,0.0,250410-250516
2025-11-13,0,6532,46.27173913043478,45.122167789344765,40.17406613594611,37.13793631353337,37.056950398040414,45.22688303735456,-272.0,0.004439681567666871,0.011022657685241886,0.005664421310471525,0.009951010410287814,0.008113900796080833,0.013165952235150031,0.0,0.47815555054772785,0.5341625095645214,0.7024820262684613,0.29789062126509047,0.3962889899601263,0.34854349197980333,0.0,0.03305785123966942,0.11570247933884298,0.049586776859504134,0.05785123966942149,0.024793388429752067,0.08264462809917356,0.0,0.15656825269028685,0.3124177985574757,0.18576990365847337,0.21868419510015535,0.1676531794128977,0.33605643964290216,0.0,59.1267509,56.2685,57.8697662,36.9121361,31.7182693,36.9788971,0.0,-58.1902161,-70.0581,-51.9196167,-38.3617668,-32.8064423,-34.0681953,0.0,250410-250516
2025-11-14,1,4217,46.047901351671804,44.83803651885226,39.91889969172397,36.761678918662554,36.6950438700498,45.06948067346455,-272.0,0.007825468342423524,0.013279582641688404,0.004505572682001423,0.012331041024424947,0.00924828076831871,0.015650936684847048,0.0,0.43008332142319783,0.5821213448924976,0.34991571389690806,0.2163291484762493,0.16067752633078536,0.3151208512809267,0.0,0.11009174311926606,0.13761467889908258,0.08256880733944955,0.09174311926605505,0.11009174311926606,0.14678899082568808,0.0,0.5065619428336807,0.4547559978171641,0.3835719483286514,0.4299313423943451,0.4880515882744736,0.592011498015508,0.0,71.9883957,57.7019157,55.3419762,35.7524338,34.8445091,36.1987686,0.0,-56.0810966,-70.0256729,-49.263073,-33.0677605,-30.3334923,-37.7580719,0.0,250410-250516
2025-11-15,0,4439,46.83892768641586,45.41653525568822,40.973642712322594,38.04888488398288,37.99864834422167,45.661860779454834,-272.0,0.007434106780806488,0.013741833746339265,0.004505519261094841,0.013741833746339265,0.009461590448299166,0.012164902004956072,0.0,0.7942169948115358,0.5470407315686934,0.2474361199341037,0.31629374566397206,0.45700230086106947,0.5508387813438644,0.0,0.04807692307692308,0.19230769230769232,0.0673076923076923,0.10576923076923077,0.057692307692307696,0.057692307692307696,0.0,0.292431094374528,0.6808958112202484,0.20426214067795737,0.4739367519585303,0.3498228554102301,0.36552860540323934,0.0,66.523674,59.1505928,55.6047249,32.9037209,30.7540741,34.1435356,0.0,-55.3577118,-67.025322,-48.6035881,-42.6610603,-34.8216209,-37.7180176,0.0,250410-250516
2025-11-16,0,668,26.146706586826348,24.588323353293415,23.634730538922156,23.377245508982035,23.68562874251497,25.893712574850298,-272.0,0.04491017964071856,0.041916167664670656,0.059880239520958084,0.1467065868263473,0.12425149700598802,0.16766467065868262,0.0,0.5368442921957631,0.5567751860532021,0.5175216971594031,0.7370472522261264,0.636586208278179,0.8230264581828982,0.0,0.48,0.4,0.52,0.76,0.76,0.8,0.0,1.7484513656465541,1.6745636084366669,1.7383709801825022,1.973168805963674,2.090621456621966,2.4673465512507686,0.0,55.0644531,59.8162766,51.6225357,39.0655975,34.7920532,34.909359,0.0,-62.4709129,-68.845459,-46.2612915,-32.011055,-33.0839729,-38.2959595,0.0,250410-250516
2025-11-17,1,7268,45.83791964777105,44.42900385250413,39.720831040176115,36.59865162355531,36.54650522839846,45.05806274078151,-272.0,0.0059163456246560265,0.012383048981838195,0.005365987892129885,0.011970280682443588,0.007842597688497523,0.015822784810126583,0.0,0.5408194108063532,0.6154344451311198,0.36040656649047315,0.2959508083414032,0.2867214808488494,0.30850840194315987,0.0,0.04918032786885246,0.1557377049180328,0.03278688524590164,0.05737704918032787,0.03278688524590164,0.11475409836065574,0.0,0.22653095610931803,0.38874719595830787,0.20563967325394797,0.2899599197694229,0.2242402893026174,0.3029463518227127,0.0,60.3536911,56.6585655,55.5312881,37.6779633,31.0783329,34.9303436,0.0,-57.0553055,-71.7356644,-51.2663231,-43.6243019,-37.7037125,-35.806797,0.0,250410-250516
2025-11-18,0,6705,47.95495898583147,46.66860551826995,42.2862043251305,39.432214765100674,39.38374347501864,46.691275167785236,-272.0,0.002982848620432513,0.006114839671886652,0.0023862788963460104,0.005070842654735272,0.004325130499627144,0.005369127516778523,0.0,0.7972825837509268,0.5878353944910752,0.540642181531547,0.19614591292373718,0.3027263595544778,0.21503902899995708,0.0,0.024390243902439025,0.04065040650406504,0.008130081300813009,0.016260162601626018,0.016260162601626018,0.024390243902439025,0.0,3.6227868475523484,0.3282877465623698,1.385727020126893,1.3001200581315449,1.8138822385549491,1.2133498157820444,0.0,66.3358,56.1378403,55.7735329,36.5621262,31.0201588,34.7310181,0.0,-59.1658516,-69.654686,-47.9283676,-38.5401115,-36.9922485,-36.1053047,0.0,250410-250516
2025-11-19,0,2064,49.20639534883721,47.871608527131784,43.486434108527135,40.52713178294574,40.45203488372093,47.66521317829457,-272.0,0.00048449612403100775,0.005813953488372093,0.001937984496124031,0.0024224806201550387,0.0009689922480620155,0.0029069767441860465,0.0,0.05446677280110295,0.15465909458733942,0.06392385033317739,0.05495290903390845,0.034582535033145026,0.04733924069116363,0.0,0.015625,0.09375,0.03125,0.015625,0.0,0.0,0.0,0.12048261399792279,0.606145500243778,0.1573020941431408,0.10816596122509496,0.037641577238658394,0.08258181390489935,0.0,57.1726151,55.070652,55.5250893,37.3880348,30.3134613,33.6809921,0.0,-57.2174377,-69.6761398,-45.3218918,-27.8757954,-32.4182854,-33.2470551,0.0,250410-250516
2025-11-20,0,6573,49.41046706222425,48.142705005324814,43.76327399969573,40.83493077742279,40.77574927734672,48.05583447436483,-272.0,0.004564125969876769,0.007150464019473604,0.0030427506465845124,0.004259850905218318,0.0030427506465845124,0.003347025711242964,0.0,0.27863703464744044,0.6761107136654019,0.4722751089060396,0.12267161695562756,0.3791191236719486,0.2106694477343818,0.0,0.025,0.05,0.041666666666666664,0.025,0.008333333333333333,0.008333333333333333,0.0,1.298874487664306,1.6795784895908639,2.1210558675433577,0.4480604616956691,0.7080040378148087,1.2672944146924647,0.0,66.5022125,58.2913055,57.7605743,37.3365326,30.9028511,33.9117851,0.0,-64.6677704,-72.2287292,-51.9663467,-41.9400597,-32.2409,-37.4500237,0.0,250410-250516
2025-11-08,0,6659,46.082444811533264,44.81784051659408,40.06577564198829,37.01156329779246,36.90479050908545,45.07748911247935,-272.0,0.006006907944135756,0.01036191620363418,0.006006907944135756,0.013515542874305451,0.009911398107823998,0.012914852079891875,0.0,0.9484298248000778,0.7067181577553441,0.6502447497476495,0.25753428088511243,0.27181302973451604,0.23405092231522165,0.0,0.075,0.1,0.05,0.09166666666666666,0.05,0.075,0.0,1.254092926182951,0.352143716869697,0.7372226746200141,0.4678009092753129,0.3852081619332005,0.45169740861608304,0.0,66.1998901,58.7967682,55.4363976,38.1910515,31.9767208,37.4815,0.0,-55.3510361,-69.3833542,-46.9265022,-36.7118607,-32.4182854,-37.5396729,0.0,250410-250516
2025-11-09,2,770,27.71948051948052,26.206493506493505,24.78181818181818,24.494805194805195,24.733766233766232,27.24025974025974,-272.0,0.03506493506493506,0.048051948051948054,0.03766233766233766,0.12337662337662338,0.1,0.13766233766233765,0.0,0.4701057013820011,0.6899680120119578,0.658163849910105,0.793396521980998,1.1670402107428022,0.9208301635420375,0.0,0.2692307692307692,0.2692307692307692,0.38461538461538464,0.5384615384615384,0.6923076923076923,0.5,0.0,1.5234165810884415,1.2371821495005055,0.9477275837494654,1.380578442751193,1.7269134324537145,1.8810768280378636,0.0,60.7456627,56.3891487,50.0603676,33.4597321,33.8078308,38.2892838,0.0,-54.009182,-67.0210266,-46.1911964,-31.8985195,-30.2800827,-38.8433876,0.0,250410-250516
2025-11-10,0,6750,45.30237037037037,44.04607407407408,39.2282962962963,36.252,36.16755555555556,44.42651851851852,-272.0,0.00874074074074074,0.01451851851851852,0.006222222222222222,0.014962962962962963,0.010518518518518519,0.01748148148148148,0.0,1.1199502201039715,1.2386450095010706,0.655489004025683,0.5473598818646254,0.5241934816776322,0.5722662724915757,0.0,0.015625,0.140625,0.046875,0.0859375,0.0546875,0.09375,0.0,0.13057284936477995,0.43942965521299726,0.17922702411467006,0.24792743124666894,0.2340174717578985,0.2629570905081064,0.0,67.3390961,59.204,57.2970695,38.1557655,31.5055943,35.2450638,0.0,-55.6428719,-69.8463821,-51.2849274,-43.486969,-36.4495888,-36.0042114,0.0,250410-250516
2025-11-11,0,4403,45.66818078582784,44.54326595503066,39.62639109697933,36.63820122643652,36.54394730865319,44.6325232795821,-272.0,0.006132182602770838,0.009993186463774699,0.005450828980240745,0.015216897569838746,0.012491483079718374,0.017488076311605722,0.0,0.2350415492522634,0.400236130039533,0.2460605091927655,0.36510073018426814,0.2425387511803368,0.25822599284022496,0.0,0.04424778761061947,0.13274336283185842,0.061946902654867256,0.168141592920354,0.07964601769911504,0.1415929203539823,0.0,0.32468102930884674,1.5500527554110557,0.5789530608611583,0.46752466844562873,0.3132099403217029,0.5431332735368383,0.0,61.1552773,57.5374069,55.3796539,36.3074913,31.7535553,36.1377296,0.0,-64.4794083,-68.2551193,-48.612648,-42.5485268,-36.3694801,-38.9025154,0.0,250410-250516
2025-11-12,0,6096,46.8500656167979,45.39484908136483,40.75803805774278,37.65255905511811,37.5246062992126,45.889599737532805,-272.0,0.006561679790026247,0.011482939632545932,0.0036089238845144356,0.009350393700787402,0.005741469816272966,0.011482939632545932,0.0,0.38647665483083476,0.4313006627051612,0.2958478563808876,0.13408575360925976,0.20585150761680887,0.13933235331916738,0.0,0.05785123966942149,0.1487603305785124,0.01652892561983471,0.049586776859504134,0.024793388429752067,0.08264462809917356,0.0,0.23667862448325877,1.7501081913902978,0.7415224869620196,0.23230756039266545,0.15064904205189095,0.23863533216759275,0.0,61.1710129,57.9885063,57.8697662,37.3193665,32.5022125,35.4739532,0.0,-60.7990685,-69.9155197,-51.8709793,-29.0812798,-31.9948425,-36.209259,0.0,250410-250516
2025-11-13,0,6532,46.27173913043478,45.122167789344765,40.17406613594611,37.13793631353337,37.056950398040414,45.22688303735456,-272.0,0.004439681567666871,0.011022657685241886,0.005664421310471525,0.009951010410287814,0.008113900796080833,0.013165952235150031,0.0,0.47815555054772785,0.5341625095645214,0.7024820262684613,0.29789062126509047,0.3962889899601263,0.34854349197980333,0.0,0.03305785123966942,0.11570247933884298,0.049586776859504134,0.05785123966942149,0.024793388429752067,0.08264462809917356,0.0,0.15656825269028685,0.3124177985574757,0.18576990365847337,0.21868419510015535,0.1676531794128977,0.33605643964290216,0.0,59.1267509,56.2685,57.8697662,36.9121361,31.7182693,36.9788971,0.0,-58.1902161,-70.0581,-51.9196167,-38.3617668,-32.8064423,-34.0681953,0.0,250410-250516
2025-11-14,1,4217,46.047901351671804,44.83803651885226,39.91889969172397,36.761678918662554,36.6950438700498,45.06948067346455,-272.0,0.007825468342423524,0.013279582641688404,0.004505572682001423,0.012331041024424947,0.00924828076831871,0.015650936684847048,0.0,0.43008332142319783,0.5821213448924976,0.34991571389690806,0.2163291484762493,0.16067752633078536,0.3151208512809267,0.0,0.11009174311926606,0.13761467889908258,0.08256880733944955,0.09174311926605505,0.11009174311926606,0.14678899082568808,0.0,0.5065619428336807,0.4547559978171641,0.3835719483286514,0.4299313423943451,0.4880515882744736,0.592011498015508,0.0,71.9883957,57.7019157,55.3419762,35.7524338,34.8445091,36.1987686,0.0,-56.0810966,-70.0256729,-49.263073,-33.0677605,-30.3334923,-37.7580719,0.0,250410-250516
2025-11-15,0,4439,46.83892768641586,45.41653525568822,40.973642712322594,38.04888488398288,37.99864834422167,45.661860779454834,-272.0,0.007434106780806488,0.013741833746339265,0.004505519261094841,0.013741833746339265,0.009461590448299166,0.012164902004956072,0.0,0.7942169948115358,0.5470407315686934,0.2474361199341037,0.31629374566397206,0.45700230086106947,0.5508387813438644,0.0,0.04807692307692308,0.19230769230769232,0.0673076923076923,0.10576923076923077,0.057692307692307696,0.057692307692307696,0.0,0.292431094374528,0.6808958112202484,0.20426214067795737,0.4739367519585303,0.3498228554102301,0.36552860540323934,0.0,66.523674,59.1505928,55.6047249,32.9037209,30.7540741,34.1435356,0.0,-55.3577118,-67.025322,-48.6035881,-42.6610603,-34.8216209,-37.7180176,0.0,250410-250516
2025-11-16,0,668,26.146706586826348,24.588323353293415,23.634730538922156,23.377245508982035,23.68562874251497,25.893712574850298,-272.0,0.04491017964071856,0.041916167664670656,0.059880239520958084,0.1467065868263473,0.12425149700598802,0.16766467065868262,0.0,0.5368442921957631,0.5567751860532021,0.5175216971594031,0.7370472522261264,0.636586208278179,0.8230264581828982,0.0,0.48,0.4,0.52,0.76,0.76,0.8,0.0,1.7484513656465541,1.6745636084366669,1.7383709801825022,1.973168805963674,2.090621456621966,2.4673465512507686,0.0,55.0644531,59.8162766,51.6225357,39.0655975,34.7920532,34.909359,0.0,-62.4709129,-68.845459,-46.2612915,-32.011055,-33.0839729,-38.2959595,0.0,250410-250516
2025-11-17,1,7268,45.83791964777105,44.42900385250413,39.720831040176115,36.59865162355531,36.54650522839846,45.05806274078151,-272.0,0.0059163456246560265,0.012383048981838195,0.005365987892129885,0.011970280682443588,0.007842597688497523,0.015822784810126583,0.0,0.5408194108063532,0.6154344451311198,0.36040656649047315,0.2959508083414032,0.2867214808488494,0.30850840194315987,0.0,0.04918032786885246,0.1557377049180328,0.03278688524590164,0.05737704918032787,0.03278688524590164,0.11475409836065574,0.0,0.22653095610931803,0.38874719595830787,0.20563967325394797,0.2899599197694229,0.2242402893026174,0.3029463518227127,0.0,60.3536911,56.6585655,55.5312881,37.6779633,31.0783329,34.9303436,0.0,-57.0553055,-71.7356644,-51.2663231,-43.6243019,-37.7037125,-35.806797,0.0,250410-250516
2025-11-18,0,6705,47.95495898583147,46.66860551826995,42.2862043251305,39.432214765100674,39.38374347501864,46.691275167785236,-272.0,0.002982848620432513,0.006114839671886652,0.0023862788963460104,0.005070842654735272,0.004325130499627144,0.005369127516778523,0.0,0.7972825837509268,0.5878353944910752,0.540642181531547,0.19614591292373718,0.3027263595544778,0.21503902899995708,0.0,0.024390243902439025,0.04065040650406504,0.008130081300813009,0.016260162601626018,0.016260162601626018,0.024390243902439025,0.0,3.6227868475523484,0.3282877465623698,1.385727020126893,1.3001200581315449,1.8138822385549491,1.2133498157820444,0.0,66.3358,56.1378403,55.7735329,36.5621262,31.0201588,34.7310181,0.0,-59.1658516,-69.654686,-47.9283676,-38.5401115,-36.9922485,-36.1053047,0.0,250410-250516
2025-11-19,0,2064,49.20639534883721,47.871608527131784,43.486434108527135,40.52713178294574,40.45203488372093,47.66521317829457,-272.0,0.00048449612403100775,0.005813953488372093,0.001937984496124031,0.0024224806201550387,0.0009689922480620155,0.0029069767441860465,0.0,0.05446677280110295,0.15465909458733942,0.06392385033317739,0.05495290903390845,0.034582535033145026,0.04733924069116363,0.0,0.015625,0.09375,0.03125,0.015625,0.0,0.0,0.0,0.12048261399792279,0.606145500243778,0.1573020941431408,0.10816596122509496,0.037641577238658394,0.08258181390489935,0.0,57.1726151,55.070652,55.5250893,37.3880348,30.3134613,33.6809921,0.0,-57.2174377,-69.6761398,-45.3218918,-27.8757954,-32.4182854,-33.2470551,0.0,250410-250516
2025-11-20,0,6573,49.41046706222425,48.142705005324814,43.76327399969573,40.83493077742279,40.77574927734672,48.05583447436483,-272.0,0.004564125969876769,0.007150464019473604,0.0030427506465845124,0.004259850905218318,0.0030427506465845124,0.003347025711242964,0.0,0.27863703464744044,0.6761107136654019,0.4722751089060396,0.12267161695562756,0.3791191236719486,0.2106694477343818,0.0,0.025,0.05,0.041666666666666664,0.025,0.008333333333333333,0.008333333333333333,0.0,1.298874487664306,1.6795784895908639,2.1210558675433577,0.4480604616956691,0.7080040378148087,1.2672944146924647,0.0,66.5022125,58.2913055,57.7605743,37.3365326,30.9028511,33.9117851,0.0,-64.6677704,-72.2287292,-51.9663467,-41.9400597,-32.2409,-37.4500237,0.0,250410-250516
2025-11-21,0,6072,49.462450592885375,48.30385375494071,43.70750988142292,40.88652832674572,40.84222661396574,47.98781291172595,-272.0,0.0036231884057971015,0.004446640316205534,0.001976284584980237,0.002635046113306983,0.003458498023715415,0.003952569169960474,0.0,0.786519929048214,0.659979177458865,0.3172638279251065,0.4020813500159725,0.2879300315669871,0.4667092970407756,0.0,0.01680672268907563,0.04201680672268908,0.01680672268907563,0.0,0.01680672268907563,0.01680672268907563,0.0,0.13864522477476035,0.1657942078135046,0.12936710212495917,0.06270418325303802,0.07040412077279208,0.109209801920842,0.0,60.028,55.2303963,55.7887917,37.3928032,31.142231,34.5564919,0.0,-64.1403656,-66.4893417,-48.1734657,-31.3835182,-31.9805355,-34.9684906,0.0,250410-250516
2025-11-22,1,2967,50.21840242669363,49.0953825412875,44.368048533872596,41.578024941017866,41.50455005055612,48.86821705426357,-272.0,0.003370407819346141,0.004381530165149983,0.0023592854735422987,0.0016852039096730705,0.0020222446916076846,0.0023592854735422987,0.0,0.938489952931985,0.7461109845595939,0.46310769310283373,0.07014993839502666,0.11793887994987509,0.21855996600400734,0.0,0.02197802197802198,0.06593406593406594,0.02197802197802198,0.02197802197802198,0.02197802197802198,0.02197802197802198,0.0,0.3080963704690858,0.29855353033861975,0.17276704572498208,0.3689162367651416,0.2915549174140096,0.41379889850499524,0.0,71.903038,57.1549721,57.7834625,35.7028427,29.7717609,33.6170921,0.0,-55.3357773,-68.4139099,-43.0659103,-44.8383675,-31.7287598,-37.2392578,0.0,250410-250516
2025-11-24,0,5684,50.11893033075299,48.93490499648135,44.200387051372275,41.15675580577059,41.08585503166784,49.022167487684726,-272.0,0.003694581280788177,0.006861365235749472,0.0014074595355383533,0.0024630541871921183,0.0024630541871921183,0.002287121745249824,0.0,0.29615663076581694,0.29749545302405567,0.4594930296198713,0.13919394121696918,0.2994924574485367,0.2787956174548249,0.0,0.008771929824561403,0.02631578947368421,0.0,0.008771929824561403,0.008771929824561403,0.02631578947368421,0.0,0.11777200859665318,0.14502919947564882,0.06126095166192828,0.08650285683336272,0.07483665924642241,0.21939234716097394,0.0,61.1438332,55.1445618,57.8516464,33.9337196,29.9567795,33.7000656,0.0,-56.7534637,-66.7277679,-47.5287628,-35.5578766,-32.1512489,-33.4835739,0.0,250410-250516
2025-11-25,0,6200,48.273870967741935,47.071774193548386,42.58709677419355,39.8866129032258,39.86354838709678,46.97467741935484,-272.0,0.004032258064516129,0.006290322580645161,0.003064516129032258,0.003870967741935484,0.0032258064516129032,0.004516129032258065,0.0,0.7736250163523373,1.1535017034775519,0.6758016932259688,0.4269055459235397,0.5635153367293566,0.6233720524085578,0.0,0.041666666666666664,0.0,0.008333333333333333,0.016666666666666666,0.016666666666666666,0.016666666666666666,0.0,3.376740211524395,0.08167758663450715,0.8817855525787587,1.0143099385083574,1.2664918480491596,0.9561793330471541,0.0,61.0422668,57.1077576,57.8425903,37.5577965,31.3377419,34.4096184,0.0,-64.4961,-69.9064636,-47.8549309,-35.1287117,-32.2857246,-37.7113419,0.0,250410-250516
2025-11-26,0,3129,47.42122083732822,46.04666027484819,42.155960370725474,39.62288271013103,39.592201981463724,46.45637583892618,-272.0,0.002556727388942154,0.006391818472355385,0.0031959092361776927,0.006072227548737616,0.007031000319590924,0.005113454777884308,0.0,0.5027569710283607,1.0828227061695885,0.7620937642487314,0.1222085030897036,0.47080371835734197,0.08553280720412802,0.0,0.010309278350515464,0.061855670103092786,0.041237113402061855,0.030927835051546393,0.041237113402061855,0.041237113402061855,0.0,0.10032665923404506,2.3730181914046327,3.5723219228391234,0.26513344159333546,0.6791497698061424,0.28783994173613864,0.0,63.1213379,55.6586075,55.6695747,38.4723969,31.183239,34.3171082,0.0,-64.5089722,-66.5303497,-49.0194,-44.650486,-31.917593,-35.2412491,0.0,250410-250516
2025-11-27,0,5382,49.32571534745448,47.98049052396878,43.800074321813455,40.870865849126716,40.810665180230394,48.237086584912674,-272.0,0.0024154589371980675,0.005759940542549238,0.0020438498699368265,0.0037160906726124115,0.0024154589371980675,0.0029728725380899295,0.0,0.5254698533871002,0.6157817317490601,0.657602216387384,0.20498817427254679,0.3400349921576391,0.2815349564849498,0.0,0.017094017094017096,0.017094017094017096,0.0,0.0,0.008547008547008548,0.0,0.0,0.2365180689939786,0.17813013838319983,0.05912435258301445,0.04299772359176432,0.06182474412604872,0.06001884272468213,0.0,64.2705536,55.5088768,57.5164185,36.7872047,30.5146942,34.0958519,0.0,-56.852169,-69.8535309,-49.2363701,-42.0812111,-35.1353874,-35.5130539,0.0,250410-250516
2025-11-28,0,7089,49.709973197912255,48.4839892791649,44.00987445337847,41.019748906756945,40.95359006912118,48.4427987022147,-272.0,0.0025391451544646637,0.004796163069544364,0.0016927634363097758,0.002680208774157145,0.0015516998166172943,0.002680208774157145,0.0,0.46095252592781544,0.5156798683160998,0.6245686087529835,0.20363356426020174,0.33634167965508804,0.26275818385520683,0.0,0.016260162601626018,0.016260162601626018,0.0,0.0,0.0,0.008130081300813009,0.0,0.16397347775458657,0.11049223517483203,0.06692975842487409,0.06172805742474094,0.019052372254882263,0.07489860376428419,0.0,66.4583435,56.6700096,55.9590263,35.6561089,31.5361118,34.7138481,0.0,-57.3829041,-67.5207748,-48.5034485,-32.3305473,-32.2227783,-34.7329254,0.0,250410-250516
