caihaodong111/robot/UB43_360RB_100-error-rate-trend.csv
Timestamp,error1_c1,count,tem1_m,tem2_m,tem3_m,tem4_m,tem5_m,tem6_m,tem7_m,A1_e_rate,A2_e_rate,A3_e_rate,A4_e_rate,A5_e_rate,A6_e_rate,A7_e_rate,A1_Rms,A2_Rms,A3_Rms,A4_Rms,A5_Rms,A6_Rms,A7_Rms,A1_E,A2_E,A3_E,A4_E,A5_E,A6_E,A7_E,Q1,Q2,Q3,Q4,Q5,Q6,Q7,Curr_A1_max,Curr_A2_max,Curr_A3_max,Curr_A4_max,Curr_A5_max,Curr_A6_max,Curr_A7_max,Curr_A1_min,Curr_A2_min,Curr_A3_min,Curr_A4_min,Curr_A5_min,Curr_A6_min,Curr_A7_min,reference
2025-07-31,2426,5526,46.47303655446978,43.33224755700326,39.852696344553024,38.02949692363373,44.56876583423815,37.36590662323562,72.65345638798408,0.07654723127035831,0.06152732537097358,0.06080347448425624,0.06786102062975027,0.0499457111834962,0.0584509591024249,0.045783568584871516,3.299098746992399,7.312896566360589,2.6157573878018057,0.5798112843363848,1.186369514337025,1.130999835849951,4.186488691048578,0.22857142857142856,0.2,0.14285714285714285,0.22857142857142856,0.17142857142857143,0.2,0.3142857142857143,18.94757750285289,22.06919821149117,5.108454021941869,1.984165394847224,8.990835758951787,4.98184613143456,16.976606776802097,62.6466942,71.1117,40.7395287,9.57054234,23.6936016,36.1644325,85.8991165,-69.2543716,-65.1659622,-33.6949387,-13.7374535,-40.3174248,-31.605732,-91.7605743,250410-250516
2025-08-01,2576,5778,47.89563862928349,44.38577362409138,40.703011422637594,38.246105919003114,45.48165455174801,37.77587400484597,76.44184839044652,0.07649705780546902,0.0628245067497404,0.0647282796815507,0.06749740394600208,0.05261336102457598,0.05832467982000692,0.047248182762201454,3.21386064985183,6.981713535057632,2.5418644428629604,0.5980398568915449,1.1614194070643709,1.2549914996553404,4.007584822078698,0.21621621621621623,0.16216216216216217,0.16216216216216217,0.1891891891891892,0.13513513513513514,0.1891891891891892,0.1891891891891892,16.998365285767587,20.672863804461233,4.93693425738936,2.029680862055722,7.836185399396538,4.946031785692498,16.62179175856002,47.9483337,72.102066,40.9928551,10.2767992,24.2194271,33.781723,86.4551239,-68.5176315,-65.124527,-34.6972198,-14.1075935,-37.7944946,-31.7217236,-92.0695724,250410-250516
2025-08-03,190,387,36.679586563307495,35.6124031007752,33.71576227390181,35.78036175710594,37.689922480620154,33.92506459948321,45.333333333333336,0.09043927648578812,0.07235142118863049,0.07751937984496124,0.06459948320413436,0.06201550387596899,0.07235142118863049,0.08785529715762273,4.179337979083002,7.5828341070905445,2.588915359507892,0.5580621783355413,2.0694221145577614,1.2142193927391431,5.437956921141061,0.15384615384615385,0.0,0.0,0.07692307692307693,0.07692307692307693,0.07692307692307693,0.15384615384615385,1.5244463058971445,0.046536961252452595,0.0,0.764371851379753,0.16749956206407013,0.1556739321530315,0.9292042058003176,38.145752,70.6104126,36.3575592,10.9531555,23.5580215,18.9740582,81.8501663,-58.9805946,-57.8379402,-32.3976059,-9.70767,-33.388382,-31.4675713,-82.1482,250410-250516
2025-08-04,1289,2991,47.391173520561686,44.44299565362755,41.29789368104313,39.19358074222668,46.15279170845871,38.58876629889669,75.4770979605483,0.07723169508525576,0.06586425944500167,0.06452691407556001,0.06820461384152457,0.05215646940822467,0.06118355065195587,0.04246071547977265,2.835612739936776,6.940011303671503,2.6223884817171754,0.6188262672252418,1.078262540478076,1.1601218236395399,3.973982407306129,0.13333333333333333,0.1,0.1,0.13333333333333333,0.1,0.1,0.1,6.7613007136384855,19.115666246820634,5.00815708154461,1.3489234942588668,1.6700174928815503,1.4504953538943948,8.618377435559937,70.4038773,71.3098907,40.6951218,10.3319588,17.9110661,19.1818123,83.8085938,-60.3423042,-64.5695953,-34.883194,-15.2479124,-37.1449432,-30.9221573,-85.1418762,250410-250516
2025-08-05,2520,5759,46.69248133356486,43.47490883833999,40.11095676332697,38.166001041847544,44.934537246049665,37.50824795971523,74.07362389303698,0.08056954332349366,0.06719916652196561,0.0647681889216878,0.065810036464664,0.054002430977600276,0.06164264629275916,0.04410487931932627,2.990996870731372,6.860487103660366,2.712377496858771,0.6118309281805638,1.0510897387952072,1.0248961020887215,4.332059410741395,0.18181818181818182,0.18181818181818182,0.13636363636363635,0.1590909090909091,0.11363636363636363,0.1590909090909091,0.18181818181818182,14.120082854593164,17.946883140628763,4.461529469887396,1.585747637940801,5.951443981678019,3.8535018408831303,14.536310556906086,60.3256149,72.2007141,40.7338638,10.6856022,24.2431412,25.0653896,84.2749557,-71.7062759,-64.328186,-34.0233688,-12.7471476,-40.0890541,-31.9624691,-87.2295303,250410-250516
2025-08-06,2428,5471,47.15042953756169,43.97806616706269,40.46792176932919,38.616523487479434,44.980807896179854,37.76640467921769,72.60116980442332,0.08426247486748309,0.0720160848108207,0.06781210016450374,0.0696399195759459,0.05721074757813928,0.0634253335770426,0.049168342167793824,3.434659025678497,7.105732201429881,2.646062379264024,0.6369063107119115,1.3344264931121825,1.2132177086040339,4.208863411541254,0.21212121212121213,0.2727272727272727,0.18181818181818182,0.21212121212121213,0.18181818181818182,0.18181818181818182,0.18181818181818182,18.74617099048885,22.777989561710427,5.299150317713966,2.14020167291438,8.867686139445317,5.030207184722529,15.742911773529963,48.0675468,70.5239868,40.9976234,10.7438555,23.9255829,20.1365452,91.0896454,-68.4639893,-65.3400116,-34.6778488,-14.1380091,-40.2926788,-31.2814713,-91.1535416,250410-250516
2025-08-07,2046,4720,47.92457627118644,44.52838983050847,40.87690677966102,38.472033898305085,45.29512711864407,37.78707627118644,75.2281779661017,0.08072033898305085,0.0663135593220339,0.06334745762711864,0.0711864406779661,0.05402542372881356,0.059957627118644066,0.04152542372881356,2.8856777813871797,6.871242737608582,2.641617482288433,0.6167243666430379,0.9089440591536824,0.9062232424093704,4.056198952250621,0.1875,0.1875,0.125,0.1875,0.15625,0.15625,0.15625,19.086077195315777,22.653347074157054,5.268368096922003,2.1206672667020197,8.401544727992478,4.582356088295765,16.816112102640094,48.1894417,72.1712112,41.0718346,10.5608482,24.1689072,20.0184917,86.1461258,-71.891655,-64.7516937,-34.7031784,-7.89099312,-37.5269394,-32.3228111,-85.0307617,250410-250516
2025-08-08,1824,4045,46.48800988875154,42.8610630407911,38.92608158220025,36.407416563658835,43.606180469715696,35.852904820766376,75.04573547589617,0.07639060568603213,0.06106304079110012,0.06353522867737948,0.06625463535228678,0.051668726823238566,0.0588380716934487,0.048949320148331275,3.1192772022343025,7.395772488161327,2.5102030587364763,0.5750631089947602,1.0927986440327253,1.2979426594424321,3.8491861705054364,0.16129032258064516,0.12903225806451613,0.12903225806451613,0.16129032258064516,0.16129032258064516,0.0967741935483871,0.12903225806451613,15.34009953964919,22.275501582145317,5.107329894107059,1.9080487591293138,7.424254224970656,4.198738411053182,9.183189120732488,59.1019,71.5504074,40.6075,10.5824995,20.1917057,20.6680412,85.8528595,-62.1346703,-64.8166656,-34.6355286,-12.7600355,-36.5330276,-32.4238548,-87.3415909,250410-250516
2025-08-11,2674,5884,47.223657375934735,43.97076818490822,40.57987763426241,38.50917743031951,45.31101291638341,37.824609109449355,74.56611148878314,0.08514615907545887,0.06866077498300475,0.07053025152957172,0.07002039428959891,0.05659415363698164,0.06084296397008838,0.0491162474507138,3.5924192183871786,7.376253005708583,2.703372510517307,0.587977393576735,1.3126040183835312,1.183875810325473,4.47308350982705,0.2222222222222222,0.2222222222222222,0.16666666666666666,0.19444444444444445,0.1388888888888889,0.1388888888888889,0.19444444444444445,18.80128741773872,21.257351652149335,4.9832205330466515,2.0660919396392767,8.20776156843318,4.79437299956793,15.8593658573469,59.2515068,72.2937,40.8369827,10.5464134,23.9802284,32.1954803,91.3285522,-69.0689926,-63.5738678,-34.5932083,-13.5410414,-40.0699806,-32.4217911,-93.3036652,250410-250516
2025-08-12,2708,6102,47.34054408390691,43.85463782366437,39.951163552933465,37.45804654211734,44.59423139954114,36.95132743362832,75.51769911504425,0.08013765978367748,0.06538839724680433,0.06342182890855458,0.06522451655195018,0.051622418879056046,0.057849885283513605,0.04588659455916093,3.11543538860745,7.3054007558060565,2.685420370321956,0.5951124443694995,1.0025891104659719,0.9880365268400526,4.607208629120886,0.25,0.13636363636363635,0.13636363636363635,0.1590909090909091,0.13636363636363635,0.13636363636363635,0.1590909090909091,13.247861951075267,18.720839069817448,4.544795800809342,1.8627615692396169,6.07582438590508,3.6004687064294836,14.253657626803644,72.6209412,71.9745102,40.9719925,10.3866034,23.7271099,33.1100044,86.9272079,-70.7227707,-63.7172241,-34.7031784,-14.3112211,-41.8851089,-41.0489426,-85.2358093,250410-250516
2025-08-13,2717,5993,46.422326047054895,42.82179209077257,39.01101284832304,36.635741698648424,43.73135324545303,35.972634740530616,74.7573836142166,0.08026030368763558,0.06357416986484232,0.06440847655598197,0.06924745536459202,0.05356248957116636,0.06007008176205573,0.04471883864508593,3.2994689723018986,6.957043926459419,2.585770314523671,0.6553019989899501,1.2035834444460867,1.2867545299919767,4.201256659654679,0.1891891891891892,0.1891891891891892,0.16216216216216217,0.1891891891891892,0.10810810810810811,0.16216216216216217,0.1891891891891892,16.579096625349386,20.599809763920778,4.90033387377845,2.144299440309338,7.959785954887813,4.182463919659113,15.79720518770373,48.5062523,72.8945313,40.6981,10.8459282,22.1063309,20.5644226,86.682579,-69.6644592,-64.8196487,-34.6847038,-12.3502016,-40.187,-32.0702095,-89.9404297,250410-250516
2025-08-14,2688,5942,46.045439246045106,42.49225849882195,38.70447660720296,36.34937731403568,43.58902726354763,35.833052844160214,74.19808145405587,0.07977112083473578,0.06445641198249748,0.06546617300572198,0.070851565129586,0.0568832043083137,0.06008078088185796,0.05065634466509593,3.2403049019419234,7.094568667327289,2.5843828167541814,0.6371628393754882,1.1632643479748825,1.1064817926836468,4.137649550364498,0.17142857142857143,0.14285714285714285,0.14285714285714285,0.17142857142857143,0.14285714285714285,0.14285714285714285,0.17142857142857143,15.00884221131174,21.244224603755494,5.09924056630451,1.9909387205992548,7.0905516623638,3.7315100633893863,17.86974613332424,47.8878326,72.9425125,40.7741,10.6557026,21.3856392,31.4675713,90.4692612,-70.7746277,-64.6420212,-34.6334419,-10.7794266,-40.2169,-32.8656502,-85.0679626,250410-250516
2025-08-15,2539,5752,46.482440890125176,42.83570931849791,39.03929068150209,36.61474269819193,43.96070931849791,36.07110570236439,75.28789986091795,0.07910292072322671,0.06484700973574409,0.06223922114047288,0.06797635605006955,0.05146036161335188,0.0575452016689847,0.045027816411682894,3.1064917778603043,7.14405559666654,2.7166440684503095,0.6186026787201883,1.073991943501986,1.1845649338045736,3.424861838577635,0.20588235294117646,0.11764705882352941,0.11764705882352941,0.14705882352941177,0.11764705882352941,0.11764705882352941,0.17647058823529413,17.1207770950045,21.764564174566484,4.937667778620156,1.884518430837627,8.269066116909153,4.718153412729675,9.06779928542201,71.1227264,71.556366,40.776783,10.7768488,23.6167889,33.1125832,86.3406754,-71.9143066,-63.4272385,-33.9345551,-13.6987896,-39.9777,-31.730484,-92.8268127,250410-250516
2025-08-17,86,193,34.33160621761658,33.39378238341969,31.642487046632123,33.56476683937824,35.72020725388601,31.974093264248705,42.78238341968912,0.11398963730569948,0.07253886010362694,0.07772020725388601,0.07253886010362694,0.06217616580310881,0.08290155440414508,0.06735751295336788,2.9065893562758824,8.420058364153412,2.901452624938339,0.6254454041258761,0.8099935065388748,1.5198562221136969,3.4513449490225026,0.0,0.0,0.0,0.0,0.0,0.0,0.0,0.0,0.0,0.07863777030455495,0.06801088362708972,0.12391061991880073,0.020287993681982898,0.0,46.4909554,62.1993408,39.0157089,7.43424654,12.3548412,19.2364559,70.2769775,-52.018856,-54.9559669,-33.7047729,-7.34609365,-40.0797729,-28.1002274,-76.2252197,250410-250516
2025-08-18,2507,11869,47.85752801415452,44.61858623304406,41.26615553121577,38.90260342067571,46.202881455893504,38.274328081556995,77.2878085769652,0.07675457073047434,0.06647569298171707,0.0639481000926784,0.06411660628528099,0.05291094447720954,0.06150476029994102,0.047602999410228324,3.3592504598799633,6.982641107307277,2.5843416440493945,0.5963605544322456,1.2990926426328646,1.1557525573759115,4.46583412120424,0.18032786885245902,0.14754098360655737,0.11475409836065574,0.11475409836065574,0.11475409836065574,0.13114754098360656,0.18032786885245902,12.980108145328098,17.275479243445794,3.9180504223952197,1.5704720013809548,5.829909754751872,3.2888847225241817,13.290549873534587,47.8359756,72.1279907,40.5469971,10.9686203,24.2013836,29.6962624,88.9314117,-73.0453339,-64.9773,-34.7097359,-12.2393656,-41.8031387,-37.9259491,-91.0753403,250410-250516
2025-08-19,0,6140,46.356840390879476,42.70211726384365,38.88241042345277,36.541205211726385,43.551465798045605,35.932736156351794,74.26465798045602,0.07947882736156352,0.06351791530944625,0.06400651465798046,0.06775244299674267,0.05504885993485342,0.058469055374592835,0.0501628664495114,3.2899902887038768,6.966506857523846,2.5300427474658043,0.5895516639203107,1.2398716749978984,1.2471650388285493,4.138047192338612,0.16279069767441862,0.13953488372093023,0.13953488372093023,0.16279069767441862,0.13953488372093023,0.16279069767441862,0.20930232558139536,16.139437704067422,19.38597148193505,4.584359302460478,1.9045271890362616,7.877951682424206,4.121640448712849,15.618561261082379,68.7199936,72.909729,40.8024139,10.3902121,24.0998287,29.3343697,87.7168732,-71.8010559,-64.9325943,-34.6265869,-14.4627838,-41.8366508,-39.3467102,-86.7064209,250410-250516
2025-08-20,0,5669,46.910389839477865,43.195272534838594,39.463926618451225,36.8828717586876,44.34503439760099,36.36620215205504,76.33462691832774,0.08079026283295114,0.06456165108484742,0.06403245722349621,0.07091197742106192,0.05433056976539072,0.06103369200917269,0.04709825366025754,3.1126060446442825,7.149465941345771,2.6795725152001872,0.5734745392630686,1.0485727463062748,0.9938101057067711,4.3631300535688835,0.16666666666666666,0.14285714285714285,0.14285714285714285,0.16666666666666666,0.16666666666666666,0.14285714285714285,0.19047619047619047,15.677498606672463,19.3431315115253,4.598781057819958,1.7336799980146995,7.28689920012805,3.800401718461275,15.704334756732058,54.1119385,72.923439,40.4939499,10.6680756,23.1373615,29.9813423,91.2818146,-67.0259781,-64.832756,-34.7368584,-10.2520542,-41.8577843,-42.7109642,-91.0834427,250410-250516
2025-08-21,2113,10374,46.11278195488722,42.60892616155774,38.912955465587046,36.62724117987276,43.69539232697127,36.02554463080779,73.67804125698862,0.08077887025255447,0.06641604010025062,0.06728359359938307,0.06844033159822634,0.056487372276845964,0.05928282244071718,0.048293811451706185,3.1079786515410275,7.324947431562048,2.6877949338102516,0.6308019539082644,1.0902255030537644,1.0750595872410804,4.172787100378084,0.2,0.17142857142857143,0.14285714285714285,0.2,0.14285714285714285,0.17142857142857143,0.2571428571428571,17.582483970493133,21.28007122566547,5.075979991764599,2.0767543867701144,7.818203178841364,4.2889840217976,17.409862687699896,48.1489105,72.6298828,40.7761879,10.4876442,23.2353096,20.4288425,88.0873871,-64.4083633,-65.0157547,-34.8286552,-12.2811232,-37.2382507,-32.4929314,-84.8147507,250410-250516
2025-08-22,2215,5238,45.198167239404356,41.83581519663994,38.23768613974799,36.184421534937,43.22680412371134,35.639938907980145,72.85872470408553,0.07999236349751813,0.06510118365788468,0.06414662084765177,0.0683466972126766,0.05231004200076365,0.0572737686139748,0.04639175257731959,2.8484691066946892,6.932284342631858,2.646582610205826,0.6090675655302684,1.0701074789448783,0.9202807122115397,3.563872165506599,0.1875,0.15625,0.15625,0.1875,0.09375,0.125,0.1875,18.05127505787302,23.119942752058705,5.384894420450767,2.013909933300683,9.498435556868266,5.280759312126368,14.420099759484046,64.4581299,68.5587616,40.6367073,10.7572594,23.9972401,20.4298744,86.5643234,-61.7254715,-64.9054794,-33.9369431,-14.4282446,-41.6629181,-32.0336113,-85.0956192,250410-250516
2025-08-25,1172,2708,44.0,40.61595273264402,37.181683899556866,35.77178729689808,41.95162481536189,34.92909896602659,69.54874446085672,0.08419497784342689,0.0653618906942393,0.06683899556868537,0.07200886262924668,0.05982274741506647,0.06019202363367799,0.047636632200886264,3.331923526868787,7.588690284519545,2.832585826597298,0.6505763250127566,1.1949880060978206,1.166609710849132,3.8708582037356978,0.16129032258064516,0.12903225806451613,0.12903225806451613,0.16129032258064516,0.16129032258064516,0.0967741935483871,0.1935483870967742,18.875198914932923,22.314120485981082,4.8930975022556344,2.26899887538255,8.84440813690559,5.07074364781313,8.531570631851487,47.5492668,71.7703552,40.5145149,11.0397615,20.1927357,35.116909,83.9826431,-67.9984589,-62.8830299,-34.8155403,-14.0936747,-41.7098312,-32.5120049,-84.8700714,250410-250516
2025-08-26,2286,5305,44.7670122525919,41.189255419415645,37.71366635249765,35.70216776625825,42.35174363807729,35.20603204524034,71.61149858623939,0.07954759660697455,0.06352497643732329,0.06333647502356268,0.06880301602262016,0.051837888784165884,0.059754948162111216,0.044674835061262956,3.058461280868096,6.887261673158092,2.668627051052739,0.6190530155312164,1.1086713391409824,1.1050658144640406,3.797955540517415,0.1875,0.15625,0.15625,0.1875,0.15625,0.15625,0.25,18.705627416913487,22.594984907090446,5.241899580864651,2.0459217679973185,9.267297756331418,5.397320741250475,15.588059762046822,69.8119812,72.9544373,40.4459648,10.3567038,23.8085613,21.0974655,87.3568497,-60.5989113,-64.8279877,-33.9461823,-13.4693861,-41.7072525,-34.5910835,-86.9777527,250410-250516
2025-08-27,2279,5341,43.93503089309118,40.43606066279723,36.778880359483246,34.64650814454222,41.44429882044561,34.30462460213443,71.6019472008987,0.0836921924733196,0.06702864632091368,0.06590526118704362,0.07058603257816888,0.05205017786931286,0.061037258940273356,0.05205017786931286,3.06639253992374,7.30588264627904,2.5756527734563672,0.6406637875680363,0.9548313346581944,1.1212280168755493,3.9413588783079887,0.16129032258064516,0.12903225806451613,0.12903225806451613,0.16129032258064516,0.16129032258064516,0.12903225806451613,0.1935483870967742,19.99268104927767,22.618611015685083,4.944034970410172,2.0483762304574875,9.261559150125336,5.636841546547322,8.846710606522002,48.2562,73.3588715,40.6128654,9.67570782,24.010128,20.6974258,87.1556168,-68.1003876,-64.861969,-34.7311974,-9.97161388,-39.9014053,-41.3005142,-92.2522049,250410-250516
2025-08-28,3792,9144,45.70319335083115,42.619313210848645,39.348753280839894,37.30588363954506,44.06813210848644,36.81791338582677,72.81167979002625,0.0778652668416448,0.0639763779527559,0.06321084864391951,0.06835083114610674,0.05096237970253718,0.05643044619422572,0.047462817147856516,2.895733064459549,6.9359981711213745,2.5144966078683124,0.6172947858957276,0.8893337848836137,0.946546566990666,3.6098416564695177,0.2,0.2,0.14285714285714285,0.2,0.17142857142857143,0.14285714285714285,0.2,14.633166563994614,19.52681875654724,4.984423216449214,1.8335418102553904,5.837386394184922,3.929750721640022,13.701923989300706,47.8049812,72.3670197,40.9582825,9.71798,24.0188904,28.5595512,86.5800552,-69.423645,-63.9932022,-34.7911,-10.6974592,-36.6289139,-32.1150589,-86.1399231,250410-250516
2025-08-29,1428,3312,45.96407004830918,42.84299516908212,39.378321256038646,37.6256038647343,44.21407004830918,37.033212560386474,71.7487922705314,0.08121980676328502,0.06853864734299517,0.06551932367149758,0.06944444444444445,0.05495169082125604,0.060084541062801936,0.04770531400966183,2.7742124129317767,7.072338168698092,2.592973915655799,0.6527399111344484,0.7989726843744569,0.8814413631966611,4.34428499640317,0.16129032258064516,0.12903225806451613,0.12903225806451613,0.16129032258064516,0.12903225806451613,0.12903225806451613,0.16129032258064516,10.229536906978193,19.382153509618163,4.709745781646655,1.6452274578392845,3.3238711112524078,4.4113011246698495,7.935121882120554,63.6617889,71.5647125,40.8372803,10.552084,18.6461906,20.6015415,90.1407089,-58.1097488,-65.0571747,-34.7309,-10.3005123,-40.0668869,-31.7279072,-86.7660294,250410-250516
2025-09-01,796,1727,47.198031268094965,43.70179502026636,40.094962362478284,38.18239722061378,44.430225825130286,37.150550086855816,73.29762594093805,0.07411696583671105,0.06195715112912565,0.06485234510712218,0.06311522872032427,0.05385060799073538,0.061378112333526344,0.04226983207874928,2.940401914136157,6.071147981809352,2.6776580750153527,0.5552904903447197,1.124900741347422,1.1736494967287154,3.6183957427891733,0.16666666666666666,0.1,0.13333333333333333,0.13333333333333333,0.13333333333333333,0.1,0.13333333333333333,6.915932375721448,19.048985425369246,4.9227093504258095,1.3434019386770752,1.531989580552565,1.5182910436435715,8.778194353438593,51.4925346,71.1814423,40.613163,9.08235,24.0302315,19.7014503,81.9588928,-65.9548492,-64.2822952,-34.4248199,-9.87469673,-41.8258209,-31.5294361,-87.053093,250410-250516
2025-09-02,2323,5401,46.61396037770783,43.15663765969265,39.56471023884466,37.25439733382707,44.14108498426217,36.78948342899463,74.13867802258841,0.07776337715237919,0.06295130531383077,0.06258100351786706,0.06887613404925014,0.05221255323088317,0.06072949453804851,0.04443621551564525,2.8171570658435763,6.699163756588672,2.593134697657915,0.6249094055064126,0.9440226896099752,1.0477707404549865,3.503828966326802,0.16129032258064516,0.12903225806451613,0.12903225806451613,0.16129032258064516,0.16129032258064516,0.12903225806451613,0.16129032258064516,15.241408910896853,21.879316092101703,5.105176721200675,1.9078947868319447,7.178609353298472,4.252655399057116,9.284871557925293,48.3670692,72.2788,40.8647,10.4242363,23.3765602,20.2669716,88.8713303,-61.0927505,-65.0279694,-34.7505684,-7.58168459,-40.0204887,-31.9129791,-87.0716934,250410-250516
2025-09-03,1377,3114,45.564868336544635,42.47141939627489,39.439627488760436,37.98298008991651,44.140655105973025,37.18625561978163,70.91297366730893,0.08542068079640334,0.07096981374438022,0.06518946692357097,0.07032755298651253,0.05684007707129094,0.06422607578676943,0.048811817597944764,3.268546812047879,7.070291626351582,2.6871278049115737,0.6299233457702526,1.2460192633188931,1.1493635546696732,4.368906453197239,0.17647058823529413,0.23529411764705882,0.11764705882352941,0.20588235294117646,0.11764705882352941,0.14705882352941177,0.20588235294117646,16.263841133884327,21.025232502342188,4.90174595548862,1.840916313846115,7.7348555948593605,4.201736484391891,17.39833034546109,60.8105125,70.798172,40.8891411,9.53651905,23.3110886,20.6283474,88.750206,-62.935482,-64.9585342,-34.5413513,-10.5453815,-41.688694,-32.6728477,-85.4651794,2025-07-30_2025-09-03
2025-09-04,942,6986,46.76467220154595,43.34912682507873,39.69467506441455,37.508874892642424,44.19725164614944,36.92713999427426,73.22201545949041,0.024334383051817923,0.020898940738620097,0.02046951044947037,0.020612653879186944,0.018751789292871458,0.01903807615230461,0.024906956770684226,1.8868243563400258,3.7082645600444586,1.386638668758722,0.37190843874034757,0.7640546474697694,0.6349260011259028,2.538018003228539,0.12,0.12,0.12,0.08,0.1,0.08,0.22,6.186528312201661,9.406142176985652,3.6688819814804567,1.1786467823100688,2.976033622276164,1.3156532768633669,13.129386040756165,67.1791687,74.8296585,44.5299034,13.4033995,26.8083458,26.4809933,90.1578751,-64.7069855,-72.5616302,-34.7556343,-13.804986,-37.6264381,-37.4470367,-87.0654907,2025-07-30_2025-09-03
2025-09-05,0,8149,46.750276107497854,43.343968585102466,39.743772241992886,37.46656031414898,44.329733709657624,36.828199779114,74.47662289851516,0.004540434409129954,0.0020861455393299793,0.0008590011044299914,0.002208859982819978,0.0013498588783899864,0.003804147748189962,0.009326297705239907,0.25306884031568627,0.06818388615734838,0.04804324436543091,0.059007881955486396,0.07087898311203591,0.08088195554105913,0.9220736489101559,0.015873015873015872,0.031746031746031744,0.0,0.015873015873015872,0.0,0.0,0.031746031746031744,0.13528763659113147,0.2531911419073895,0.01437266109352615,0.09261616284026902,0.02767197142158783,0.07501267654514339,0.38479624730952194,69.0797195,72.6471634,41.8824806,13.9493303,25.3061333,28.0790901,90.1035156,-70.6852188,-77.3486252,-34.8077888,-12.9610863,-40.7906685,-37.8171768,-85.5591202,2025-07-30_2025-09-03
2025-09-06,1,7636,47.2454164484023,43.92810371922472,40.689366160293346,38.78535882661079,45.14169722367732,38.00130958617077,73.34429020429545,0.003143006809848088,0.002750130958617077,0.0010476689366160294,0.0009167103195390257,0.00248821372446307,0.003273965426925092,0.011000523834468309,0.2071778220624608,0.18062191877429656,0.13040189683015738,0.034089811407912146,0.048415752762956454,0.1586873826414443,0.42464028853794794,0.017241379310344827,0.017241379310344827,0.0,0.0,0.034482758620689655,0.0,0.08620689655172414,1.0183375654410878,0.16473701240166996,0.02104676508820268,0.060395596151312306,0.15427837357869836,0.03694730195577751,0.5927796911512784,71.5450439,79.1648331,42.7888,13.8307619,26.4057274,34.526123,90.6471252,-68.7539673,-77.3525,-34.5342,-13.3678284,-40.4251709,-38.0723572,-92.3142,2025-07-30_2025-09-03
2025-09-08,0,8183,46.9085909813027,43.63008676524502,40.49101796407186,38.35353782231456,45.16595380667237,37.72968349016253,74.8416228766956,0.004888182818037394,0.002077477697665893,0.000855431993156544,0.0009776365636074789,0.0025662959794696323,0.002810705120371502,0.01283147989734816,0.46589694752245975,0.39718606521922406,0.04890612192342419,0.057266151822214804,0.058373595638022996,0.13769008132537294,0.7924589183900254,0.0,0.015873015873015872,0.0,0.015873015873015872,0.0,0.0,0.031746031746031744,0.046912511909143854,0.28424023743324783,0.07126769631067187,0.13460178939790393,0.02060605295819588,0.07447146178176951,0.2755468229900712,71.5074921,75.5082779,43.0465965,13.5549603,26.6939011,26.1737461,91.6046448,-69.5291519,-77.737854,-34.6391068,-12.5945549,-40.9329491,-42.2980385,-93.0833664,2025-07-30_2025-09-03
2025-09-09,0,7929,48.05435742212133,44.693908437381765,41.13356034808929,38.98852314289318,45.74322108714844,38.35780047925337,75.89191575230167,0.00340522133938706,0.003026863412788498,0.0006305965443309371,0.0010089544709294992,0.0011350737797956867,0.0018917896329928112,0.009585067473830243,0.1664169976402596,0.11472446143630442,0.054647211792164245,0.03604325429016014,0.03953634558881571,0.04463915473467296,0.18453152114141175,0.0,0.03773584905660377,0.03773584905660377,0.0,0.018867924528301886,0.0,0.018867924528301886,0.02890877020731898,0.1845958369403829,0.17748272312522803,0.027220480909288764,0.13175253503017698,0.047595477496195464,0.09688009630952435,73.91082,78.1470566,43.973774,13.3688602,25.2463341,33.5322113,89.5417786,-69.208168,-74.0893402,-34.7356682,-17.0486088,-40.4952812,-35.8628578,-84.9463654,2025-07-30_2025-09-03
2025-09-10,0,8078,46.54270859123545,43.40257489477593,39.95964347610795,38.08566476850706,44.413716266402574,37.408764545679624,72.29549393414212,0.0049517207229512255,0.0037137905422134194,0.0006189650903689032,0.0008665511265164644,0.002352067343401832,0.0029710324337707352,0.01163654369893538,0.2591520202208917,0.3302532205882189,0.04723828779715173,0.04459232067246891,0.08723374695246368,0.08958596630531993,0.27323455851977635,0.03333333333333333,0.0,0.016666666666666666,0.016666666666666666,0.016666666666666666,0.016666666666666666,0.08333333333333333,0.8798182499705919,0.056160250392412826,0.09940148335855029,0.11624330269325515,0.2794119959963774,0.20117833468586108,0.46818299577251615,68.0661087,78.0242615,43.5529518,13.5224838,26.1185856,30.0200081,88.7821579,-68.0091858,-78.9070358,-33.9244232,-13.7529192,-40.95718,-41.1901932,-91.1754761,2025-07-30_2025-09-03
2025-09-11,0,7797,48.86135693215339,45.61498012055919,42.204437604206746,39.97332307297678,46.812620238553286,39.381941772476594,77.25689367705527,0.00243683468000513,0.003719379248428883,0.0007695267410542517,0.0011542901115813775,0.00243683468000513,0.00243683468000513,0.012825445684237527,0.18137090584214594,0.30685541601453203,0.0489571496992691,0.06956969015678086,0.06478613110710651,0.12444603849189886,0.4526736736807357,0.021739130434782608,0.021739130434782608,0.0,0.021739130434782608,0.0,0.0,0.10869565217391304,0.2051147165089966,0.1487354091462031,0.04630392727803961,0.09130660888245262,0.0553600537250377,0.02837659303076252,0.6455306378291106,65.9870377,71.7274399,42.8740349,13.5317621,24.1823101,27.090332,88.7845459,-67.8825226,-77.6910629,-34.7773895,-13.0275888,-41.8381958,-36.429924,-91.2417603,2025-07-30_2025-09-03
2025-09-12,0,7539,47.42552062607773,44.46756864305611,40.977715877437326,39.04337445284521,45.600344873325376,38.4927709245258,73.76402705929168,0.003846664013794933,0.0030508024936994295,0.0009285051067780873,0.0006632179334129195,0.002652871733651678,0.001459079453508423,0.009417694654463456,0.2594861509061295,0.0959275888849065,0.04906544772880836,0.024449442576888122,0.25267559033450737,0.14993224568217933,0.17216233521820756,0.0,0.0392156862745098,0.0,0.0,0.0,0.0,0.0196078431372549,0.06292066237232545,0.12782732135778355,0.010532756463239817,0.034716896386970286,0.08139075730587078,0.023023402866606302,0.18104290577851714,70.6399231,69.9300079,42.1071968,13.2183294,24.9880619,25.7164841,88.8493958,-62.9238586,-73.9984436,-34.685,-12.6600266,-41.7835503,-37.2763977,-85.5753326,2025-07-30_2025-09-03
2025-09-13,2,6875,46.71956363636364,43.734109090909094,40.29745454545454,38.42632727272727,44.85643636363636,37.70196363636364,72.37818181818182,0.002618181818181818,0.002909090909090909,0.0002909090909090909,0.0008727272727272727,0.001309090909090909,0.0020363636363636365,0.011490909090909092,0.2154944551419755,0.31006550305454345,0.034431189219197654,0.10475289476559708,0.05714865851120401,0.15482008947081127,0.4145355982206048,0.07547169811320754,0.05660377358490566,0.0,0.018867924528301886,0.0,0.05660377358490566,0.03773584905660377,0.28458258951765586,3.424993701535148,0.01596153292079716,0.7740970574207034,0.010394748824311267,1.55534000357892,3.586306113100058,68.9971619,80.8704758,43.6975,13.6544552,25.1690063,34.3235283,90.6223297,-66.809906,-73.4932785,-34.7279205,-13.3219481,-40.3627892,-36.2871246,-87.2233353,2025-07-30_2025-09-03
2025-09-15,0,8168,44.753428011753186,41.63124387855044,38.334231145935355,36.47771792360431,43.13724289911851,35.94343780607248,71.9982859941234,0.0034280117531831538,0.0026934378060724778,0.0008570029382957884,0.0011018609206660138,0.0022037218413320275,0.0019588638589618022,0.01114103819784525,0.187794773049021,0.4545215307506466,0.18571777410507562,0.047824473497562366,0.11314656955238592,0.08200383820888259,0.32255582160953616,0.0,0.0392156862745098,0.0196078431372549,0.0196078431372549,0.0,0.0196078431372549,0.0,0.0940672922046091,0.8734271351838268,0.09063510032392465,0.24449602029495746,0.03920025076942722,0.5897521001466641,0.03222276572769876,72.4147,71.8278732,45.02285,13.1781187,26.5062542,25.2133408,88.076416,-72.4969559,-77.0455246,-34.5216827,-16.7398148,-40.6633377,-36.9531708,-89.2919159,2025-07-30_2025-09-03
2025-09-16,0,9640,46.6945020746888,43.03516597510374,39.27219917012448,36.91078838174274,43.84346473029046,36.30300829875519,74.73205394190872,0.0032157676348547716,0.0035269709543568465,0.0002074688796680498,0.0009336099585062241,0.001970954356846473,0.0017634854771784233,0.01099585062240664,0.19458724348647546,0.1751504727925588,0.03190464436391504,0.06069755336989224,0.06956057346670445,0.10837237224421356,0.25151785191847587,0.017241379310344827,0.034482758620689655,0.017241379310344827,0.017241379310344827,0.0,0.034482758620689655,0.034482758620689655,0.11197896624634907,1.4746689637419998,0.15172978624602185,0.39282598208996916,0.01192286773963037,0.8735034178782728,1.1433014736934122,70.8965225,80.6672134,44.9084053,13.2322493,24.9313526,33.3455963,88.4779282,-67.2456284,-79.1740723,-34.6706963,-12.9059267,-40.8226318,-39.0719414,-85.3488235,2025-07-30_2025-09-03
2025-09-17,0,7811,45.71924209448214,42.04147996415312,38.44360517219306,36.05543464345154,43.02982972730764,35.53245423121239,74.21021636154141,0.0037127128408654462,0.00345666367942645,0.0005120983228779926,0.000896172065036487,0.0021764178722314684,0.004736909486621432,0.012290359749071823,0.8506766151221612,0.24314437494589208,0.1071193076601665,0.0820066565692741,0.22390931204230113,0.1851523419043014,0.3993142689308782,0.037037037037037035,0.018518518518518517,0.0,0.018518518518518517,0.0,0.037037037037037035,0.018518518518518517,0.13712561470436416,0.12288703668670731,0.045660526073647366,0.09581272166175626,0.0,0.14968114762426,0.08845975830617658,71.0932236,80.2380524,40.7350578,12.9992352,25.939703,26.8583508,88.875145,-67.2167206,-79.0035934,-34.5845642,-14.2983351,-41.6969452,-41.6917877,-85.6626,2025-07-30_2025-09-03
2025-09-18,0,9303,46.84015908846609,43.220144039557134,39.62635708911104,37.20498763839622,44.26754810276255,36.56938621949909,75.92604536171127,0.003869719445340213,0.003439750618080189,0.0008599376545200473,0.0009674298613350532,0.0027947973771901536,0.003332258411265183,0.011501666129205633,0.19009405823950834,0.35834404405394193,0.04662680036376724,0.06240786656725084,0.060734017870240645,0.12249908436575424,0.5626301930603288,0.03076923076923077,0.0,0.0,0.015384615384615385,0.015384615384615385,0.0,0.03076923076923077,0.14853788371520116,0.06280288201933998,0.018699639879317293,0.12458861920287131,0.14781847304888343,0.08663120248752763,0.15905350271953192,70.9874191,81.0335,43.8900261,13.1946163,26.2572594,26.4500618,89.8236,-68.8868942,-76.2825699,-34.4748878,-14.7566271,-41.2391663,-37.0423546,-92.8187103,2025-07-30_2025-09-03
2025-09-19,0,8153,46.38709677419355,42.75371029069054,39.08524469520422,36.71225315834662,43.77762786704281,36.19722801422789,75.17343309211333,0.002698393229486079,0.002943701704893904,0.0006132711885195633,0.0009812339016313013,0.0009812339016313013,0.0028210474671899913,0.010180301729424752,0.11683352080580833,0.21421360337859663,0.04751768026790439,0.03311705967258227,0.036156677128289565,0.10519624821159296,0.26636858141090336,0.03333333333333333,0.016666666666666666,0.0,0.03333333333333333,0.0,0.0,0.0,0.15265157557963588,0.16914318066158837,0.06743665652151237,0.15582787609975257,0.039776014479489814,0.01765303717734726,0.05653320478224385,69.8236084,76.2679596,45.3095551,13.9673738,26.7495785,35.5463295,87.8785248,-68.8830185,-77.219574,-34.6861916,-13.656002,-39.8080978,-36.7093315,-85.7012177,2025-07-30_2025-09-03
2025-09-20,1,6450,44.84434108527132,41.57054263565892,37.94992248062015,35.97627906976744,42.830852713178295,35.51875968992248,72.79348837209302,0.0015503875968992248,0.0020155038759689923,0.0009302325581395349,0.0009302325581395349,0.0027906976744186047,0.003875968992248062,0.011627906976744186,0.10510930815400957,0.10059114790707979,0.10592350431729536,0.029860718355974324,0.04514059303281456,0.13687742827698732,0.1904366857129612,0.0,0.018867924528301886,0.018867924528301886,0.0,0.018867924528301886,0.03773584905660377,0.03773584905660377,0.04209169356058425,0.2570522095795844,0.16946145812673016,0.06075858783290721,0.08412240597910554,0.15343295682572433,0.28572518999251323,69.0412674,76.0229797,40.6748581,13.9178839,25.7118435,29.3823128,89.5236588,-71.3993073,-67.0632324,-33.9291916,-13.8390093,-39.9632645,-37.3166122,-92.4906387,2025-07-30_2025-09-03
2025-09-21,0,406,33.529556650246306,32.495073891625616,30.35960591133005,31.586206896551722,34.44827586206897,30.354679802955665,45.66502463054187,0.0024630541871921183,0.0,0.0,0.0024630541871921183,0.007389162561576354,0.03694581280788178,0.027093596059113302,0.11032009747429547,0.055242980888708305,0.019445613973800385,0.03708402307523882,0.44775584819724573,0.270544584447742,0.26457156541973476,0.0,0.0625,0.0,0.0,0.1875,0.3125,0.1875,0.142508080105375,0.1914265999774603,0.010580075000000022,0.003350854999999986,2.2541049190678466,0.8953523388181669,1.0923622859747273,70.8455658,67.1320801,35.138607,10.1767893,17.639389,26.6026554,86.0803223,-58.1690559,-57.0967331,-16.7109699,-13.1085243,-41.1726646,-35.7066574,-79.5107269,2025-07-30_2025-09-03
2025-09-22,0,8341,44.73828078168086,41.25776285817048,38.01390720537106,36.098429444910686,42.859009711065816,35.550533509171565,72.7669344203333,0.00395636014866323,0.0035966910442392997,0.0011988970147464332,0.0011988970147464332,0.0031171322383407264,0.0032370219398153697,0.009471286416496824,0.25596982020231696,0.5015671512971457,0.10709782504823478,0.06128044798300743,0.18995204710171962,0.1340802952932283,0.3762283270264595,0.057971014492753624,0.028985507246376812,0.0,0.043478260869565216,0.0,0.028985507246376812,0.057971014492753624,0.5477701018679255,0.10364594493391951,0.06102803228151636,0.19087528731171374,0.06500294303403605,0.205348391129445,0.3825737133764201,70.8446655,79.0894318,44.0211639,13.309576,26.6181202,26.5810051,87.2819824,-60.9496956,-64.535614,-34.6876831,-14.4999008,-40.0926628,-42.689312,-85.1318588,2025-07-30_2025-09-03
2025-09-23,0,8564,45.277090144792155,41.623190098085004,37.97512844465203,35.78351237739374,42.740892106492296,35.151564689397475,73.83348902382065,0.004437178888369921,0.00455394675385334,0.0012844465203176085,0.0016347501167678655,0.002919196637085474,0.004670714619336758,0.01249416160672583,0.3719601597243565,0.2725825972574587,0.10007103871533392,0.08101538323619634,0.13651517358500526,0.14737150088284293,0.23280837525736606,0.058823529411764705,0.04411764705882353,0.0,0.0,0.014705882352941176,0.029411764705882353,0.07352941176470588,0.2659775452005184,0.2553247890675708,0.04524509084835741,0.06942237200360932,0.08365403443643939,0.14161643540975086,0.9351770382015934,68.8916626,80.6040344,43.3708534,13.309576,26.7861786,36.5129242,90.7763519,-65.8374252,-78.6906662,-34.7347717,-14.3509169,-41.846962,-40.1003914,-87.5776291,2025-07-30_2025-09-03
2025-09-24,0,9243,45.99989181001839,42.33960835226658,38.81499513145083,36.53099642973061,43.44509358433409,35.80071405387861,74.64427134047388,0.0034620794114465,0.004003029319485016,0.0011900897976847343,0.0015146597425078439,0.0028129395218002813,0.004652169209131234,0.01103537812398572,0.252220530420786,0.34171092815499515,0.14165182973819618,0.08034289116347469,0.12562874999275195,0.20128763359966328,0.46516519617439533,0.04054054054054054,0.04054054054054054,0.013513513513513514,0.013513513513513514,0.0,0.04054054054054054,0.08108108108108109,0.3607804190898501,0.25374635247251953,0.11898050190527702,0.1195554294616701,0.05838018312370208,1.4988493147044393,1.7379814643966882,74.0911331,76.5364914,44.9841042,13.3332891,25.2447872,33.2955894,92.048111,-71.8779449,-79.1746674,-34.0069771,-17.6285648,-40.2127762,-42.7388,-91.2336502,2025-07-30_2025-09-03
2025-09-25,0,8681,47.311945628383825,43.68863034212648,40.030526437046426,37.613523787582075,44.851054026033864,36.99769611795876,76.64520216564912,0.004146987674231079,0.0026494643474254116,0.0011519410206197443,0.0011519410206197443,0.003225434857735284,0.0031102407556733093,0.010713051491763622,0.3070438596798322,0.3734409580270238,0.24155534388645833,0.07908624516500108,0.24380296860905137,0.1629526796635596,0.48588556071126004,0.0,0.014492753623188406,0.014492753623188406,0.028985507246376812,0.0,0.043478260869565216,0.043478260869565216,0.0592993777313045,1.711792968220476,0.09468882469083978,0.5068621924270273,0.027437657873595967,0.9929930599471044,2.028857346716648,71.7104492,80.4144897,45.0919914,13.298234,25.1035366,26.3830452,88.4073563,-66.9407425,-77.6854,-34.7243423,-14.5313473,-41.673748,-36.3015633,-86.8246841,2025-07-30_2025-09-03
2025-09-26,0,8075,47.3374613003096,43.731517027863774,40.15777089783282,38.00693498452012,44.810030959752325,37.169411764705885,74.67380804953561,0.0029721362229102165,0.0016099071207430341,0.0002476780185758514,0.0013622291021671827,0.0013622291021671827,0.0027244582043343653,0.010030959752321982,0.17235209573511878,0.08339748534772919,0.03467213469191438,0.04081260760036489,0.04524159875451922,0.1170792502299487,0.185990418106325,0.031746031746031744,0.0,0.0,0.015873015873015872,0.0,0.0,0.015873015873015872,0.2948336092305828,0.05358853333755694,0.028886137705609757,0.07899624345856944,0.018184634942751486,0.050997583480711005,0.16917299093563876,74.0973892,79.0527725,45.0389404,13.3673134,26.8490696,28.6348171,90.493576,-70.4253387,-79.4163742,-33.9032631,-17.0078831,-41.7206573,-36.8505821,-92.1921234,2025-07-30_2025-09-03
2025-09-27,1,514,32.552529182879375,31.538910505836576,29.31906614785992,30.424124513618676,33.72568093385214,29.38715953307393,46.916342412451364,0.013618677042801557,0.0019455252918287938,0.0019455252918287938,0.0019455252918287938,0.0019455252918287938,0.038910505836575876,0.03501945525291829,0.20656720303181392,0.06077898227019957,0.054492302194381566,0.048408144453463114,0.03444512716491162,0.3714776100635,0.4302951452507556,0.08695652173913043,0.043478260869565216,0.043478260869565216,0.0,0.0,0.30434782608695654,0.391304347826087,0.36254668039883126,0.17584905796980613,0.24204641536235796,0.042256086087512836,0.0,1.215198046690302,1.5298982054901753,48.0812531,69.1741943,39.4863,11.6305418,20.918066,27.9924831,87.2352524,-57.3002892,-63.3622665,-30.0130463,-9.18648434,-32.12537,-35.0689659,-82.9698181,2025-07-30_2025-09-03
2025-09-28,0,8468,45.511927255550304,42.08372697213037,38.99598488427019,36.97579121398205,43.836679263108174,36.411431270666036,73.90009447331128,0.00401511572980633,0.0031884742560226737,0.0014170996693434106,0.0005904581955597543,0.0016532829475673122,0.00401511572980633,0.00944733112895607,0.27060357704377613,0.1143918309360105,0.0822236307834192,0.06910260227896337,0.08496153124886652,0.07144051348449738,0.20966746375806497,0.01639344262295082,0.0,0.01639344262295082,0.0,0.0,0.03278688524590164,0.03278688524590164,0.1418703451630445,0.09066288097946938,0.3653187686376632,0.08137693122426533,0.05792096751486406,0.14320688848817312,0.25531100251727884,68.4964752,81.201889,40.7553215,13.4307222,25.8314438,27.695549,88.8164902,-66.8477554,-77.7575226,-34.5732384,-12.8234444,-40.1318398,-41.5092964,-85.8452301,2025-07-30_2025-09-03
2025-09-29,0,8064,46.87264384920635,43.49789186507937,39.929811507936506,37.80654761904762,44.74119543650794,37.24169146825397,74.63578869047619,0.0031001984126984125,0.0026041666666666665,0.0006200396825396825,0.0006200396825396825,0.002232142857142857,0.002728174603174603,0.011904761904761904,0.24368735877186792,0.07702068727976527,0.07802183821705659,0.10176142077648827,0.05069008892692048,0.18411616774302048,0.21625422576758407,0.037037037037037035,0.018518518518518517,0.018518518518518517,0.0,0.0,0.0,0.07407407407407407,0.1655303530377553,0.1522100107169619,0.1826102467641017,0.03385188476827932,0.01661320835141354,0.02177717996505441,0.22688145175474086,66.6641617,80.4287872,42.1513062,13.4276285,25.3277836,27.2748852,91.3605,-64.5222092,-70.9704361,-33.7804718,-13.6425991,-40.9453239,-42.5274391,-89.8789139,2025-07-30_2025-09-03
2025-10-08,0,166,27.22289156626506,26.64457831325301,25.198795180722893,27.801204819277107,28.44578313253012,25.897590361445783,30.903614457831324,0.012048192771084338,0.006024096385542169,0.0,0.0,0.018072289156626505,0.10843373493975904,0.024096385542168676,0.23214965812261118,0.16950276577819678,0.03191591918461378,0.03280303461559399,0.10022252912577231,0.5523145853739356,0.6074004623234618,0.0,0.0,0.0,0.0,0.0,0.0,0.5,0.0,0.0,0.0,0.0,0.0,0.20668510596767076,3.2656429855264,48.0955582,78.2665634,35.7984505,12.6378593,15.7727079,27.5522346,77.1074,-55.1487923,-59.6082497,-31.3833981,-9.61900139,-37.3825951,-36.5933418,-90.3562469,2025-07-30_2025-09-03
2025-10-09,0,8977,39.17923582488582,35.158182020719615,32.128884928149716,30.012476328394786,36.30266235936281,29.54951542831681,67.60198284504845,0.010693995766960009,0.012253536816308343,0.0012253536816308344,0.0028962905202183356,0.003676061044892503,0.023950094686420852,0.014370056811852511,0.2176833250376087,0.25672600871038426,0.22961030498373483,0.07525454162036226,0.24267968043258323,0.24700419186820355,0.29277000427797095,0.14864864864864866,0.1891891891891892,0.0,0.04054054054054054,0.013513513513513514,0.2702702702702703,0.10810810810810811,0.5209322011079867,0.5790441538022365,0.06573147123470897,0.1774157162705887,0.09814569511456009,0.8158923930647795,0.5359124744422115,71.9077454,79.4586945,42.7470741,13.8524132,25.7809219,37.3284683,90.2937775,-71.2672806,-78.8316345,-34.8364029,-16.5928936,-40.2081375,-37.7135582,-92.3165894,2025-07-30_2025-09-03
2025-10-10,0,12414,47.40027388432415,41.65353632995006,37.650475269856614,33.659980666988886,41.628161752859675,32.94401482197519,84.47228935073305,0.009747059771226035,0.015627517319155793,0.002980505880457548,0.004511035927178992,0.004108264862252296,0.018285806347671983,0.019413565329466732,0.9954010438192303,0.9092823011790111,0.1960542149558712,0.163332180848599,0.385962264641566,0.3896659151914127,1.0535482098294062,0.14285714285714285,0.25,0.07142857142857142,0.044642857142857144,0.03571428571428571,0.25,0.1875,1.500632391633963,1.571109686552545,0.6255369475534314,0.6394643213900338,1.0049948438794565,1.7593394424723157,2.9575354902472175,76.2697525,82.5147171,45.0651665,14.1008911,26.669157,37.8996582,91.6184692,-71.5673904,-78.8998871,-34.8220978,-17.8631229,-41.5995102,-41.9567642,-92.0328522,2025-07-30_2025-09-03
2025-10-11,0,8394,42.13164164879676,37.82606623778889,34.22516082916369,31.778889683106982,38.528710984036216,31.239099356683344,70.63986180605194,0.004884441267572075,0.006790564689063617,0.0007147962830593281,0.0026209197045508697,0.0016678579938050988,0.017393376221110316,0.012151536812008578,0.2946964277638393,0.24926437952988037,0.2366308176409562,0.07909804775551073,0.27158238721520306,0.2836646255957639,0.6719997675550737,0.07142857142857142,0.15714285714285714,0.014285714285714285,0.02857142857142857,0.0,0.18571428571428572,0.04285714285714286,0.20992631102918025,0.29062802749926003,0.12380970940620763,0.12883876509524755,0.04140421914606889,0.5195159772667551,0.5108178277183656,72.1989288,80.7420197,44.3814812,13.8323088,26.7294712,34.1204147,91.1578369,-66.1220474,-76.4843369,-34.7979546,-15.091197,-40.3731,-44.2549324,-87.2075958,2025-07-30_2025-09-03
2025-10-12,0,176,25.795454545454547,24.954545454545453,23.25,25.227272727272727,26.664772727272727,23.926136363636363,32.3125,0.028409090909090908,0.011363636363636364,0.0,0.0,0.017045454545454544,0.11931818181818182,0.056818181818181816,0.3905008658139543,0.19816801633487977,0.08765962073167902,0.05000475454017006,0.1449537731847037,1.1289069624701678,0.632417110066626,0.0,0.0,0.25,0.0,0.0,0.25,0.25,0.0,0.0,0.3539133000000003,0.0,0.0,0.26394391000000006,1.0650481999999997,35.6628456,64.3427887,38.6339302,12.6739454,13.1049156,29.5802708,84.6349792,-41.5430222,-62.7513,-17.2116642,-7.68375635,-36.3866196,-39.1111183,-89.9928894,2025-07-30_2025-09-03
2025-10-13,0,9114,42.92901031380294,38.69256089532587,35.56802721088435,33.05299539170507,40.07373271889401,32.58810621022602,73.44096993636164,0.008009655475093263,0.008887425938117182,0.0012069343866578889,0.0029624753127057276,0.004059688391485627,0.017226245336844415,0.014812376563528637,0.22474981738633742,0.3328893380019485,0.10661471265877051,0.09978946702401716,0.12219984358857618,0.28796254538988997,0.4233123144201302,0.09090909090909091,0.14285714285714285,0.0,0.012987012987012988,0.012987012987012988,0.15584415584415584,0.05194805194805195,0.3340644120316384,2.1018248340888004,0.09207108214931407,0.7518319940773749,0.0832074967031209,1.2223465769299777,2.9008995042946024,71.6803513,80.4493561,44.2032623,14.0617132,26.9171181,30.7994671,90.8154526,-67.6759872,-78.2007,-34.5657883,-14.4071074,-40.8886147,-38.1878319,-85.9468,2025-07-30_2025-09-03
2025-10-14,0,8268,42.74238026124819,38.80986937590711,35.30950653120465,33.107402031930334,39.88195452346396,32.58514755684567,71.07885824866958,0.0043541364296081275,0.004837929366231253,0.00024189646831156264,0.0022980164489598454,0.0016932752781809385,0.0110062893081761,0.011490082244799226,0.2132070499382024,0.11982557065941865,0.036647595120538744,0.052620355415302314,0.09503843471013607,0.1536497702146124,0.22493711202985775,0.015873015873015872,0.06349206349206349,0.0,0.015873015873015872,0.0,0.12698412698412698,0.047619047619047616,0.11592867437226216,0.23617148684711156,0.008816130297097479,0.24098852063779702,0.039915591630057916,0.33043388987176314,0.23953958911490528,68.5411758,81.2176819,41.0131226,14.6004257,25.4045963,31.9660759,89.9008484,-70.0936279,-74.4031754,-34.5023079,-14.6014576,-41.6015739,-37.8470764,-91.5660172,2025-07-30_2025-09-03
2025-10-15,0,8358,42.76980138789184,38.98085666427375,35.51447714764298,33.29684134960517,40.0044268963867,32.660325436707346,70.96290978703038,0.004426896386695382,0.005503709021296961,0.0011964584828906438,0.0020339794209140944,0.0027518545106484803,0.009452022014836085,0.011127063890882987,0.1462203372591523,0.23489572026648164,0.1416763297341422,0.09149864137024599,0.1367454788199816,0.21192497392325257,0.2572877096788594,0.0,0.09090909090909091,0.030303030303030304,0.015151515151515152,0.015151515151515152,0.09090909090909091,0.045454545454545456,0.07243117530909154,0.2558772216795793,0.3429618246113193,0.12838299996340174,0.12034653368406201,0.49863999430664485,0.18345691145890367,71.9771957,74.0699692,44.6225929,13.9941797,25.9737244,36.8670807,88.3434525,-69.9809647,-74.4922791,-34.537178,-14.2704964,-40.9185181,-36.7701645,-86.9753647,2025-07-30_2025-09-03
2025-10-16,0,8474,42.240264337974985,38.31106915270238,34.85980646683974,32.455156950672645,39.252183148454094,31.891668633467077,70.87856974274251,0.0048383290063724336,0.006254425300920462,0.0018881283927307056,0.002006136417276375,0.002360160490913382,0.010030682086381875,0.0080245456691055,0.6584686704903404,0.1472764694477358,0.08005053151545949,0.07968162623396478,0.17094328887913865,0.23146969993321487,0.5962303395326031,0.014705882352941176,0.10294117647058823,0.0,0.029411764705882353,0.0,0.11764705882352941,0.04411764705882353,0.1203071587757175,0.3570885738840381,0.06000107798198151,0.19050801100150225,0.05387343455672326,1.7720415523449087,0.748294640140703,71.3879852,80.9417,44.2089233,13.6034193,26.7181301,34.439003,88.0425644,-69.4686508,-77.8469391,-34.7627869,-14.1673937,-41.0628624,-36.7294388,-91.3481,2025-07-30_2025-09-03
2025-10-17,0,8320,40.949278846153845,36.941586538461536,33.28149038461538,30.61394230769231,37.66598557692308,30.249278846153846,70.94771634615384,0.006370192307692308,0.012980769230769231,0.0013221153846153847,0.0021634615384615386,0.0028846153846153848,0.018870192307692307,0.0125,0.18695304717880595,0.18077627352357722,0.05145644656479326,0.054328339108270084,0.1487330845997659,0.28678469668008705,0.31826254460730213,0.07692307692307693,0.26153846153846155,0.015384615384615385,0.06153846153846154,0.03076923076923077,0.2,0.046153846153846156,0.3740004459486308,0.6129669985313939,0.08367904523418761,0.2662869540773947,0.19764741545562486,1.8763691999161292,1.515688190366539,69.5985947,80.6937408,43.8357849,13.4817572,26.7629795,34.8271866,89.0773315,-69.3688126,-78.1020508,-34.5932083,-15.2824535,-40.9948158,-43.009964,-88.54039,2025-07-30_2025-09-03
2025-10-20,0,8965,37.76352481873954,33.290462911321804,30.1473508087005,27.560290016731734,34.334857780256556,27.281316229782487,68.36464026770776,0.012827663134411601,0.018516452872281094,0.00245398773006135,0.005577244841048522,0.007027328499721138,0.03692136084774122,0.013385387618516454,0.2995600966678177,0.2792975772404461,0.10794535747203271,0.09185532719955034,0.13835662552494563,0.43126120607354435,0.38747850605273276,0.2,0.34285714285714286,0.07142857142857142,0.11428571428571428,0.02857142857142857,0.37142857142857144,0.04285714285714286,0.7789665785243508,0.8151868140938154,0.22550233529509592,0.2997524987263585,0.21334347494596123,1.2106040869895685,1.0475855483559842,72.1148758,80.7268219,43.9946365,13.9601555,26.2397327,32.2722931,88.8431931,-71.2523727,-77.2696533,-34.6951332,-15.3499861,-42.5583725,-45.6860046,-90.52314,2025-07-30_2025-09-03
2025-10-21,0,5407,39.03624930645459,34.507490290364345,31.040318106158683,28.26632143517662,35.20991307564269,28.097651192898095,70.35805437395967,0.010911781024597743,0.01664508969853893,0.002034399852043647,0.0025892361753282783,0.003144072498612909,0.033660070279267616,0.014795635287590161,0.21015784500817727,0.49914808632128715,0.22782762766245065,0.09267393585098287,0.08906851272422422,0.4168793703877195,0.5002495533429862,0.19047619047619047,0.2698412698412698,0.015873015873015872,0.06349206349206349,0.015873015873015872,0.31746031746031744,0.07936507936507936,0.44921840970327864,1.2966563316044604,0.12861216393676742,0.25209207058798416,0.1461615459989412,1.105325661710534,0.5343691399089782,73.050705,79.6485443,43.9883766,13.3920584,26.7119446,33.3966331,92.1453934,-67.8002625,-75.1834183,-34.0341,-13.0043907,-39.6250877,-38.3759956,-86.256279,2025-07-30_2025-09-03
2025-10-22,0,8055,36.80521415270019,32.832774674115456,29.63153320918684,27.44655493482309,33.83289882060832,27.27858472998138,66.104034761018,0.013159528243327126,0.019615145872129112,0.0022346368715083797,0.004345127250155183,0.0052141527001862194,0.04072004965859714,0.014028553693358163,0.2613929144637232,0.35298450783055607,0.1321588700420406,0.08814554532453621,0.09037024729004885,0.45761348852292283,0.4573059176069269,0.16923076923076924,0.24615384615384617,0.046153846153846156,0.06153846153846154,0.07692307692307693,0.3076923076923077,0.03076923076923077,0.5394569868454158,0.8351799137781439,0.2299428183489056,0.26122261783640677,0.6382419990886385,1.2653482830004474,0.17633721998741794,73.3821182,80.2881165,44.2071342,14.3045206,26.1263199,31.8490543,92.1864,-73.5356064,-77.312561,-34.550293,-13.8488054,-40.0426559,-42.516613,-86.5791,2025-07-30_2025-09-03
2025-10-23,0,7886,37.68742074562516,33.70783667258433,30.247907684504185,28.05972609688055,34.500126806999745,27.838194268323612,66.52967283794065,0.009256910981486177,0.016611716966776567,0.001521683996956632,0.002409332995181334,0.003423788993152422,0.03132132893735734,0.010905401978189197,0.18254477245361234,0.3602169771343135,0.10651295203649382,0.08106065116954249,0.14993528568320386,0.3176006498042762,0.44245090418272726,0.1206896551724138,0.29310344827586204,0.017241379310344827,0.10344827586206896,0.017241379310344827,0.3103448275862069,0.034482758620689655,0.3491932972606254,2.676852536864931,0.12859111867677872,0.7180539929612985,0.11933942565701927,1.7084296888800639,2.8503693336403675,69.7499924,81.206955,43.4701,13.4827881,26.9325848,28.920927,90.662384,-70.4301071,-73.1967392,-34.8289528,-15.7165165,-41.8454132,-37.7857285,-86.5795822,2025-07-30_2025-09-03
2025-10-24,0,6869,37.28548551463095,33.628330179065365,30.30732275440384,28.263357111661087,34.605765031300045,28.077012665599067,65.44591643616246,0.009608385500072791,0.014703741447081089,0.0007279079924297568,0.0024748871742611735,0.002620468772747125,0.029261901295676226,0.009899548697044694,0.16079573302698474,0.21602186684538843,0.04601677306154362,0.05063014159491748,0.05536328025647489,0.3523287018878039,0.19088850801066362,0.18867924528301888,0.32075471698113206,0.0,0.03773584905660377,0.018867924528301886,0.2830188679245283,0.0,0.46801646993124063,0.7233186505584291,0.07482757781615594,0.2501338294709071,0.15324915911137027,0.9436852082941628,0.04421456220330586,69.9064636,81.3175201,42.9226151,13.7786942,26.6598759,33.6636696,87.9471893,-60.2889595,-77.6374207,-34.7651711,-14.5158815,-40.1416359,-37.7733574,-86.3273239,2025-07-30_2025-09-03
2025-10-27,0,7115,37.63106113843992,33.56022487702038,30.471820098383695,28.245115952213634,34.806184118060436,27.989880534082925,66.60590302178497,0.011243851018973999,0.014757554462403373,0.001546029515108925,0.004356992269852425,0.004075895994378074,0.03724525650035137,0.012789880534082924,0.23126959618648318,0.20093638614491868,0.06220568130971495,0.06080577282200706,0.08701013781347175,0.40937586340925264,0.3359703467194521,0.18333333333333332,0.25,0.016666666666666666,0.08333333333333333,0.016666666666666666,0.36666666666666664,0.05,0.4831273979543116,0.6572565533267921,0.1616632547330713,0.2728736549792785,0.1370892050143285,1.1299366170820684,0.21998023531277297,70.7472076,79.9897919,43.8027039,13.558054,26.039711,31.9439087,89.9361343,-71.2225723,-74.8454514,-34.6930466,-13.965827,-41.7593193,-37.9708,-90.4869,2025-07-30_2025-09-03
2025-10-28,0,5069,37.772736239889525,33.55040441901756,30.219569934898402,27.88913000591833,34.30913395146972,27.655356086013022,66.95995265338331,0.011047543894259222,0.018544091536792266,0.001578220556322746,0.002170053264943776,0.004537384099427895,0.03827184849082659,0.00966660090747682,1.0424145463969052,0.245218911991427,0.1526088652071579,0.11565671087319265,0.3178197380154535,0.3869078211079768,0.7155014047855665,0.16666666666666666,0.24074074074074073,0.037037037037037035,0.018518518518518517,0.037037037037037035,0.3148148148148148,0.037037037037037035,0.4794662625278227,0.7767391056407517,0.14544904590947932,0.11462930623777236,0.25214399066033344,0.9863537991596488,0.24508195442524655,73.0367,80.4946518,44.0083466,13.7905512,27.1774521,33.1605263,87.3716278,-69.3259,-62.9062767,-34.4599876,-15.2376022,-41.650547,-39.4657936,-91.2493896,2025-07-30_2025-09-03
2025-10-29,0,7750,38.030193548387096,34.053935483870966,30.83316129032258,28.749806451612905,35.05845161290323,28.393032258064515,66.33187096774193,0.00929032258064516,0.015741935483870966,0.0014193548387096775,0.002838709677419355,0.004,0.03096774193548387,0.011870967741935483,0.39752073229006585,0.20811562116994975,0.06395899970590711,0.052171362347476366,0.1338450388013815,0.34773864957604317,0.42126843640647765,0.13114754098360656,0.26229508196721313,0.08196721311475409,0.0,0.01639344262295082,0.22950819672131148,0.01639344262295082,0.4188584254095219,0.6074806935861335,0.18900776019346788,0.12881484146740116,0.08541657399179134,0.7983112969826155,0.1563755874637467,72.3634415,79.5793915,43.9764557,13.6389894,26.1953983,29.9926853,89.9061,-64.7344055,-71.1507416,-34.6116829,-14.1967773,-41.5964203,-41.9361458,-88.6581802,2025-07-30_2025-09-03
2025-10-30,1,7988,37.82974461692539,33.953054581872806,30.470330495743614,28.301827741612417,34.592513770655984,27.985978968452677,65.90322984476715,0.006134201301952929,0.01414621932899349,0.001126690035052579,0.003129694541812719,0.003129694541812719,0.028542814221331998,0.009639459188783174,0.16012431996231935,0.37335420768632144,0.11823218239085181,0.08642442509974052,0.06560377994759638,0.37131293275940364,0.43476973110664424,0.13114754098360656,0.21311475409836064,0.0,0.06557377049180328,0.03278688524590164,0.2459016393442623,0.04918032786885246,0.32559987990474915,3.3175863823127414,0.1004194679497872,0.7092590722298485,0.15558279554782095,1.9142296392225917,4.134852870585932,68.8991165,80.877327,40.0436211,13.149765,24.3364506,37.3820801,88.6867905,-60.6185799,-77.4395218,-34.0451279,-14.8215818,-41.2438049,-40.9994507,-85.5534,2025-07-30_2025-09-03
2025-10-31,0,7731,37.49993532531367,33.76587763549347,30.393610140990816,28.281852283016427,34.62980209545984,28.04384943733023,65.96766265683611,0.00892510671323244,0.014228430992109688,0.00038804811796662784,0.0018108912171775967,0.0036217824343551933,0.033372138145129994,0.01034794981244341,0.4823668554403762,0.18648752689408649,0.04832944509547329,0.06740854217167581,0.14282519153514997,0.32017886068196594,0.22054214248074275,0.11320754716981132,0.2830188679245283,0.018867924528301886,0.03773584905660377,0.018867924528301886,0.2830188679245283,0.018867924528301886,0.4258460631753598,0.6487757626497835,0.10530383106253088,0.19482856357482947,0.11932433302574168,0.8603774251823509,0.14701550979617076,70.6795578,80.5822754,43.360424,13.9333487,26.5645065,29.3446808,90.0915909,-63.1828499,-74.3447571,-34.5496941,-14.286478,-41.5912628,-44.4590759,-86.3115921,2025-07-30_2025-09-03
2025-11-01,2,6740,38.310979228486644,34.49836795252226,30.993768545994065,28.76053412462908,35.077299703264096,28.420029673590506,66.17551928783382,0.008160237388724036,0.012462908011869436,0.0010385756676557863,0.0011869436201780415,0.002225519287833828,0.02833827893175074,0.009198813056379823,0.15911629560356205,0.17715557323936212,0.07255879919246741,0.03924780002130626,0.051210095583449265,0.29542850407428894,0.22957806029225244,0.10714285714285714,0.21428571428571427,0.05357142857142857,0.05357142857142857,0.0,0.25,0.05357142857142857,0.5009140791682327,0.5864092100689918,0.15469920450091038,0.19197989150859213,0.02293060928875319,0.737763175929199,0.2800446373042377,70.5749435,80.6484375,43.4987106,13.9080896,24.7504082,29.2065239,88.3038788,-65.4487915,-76.4584,-34.7240448,-13.6575489,-41.4134102,-42.8047867,-87.5528336,2025-07-30_2025-09-03
2025-11-03,0,4208,34.77994296577947,31.254039923954373,28.55180608365019,26.765446768060837,33.00641634980989,26.751425855513308,63.54800380228137,0.016159695817490494,0.018773764258555134,0.003564638783269962,0.0026140684410646386,0.006416349809885932,0.049429657794676805,0.016159695817490494,0.3699130167774628,0.6135407464854495,0.2552079228517386,0.10005807862559513,0.16615161698313277,0.550142521689682,0.6316578725215012,0.2222222222222222,0.26666666666666666,0.08888888888888889,0.06666666666666667,0.022222222222222223,0.28888888888888886,0.1111111111111111,0.7538723099287437,1.1338965141875414,0.3011864687072162,0.1988083557202662,0.11889747725282282,1.4276854252366526,0.5416171626412907,49.6343,75.3616486,42.5548439,13.792613,25.0050716,37.3305283,87.9314575,-70.1109085,-68.5897522,-33.8368,-14.4333992,-41.463932,-40.5921974,-88.4192734,2025-07-30_2025-09-03
2025-11-04,0,8248,36.72369059165858,32.97999515033948,29.84468962172648,27.620999030067896,34.15640155189137,27.59505334626576,66.37997090203686,0.010063045586808924,0.013215324927255093,0.0009699321047526673,0.0024248302618816685,0.003273520853540252,0.03588748787584869,0.010911736178467508,0.5932902124151076,0.3928983385109758,0.055450344085125676,0.09924276344566117,0.048324951839984746,0.37346592450135674,0.43612285526394173,0.14545454545454545,0.2727272727272727,0.03636363636363636,0.03636363636363636,0.0,0.32727272727272727,0.09090909090909091,0.512787209502557,2.0239667971365325,0.14185384787631594,0.45638191917430326,0.06166812270112365,1.3901800750862583,2.1818332286656448,69.6912842,80.2431183,43.0081482,13.965312,27.0191917,31.4376736,88.0525742,-60.4329033,-64.1830521,-34.0466156,-13.5044413,-40.1070938,-44.6013565,-86.3478317,2025-07-30_2025-09-03
2025-11-05,0,7930,37.698108448928124,33.929508196721315,30.476166456494326,28.38890290037831,34.76027742749054,28.17843631778058,66.42862547288777,0.007440100882723834,0.01437578814627995,0.0012610340479192938,0.0012610340479192938,0.0031525851197982345,0.025346784363177804,0.009709962168978563,0.3049550881762656,0.25014580511990697,0.1623054360054659,0.04989610975836715,0.07307276325008061,0.31500760982658804,0.8245105408834683,0.07272727272727272,0.23636363636363636,0.03636363636363636,0.0,0.01818181818181818,0.2,0.01818181818181818,0.45104482891531245,0.6282510236975634,0.29447323537381637,0.10258436325391294,0.08518886531346812,0.7757793023847781,0.1282972080429433,71.5000381,80.5620041,41.6321335,13.6745605,25.3118038,33.7920303,89.3124161,-72.7747269,-70.9981537,-34.6304626,-14.708684,-41.5154839,-44.1312065,-87.2180862,2025-07-30_2025-09-03
2025-11-06,0,8443,38.37640649058392,34.52078645031387,31.152078645031388,29.084211773066446,35.306762998934026,28.79343835129693,66.4241383394528,0.008409333175411584,0.012554779106952504,0.001539737060286628,0.0018950609972758499,0.003079474120573256,0.02475423427691579,0.010896600734336136,0.1867784023102397,0.17179022054482393,0.12107836337466926,0.04481838401896075,0.060995617227064626,0.25417086926970134,0.2430837727944408,0.12903225806451613,0.22580645161290322,0.016129032258064516,0.06451612903225806,0.04838709677419355,0.24193548387096775,0.06451612903225806,0.8385804491846905,0.6586351175502084,0.3321962286306185,0.24562261542736732,0.29863663674288377,0.8202543135516395,1.0792915423026976,71.8710938,80.2323914,42.5915,13.5157824,26.0716743,36.9938965,87.8112946,-59.4374771,-75.563118,-34.7550392,-14.1828585,-41.5190887,-37.692421,-86.1795044,2025-07-30_2025-09-03
2025-11-07,0,4204,39.076117982873456,35.085870599429114,31.408420551855375,28.924595623215986,35.6336822074215,28.766412940057087,69.26427212178878,0.009039010466222646,0.012369172216936251,0.0002378686964795433,0.0011893434823977164,0.002616555661274976,0.02093244529019981,0.007373929590865842,0.28420231401446483,0.16450980198553758,0.043905552108712234,0.03526323581657615,0.07678500279123375,0.18897412779028683,0.14387456377443295,0.10869565217391304,0.17391304347826086,0.021739130434782608,0.021739130434782608,0.043478260869565216,0.21739130434782608,0.021739130434782608,1.798818167664164,0.4656323163691948,0.2139743359192995,0.09053829084207812,0.6102151701552766,0.5686598069523595,0.1409830820507921,66.6316833,80.4064407,43.5651703,13.3570032,25.4061432,29.3874683,86.0550461,-65.416008,-76.4294891,-34.7767944,-13.4302063,-41.4866142,-37.4985886,-87.355896,2025-07-30_2025-09-03
2025-10-29,0,7750,38.030193548387096,34.053935483870966,30.83316129032258,28.749806451612905,35.05845161290323,28.393032258064515,66.33187096774193,0.00929032258064516,0.015741935483870966,0.0014193548387096775,0.002838709677419355,0.004,0.03096774193548387,0.011870967741935483,0.39752073229006585,0.20811562116994975,0.06395899970590711,0.052171362347476366,0.1338450388013815,0.34773864957604317,0.42126843640647765,0.13114754098360656,0.26229508196721313,0.08196721311475409,0.0,0.01639344262295082,0.22950819672131148,0.01639344262295082,0.4188584254095219,0.6074806935861335,0.18900776019346788,0.12881484146740116,0.08541657399179134,0.7983112969826155,0.1563755874637467,72.3634415,79.5793915,43.9764557,13.6389894,26.1953983,29.9926853,89.9061,-64.7344055,-71.1507416,-34.6116829,-14.1967773,-41.5964203,-41.9361458,-88.6581802,2025-07-30_2025-09-03
2025-10-30,1,7988,37.82974461692539,33.953054581872806,30.470330495743614,28.301827741612417,34.592513770655984,27.985978968452677,65.90322984476715,0.006134201301952929,0.01414621932899349,0.001126690035052579,0.003129694541812719,0.003129694541812719,0.028542814221331998,0.009639459188783174,0.16012431996231935,0.37335420768632144,0.11823218239085181,0.08642442509974052,0.06560377994759638,0.37131293275940364,0.43476973110664424,0.13114754098360656,0.21311475409836064,0.0,0.06557377049180328,0.03278688524590164,0.2459016393442623,0.04918032786885246,0.32559987990474915,3.3175863823127414,0.1004194679497872,0.7092590722298485,0.15558279554782095,1.9142296392225917,4.134852870585932,68.8991165,80.877327,40.0436211,13.149765,24.3364506,37.3820801,88.6867905,-60.6185799,-77.4395218,-34.0451279,-14.8215818,-41.2438049,-40.9994507,-85.5534,2025-07-30_2025-09-03
2025-10-31,0,7731,37.49993532531367,33.76587763549347,30.393610140990816,28.281852283016427,34.62980209545984,28.04384943733023,65.96766265683611,0.00892510671323244,0.014228430992109688,0.00038804811796662784,0.0018108912171775967,0.0036217824343551933,0.033372138145129994,0.01034794981244341,0.4823668554403762,0.18648752689408649,0.04832944509547329,0.06740854217167581,0.14282519153514997,0.32017886068196594,0.22054214248074275,0.11320754716981132,0.2830188679245283,0.018867924528301886,0.03773584905660377,0.018867924528301886,0.2830188679245283,0.018867924528301886,0.4258460631753598,0.6487757626497835,0.10530383106253088,0.19482856357482947,0.11932433302574168,0.8603774251823509,0.14701550979617076,70.6795578,80.5822754,43.360424,13.9333487,26.5645065,29.3446808,90.0915909,-63.1828499,-74.3447571,-34.5496941,-14.286478,-41.5912628,-44.4590759,-86.3115921,2025-07-30_2025-09-03
2025-11-01,2,6740,38.310979228486644,34.49836795252226,30.993768545994065,28.76053412462908,35.077299703264096,28.420029673590506,66.17551928783382,0.008160237388724036,0.012462908011869436,0.0010385756676557863,0.0011869436201780415,0.002225519287833828,0.02833827893175074,0.009198813056379823,0.15911629560356205,0.17715557323936212,0.07255879919246741,0.03924780002130626,0.051210095583449265,0.29542850407428894,0.22957806029225244,0.10714285714285714,0.21428571428571427,0.05357142857142857,0.05357142857142857,0.0,0.25,0.05357142857142857,0.5009140791682327,0.5864092100689918,0.15469920450091038,0.19197989150859213,0.02293060928875319,0.737763175929199,0.2800446373042377,70.5749435,80.6484375,43.4987106,13.9080896,24.7504082,29.2065239,88.3038788,-65.4487915,-76.4584,-34.7240448,-13.6575489,-41.4134102,-42.8047867,-87.5528336,2025-07-30_2025-09-03
2025-11-03,0,4208,34.77994296577947,31.254039923954373,28.55180608365019,26.765446768060837,33.00641634980989,26.751425855513308,63.54800380228137,0.016159695817490494,0.018773764258555134,0.003564638783269962,0.0026140684410646386,0.006416349809885932,0.049429657794676805,0.016159695817490494,0.3699130167774628,0.6135407464854495,0.2552079228517386,0.10005807862559513,0.16615161698313277,0.550142521689682,0.6316578725215012,0.2222222222222222,0.26666666666666666,0.08888888888888889,0.06666666666666667,0.022222222222222223,0.28888888888888886,0.1111111111111111,0.7538723099287437,1.1338965141875414,0.3011864687072162,0.1988083557202662,0.11889747725282282,1.4276854252366526,0.5416171626412907,49.6343,75.3616486,42.5548439,13.792613,25.0050716,37.3305283,87.9314575,-70.1109085,-68.5897522,-33.8368,-14.4333992,-41.463932,-40.5921974,-88.4192734,2025-07-30_2025-09-03
2025-11-04,0,8248,36.72369059165858,32.97999515033948,29.84468962172648,27.620999030067896,34.15640155189137,27.59505334626576,66.37997090203686,0.010063045586808924,0.013215324927255093,0.0009699321047526673,0.0024248302618816685,0.003273520853540252,0.03588748787584869,0.010911736178467508,0.5932902124151076,0.3928983385109758,0.055450344085125676,0.09924276344566117,0.048324951839984746,0.37346592450135674,0.43612285526394173,0.14545454545454545,0.2727272727272727,0.03636363636363636,0.03636363636363636,0.0,0.32727272727272727,0.09090909090909091,0.512787209502557,2.0239667971365325,0.14185384787631594,0.45638191917430326,0.06166812270112365,1.3901800750862583,2.1818332286656448,69.6912842,80.2431183,43.0081482,13.965312,27.0191917,31.4376736,88.0525742,-60.4329033,-64.1830521,-34.0466156,-13.5044413,-40.1070938,-44.6013565,-86.3478317,2025-07-30_2025-09-03
2025-11-05,0,7930,37.698108448928124,33.929508196721315,30.476166456494326,28.38890290037831,34.76027742749054,28.17843631778058,66.42862547288777,0.007440100882723834,0.01437578814627995,0.0012610340479192938,0.0012610340479192938,0.0031525851197982345,0.025346784363177804,0.009709962168978563,0.3049550881762656,0.25014580511990697,0.1623054360054659,0.04989610975836715,0.07307276325008061,0.31500760982658804,0.8245105408834683,0.07272727272727272,0.23636363636363636,0.03636363636363636,0.0,0.01818181818181818,0.2,0.01818181818181818,0.45104482891531245,0.6282510236975634,0.29447323537381637,0.10258436325391294,0.08518886531346812,0.7757793023847781,0.1282972080429433,71.5000381,80.5620041,41.6321335,13.6745605,25.3118038,33.7920303,89.3124161,-72.7747269,-70.9981537,-34.6304626,-14.708684,-41.5154839,-44.1312065,-87.2180862,2025-07-30_2025-09-03
2025-11-06,0,8443,38.37640649058392,34.52078645031387,31.152078645031388,29.084211773066446,35.306762998934026,28.79343835129693,66.4241383394528,0.008409333175411584,0.012554779106952504,0.001539737060286628,0.0018950609972758499,0.003079474120573256,0.02475423427691579,0.010896600734336136,0.1867784023102397,0.17179022054482393,0.12107836337466926,0.04481838401896075,0.060995617227064626,0.25417086926970134,0.2430837727944408,0.12903225806451613,0.22580645161290322,0.016129032258064516,0.06451612903225806,0.04838709677419355,0.24193548387096775,0.06451612903225806,0.8385804491846905,0.6586351175502084,0.3321962286306185,0.24562261542736732,0.29863663674288377,0.8202543135516395,1.0792915423026976,71.8710938,80.2323914,42.5915,13.5157824,26.0716743,36.9938965,87.8112946,-59.4374771,-75.563118,-34.7550392,-14.1828585,-41.5190887,-37.692421,-86.1795044,2025-07-30_2025-09-03
2025-11-07,0,4204,39.076117982873456,35.085870599429114,31.408420551855375,28.924595623215986,35.6336822074215,28.766412940057087,69.26427212178878,0.009039010466222646,0.012369172216936251,0.0002378686964795433,0.0011893434823977164,0.002616555661274976,0.02093244529019981,0.007373929590865842,0.28420231401446483,0.16450980198553758,0.043905552108712234,0.03526323581657615,0.07678500279123375,0.18897412779028683,0.14387456377443295,0.10869565217391304,0.17391304347826086,0.021739130434782608,0.021739130434782608,0.043478260869565216,0.21739130434782608,0.021739130434782608,1.798818167664164,0.4656323163691948,0.2139743359192995,0.09053829084207812,0.6102151701552766,0.5686598069523595,0.1409830820507921,66.6316833,80.4064407,43.5651703,13.3570032,25.4061432,29.3874683,86.0550461,-65.416008,-76.4294891,-34.7767944,-13.4302063,-41.4866142,-37.4985886,-87.355896,2025-07-30_2025-09-03
2025-11-08,1,8169,36.88762394417921,33.05508630187293,30.011384502387074,27.895336026441424,34.3253764230628,27.71293916023993,66.07761047863876,0.010772432366262701,0.017382788591014813,0.0013465540457828376,0.0024482800832415228,0.0044069041498347415,0.03305178112376056,0.01236381442036969,0.20243857822538683,0.2806138627506825,0.06268747701011036,0.06082178715883853,0.08286068201067621,0.38400962037290226,0.2534308628363198,0.15254237288135594,0.2542372881355932,0.06779661016949153,0.05084745762711865,0.01694915254237288,0.288135593220339,0.03389830508474576,0.55903217535207,0.670097276574975,0.3860029791388015,0.3346852929679677,0.564229153667412,1.0160617992072858,0.18057651508677064,69.3095,79.8872681,43.9466553,13.6240396,26.9475346,31.1139278,89.2408905,-64.0888672,-77.3736572,-34.6024437,-14.3591642,-40.5911636,-38.05019,-87.4689102,2025-07-30_2025-09-03
2025-11-09,6,192,23.072916666666668,22.390625,20.171875,21.869791666666668,23.885416666666668,20.770833333333332,32.140625,0.041666666666666664,0.046875,0.015625,0.026041666666666668,0.026041666666666668,0.14583333333333334,0.03125,0.8314656248974018,0.39099068373904616,0.08429191164201104,0.775781363050399,0.13918383013191601,1.3186173378570971,3.197427770319888,0.5,0.5,0.0,0.5,0.0,0.5,0.0,6.894802991167739,1.0914267413826386,0.02592132544570307,2.642437803898051,0.0,4.358253869138017,0.0,34.8140488,67.9126282,30.5939102,14.5287695,21.9511604,32.6047974,101.352921,-51.2421837,-28.164053,-33.5852623,-17.170269,-33.5559235,-35.4741592,-80.8826294,2025-07-30_2025-09-03
2025-11-10,0,8779,37.215172570907846,33.05490374757945,29.947260508030528,27.78630823556214,34.20184531267798,27.571249572844287,66.73664426472263,0.0099100125299009,0.01492197288985078,0.0020503474199794966,0.0037589702699624104,0.0031894293199681055,0.03952614192960474,0.011276910809887231,0.23846749331201725,0.436720448074143,0.0774938898413696,0.08061430564921211,0.05589076929694715,0.387555979502837,0.36437956507183356,0.15625,0.21875,0.03125,0.046875,0.015625,0.328125,0.03125,0.5636866641060894,0.5882295825034175,0.14680939019707354,0.33503802554727485,0.16238741254982655,1.1499533284962842,1.214579975663129,68.8487473,81.9398193,44.0774879,14.0993443,28.1950836,29.1291962,88.461235,-70.2721481,-77.0199,-34.7395401,-15.4417467,-41.6917877,-41.1788521,-87.4155045,2025-07-30_2025-09-03
2025-11-11,0,4750,38.28673684210526,34.01768421052632,30.457684210526317,28.194736842105264,34.79157894736842,28.032631578947367,67.46821052631579,0.008421052631578947,0.015789473684210527,0.002105263157894737,0.0035789473684210526,0.004842105263157895,0.034105263157894736,0.010105263157894737,0.4847119988582154,0.922328568997467,0.3684823149969254,0.09824765441181837,0.2259460377197933,0.35321120846325776,0.5522421931806828,0.16,0.16,0.06,0.06,0.04,0.34,0.1,3.0691565220631722,5.82498128250665,0.6630985599972522,0.5504504353704667,0.649478212851172,1.1747640932061156,2.4566851980808995,69.0403748,78.6683121,42.6463394,14.6921873,27.0470295,30.9798965,88.9714737,-67.4938889,-78.899292,-34.3622322,-15.4654608,-40.9525375,-38.4574471,-86.5757675,2025-07-30_2025-09-03
2025-11-12,0,7973,37.40035118525022,33.498808478615324,30.3461683180735,28.291107487771228,34.71779756678791,28.15702997616957,66.96839332748024,0.011538943935783268,0.014549103223378905,0.001755926251097454,0.002508466072996363,0.0023830427693465445,0.03148124921610435,0.013294870186880723,0.399666937234569,0.648869179277848,0.3041704581742626,0.07461744448504402,0.1468175025805824,0.36446754789842706,1.0728685320885256,0.14285714285714285,0.23214285714285715,0.03571428571428571,0.10714285714285714,0.0,0.26785714285714285,0.07142857142857142,0.47138974808480805,3.2974115577351486,0.17505007531823893,0.6473028520210516,0.06745173053217904,1.6324223575171766,4.529111130778414,72.8379059,77.7879257,43.0507698,13.5379496,26.7542152,29.5343914,88.5222702,-66.1131058,-79.6399,-34.9049492,-14.8669481,-39.9266663,-44.7988,-85.9987717,2025-07-30_2025-09-03
2025-11-13,0,8586,38.139762403913345,34.169345446075006,30.741090146750523,28.60062893081761,34.95888655951549,28.358024691358025,66.89296529233636,0.009433962264150943,0.01583973911017936,0.0005823433496389472,0.002795248078266946,0.00395993477754484,0.029350104821802937,0.010482180293501049,0.3039812998051331,0.22559125441855646,0.04633406741853955,0.0532658882138196,0.2436739201983085,0.34390340143310394,0.719005749688593,0.1076923076923077,0.24615384615384617,0.015384615384615385,0.06153846153846154,0.03076923076923077,0.26153846153846155,0.06153846153846154,0.4455347750401512,0.888176430297758,0.09609247107604302,0.19159347928063497,0.22081307881802797,0.8570298473537012,0.5594355336383005,71.8490372,79.9590912,43.9400978,13.6420832,24.8184566,31.2324963,90.740593,-69.9967651,-76.7033844,-34.8349113,-14.6107359,-41.6469383,-45.3220482,-87.1737366,2025-07-30_2025-09-03
2025-11-14,0,4199,38.07573231721839,33.828054298642535,30.310788282924506,27.86234817813765,34.53560371517028,27.857823291259823,67.89521314598714,0.009526077637532746,0.014765420338175756,0.0004763038818766373,0.0009526077637532746,0.004048582995951417,0.032626815908549656,0.00690640628721124,0.19557890352636773,0.20831325286351188,0.04935900732935885,0.04173513305768965,0.06259046227454255,0.30749302624762803,0.24664365297763224,0.2,0.17777777777777778,0.06666666666666667,0.0,0.044444444444444446,0.3333333333333333,0.0,1.0312973191342207,0.6478327037770365,0.14141621623978068,0.0575726321837132,0.32207931721332866,0.8919781224907982,0.08238224497461467,71.4878235,78.8346176,39.5935936,13.8384933,23.6136971,28.9317513,89.7659073,-66.5199203,-64.6703339,-34.8372955,-12.3873186,-41.0046082,-36.4247665,-89.3605804,2025-07-30_2025-09-03
2025-11-15,0,5076,37.38435776201734,33.40681639085894,30.86603624901497,28.81816390858944,35.4091804570528,28.669227738376673,67.39657210401892,0.009456264775413711,0.015563435776201734,0.0027580772261623326,0.0037431048069345944,0.006304176516942475,0.03368794326241135,0.012214342001576044,0.21609679061886175,0.258006114109195,0.11185414194780276,0.10708046098896296,0.09157728866972074,0.4195139482472181,0.30567095278864465,0.18,0.28,0.06,0.04,0.04,0.3,0.02,0.4482479365587362,0.672595611196763,0.180593015224343,0.16861024440095057,0.12564526633135348,0.9864172966549148,0.1149762273557723,71.0884552,77.6293716,42.790287,14.4859819,26.0995121,28.1739445,90.8717194,-69.0523,-76.6944504,-34.1056252,-11.7857122,-40.4787827,-37.9811096,-89.2609177,2025-07-30_2025-09-03
2025-11-16,1,199,21.77386934673367,21.09547738693467,19.57286432160804,21.391959798994975,23.07035175879397,20.14070351758794,29.758793969849247,0.05527638190954774,0.03015075376884422,0.020100502512562814,0.02512562814070352,0.02512562814070352,0.16080402010050251,0.05025125628140704,0.7177753329387364,0.6279494562585725,0.19260416306190964,0.6920159542253178,0.215416703798921,1.4417246813523654,2.263181816482684,0.25,0.5,0.25,0.5,0.0,0.25,0.5,1.4689998500000012,3.7277637649984325,0.45809375624404997,4.740531352548633,0.03192541568615083,4.286224790310622,13.264568711144655,59.2285576,75.8978043,41.3621178,13.545166,25.5994625,32.0681496,90.994278,-45.9887695,-50.6565514,-30.8064079,-14.8922071,-32.6073761,-28.7214222,-88.119812,2025-07-30_2025-09-03
2025-11-17,0,7608,35.65996319663512,31.731992639327025,29.212539432176655,27.32097791798107,33.77195057833859,27.20202418506835,65.43927444794953,0.014721345951629864,0.018796004206098844,0.002103049421661409,0.0030231335436382754,0.004206098843322818,0.0396950578338591,0.014195583596214511,0.34242482541514313,0.3879824799335819,0.14292435928777764,0.13924637406320675,0.15183523537488453,0.45464873449291143,0.673894864462245,0.2857142857142857,0.32142857142857145,0.03571428571428571,0.08928571428571429,0.03571428571428571,0.375,0.14285714285714285,0.9025676209692527,1.1452702314393928,0.1711802849435264,0.34798409643106415,0.1692913079414158,1.209542841418641,0.4603011190945591,70.4375534,80.0166168,43.8304214,14.4138098,27.7192631,33.336319,90.3357468,-67.2992783,-65.4052811,-34.6101952,-13.0430546,-41.8665504,-40.0220375,-91.7605743,2025-07-30_2025-09-03
2025-11-18,0,7756,39.28455389375967,35.5297833935018,32.79757607013925,31.178958225889634,37.42689530685921,30.75219185146983,66.94920061887571,0.00850954100051573,0.010959257349149047,0.0015471892728210418,0.0009025270758122744,0.004383702939659618,0.020113460546673543,0.011346054667354307,0.17758450441342943,0.41815903355477363,0.3999947939842378,0.07359764071367815,0.28579328508937263,0.26240640809200194,0.4991582553919266,0.07407407407407407,0.14814814814814814,0.018518518518518517,0.018518518518518517,0.037037037037037035,0.2222222222222222,0.1111111111111111,0.30971811657124826,3.756322916826845,0.11685747852672301,0.7884982641060565,0.14628204938527145,1.7861738267468419,4.384334286537725,71.1146851,75.7794876,44.1049118,13.2941093,26.3536606,34.4642639,89.8588867,-69.6322708,-78.6727829,-33.882103,-13.6951809,-41.8536606,-39.1219482,-86.5638428,2025-07-30_2025-09-03
2025-11-19,0,3850,40.9625974025974,37.052207792207795,34.024415584415586,32.20207792207792,38.68805194805195,31.854545454545455,69.39844155844156,0.0059740259740259745,0.008571428571428572,0.0012987012987012987,0.002077922077922078,0.003896103896103896,0.013766233766233767,0.01064935064935065,0.2055839118785036,0.45396933534570894,0.09435083976105506,0.09418455183608235,0.13545202067471815,0.28035922571366867,0.5036266125864607,0.10416666666666667,0.10416666666666667,0.020833333333333332,0.041666666666666664,0.020833333333333332,0.1875,0.08333333333333333,0.8386195902079004,2.731792288250869,0.13637747991979315,0.7661019964844732,0.3623774973639616,1.5480686373910104,3.277877500448907,63.308918,73.9912949,40.1062088,13.0064535,25.9902229,29.4364414,87.9553,-68.0419693,-65.0065155,-33.5873489,-12.642498,-37.8666687,-36.1824799,-85.7760849,2025-07-30_2025-09-03
2025-11-20,0,8505,41.02045855379189,37.221281599059374,34.40505584950029,32.389535567313345,39.02880658436214,31.97472075249853,70.14132863021752,0.007995296884185774,0.00940623162845385,0.0010582010582010583,0.0019988242210464435,0.0024691358024691358,0.014462081128747795,0.01199294532627866,0.19288497174646183,0.39825143484173053,0.06496123748411621,0.06337015273735468,0.06843336922339059,0.19198754881806135,0.6130689622409815,0.11940298507462686,0.11940298507462686,0.029850746268656716,0.04477611940298507,0.014925373134328358,0.19402985074626866,0.07462686567164178,0.4628599289226794,0.39596788512537306,0.30158041607729225,0.2815990799702294,0.10945280008438336,0.6102882530675051,0.8421932986795082,72.9413223,79.6887741,43.7353477,13.1590452,25.963932,35.2571297,91.9484558,-68.2017136,-71.8263855,-34.4263115,-13.9828386,-41.7948914,-43.1053352,-92.1988,2025-07-30_2025-09-03
2025-11-08,1,8169,36.88762394417921,33.05508630187293,30.011384502387074,27.895336026441424,34.3253764230628,27.71293916023993,66.07761047863876,0.010772432366262701,0.017382788591014813,0.0013465540457828376,0.0024482800832415228,0.0044069041498347415,0.03305178112376056,0.01236381442036969,0.20243857822538683,0.2806138627506825,0.06268747701011036,0.06082178715883853,0.08286068201067621,0.38400962037290226,0.2534308628363198,0.15254237288135594,0.2542372881355932,0.06779661016949153,0.05084745762711865,0.01694915254237288,0.288135593220339,0.03389830508474576,0.55903217535207,0.670097276574975,0.3860029791388015,0.3346852929679677,0.564229153667412,1.0160617992072858,0.18057651508677064,69.3095,79.8872681,43.9466553,13.6240396,26.9475346,31.1139278,89.2408905,-64.0888672,-77.3736572,-34.6024437,-14.3591642,-40.5911636,-38.05019,-87.4689102,2025-07-30_2025-09-03
2025-11-09,6,192,23.072916666666668,22.390625,20.171875,21.869791666666668,23.885416666666668,20.770833333333332,32.140625,0.041666666666666664,0.046875,0.015625,0.026041666666666668,0.026041666666666668,0.14583333333333334,0.03125,0.8314656248974018,0.39099068373904616,0.08429191164201104,0.775781363050399,0.13918383013191601,1.3186173378570971,3.197427770319888,0.5,0.5,0.0,0.5,0.0,0.5,0.0,6.894802991167739,1.0914267413826386,0.02592132544570307,2.642437803898051,0.0,4.358253869138017,0.0,34.8140488,67.9126282,30.5939102,14.5287695,21.9511604,32.6047974,101.352921,-51.2421837,-28.164053,-33.5852623,-17.170269,-33.5559235,-35.4741592,-80.8826294,2025-07-30_2025-09-03
2025-11-10,0,8779,37.215172570907846,33.05490374757945,29.947260508030528,27.78630823556214,34.20184531267798,27.571249572844287,66.73664426472263,0.0099100125299009,0.01492197288985078,0.0020503474199794966,0.0037589702699624104,0.0031894293199681055,0.03952614192960474,0.011276910809887231,0.23846749331201725,0.436720448074143,0.0774938898413696,0.08061430564921211,0.05589076929694715,0.387555979502837,0.36437956507183356,0.15625,0.21875,0.03125,0.046875,0.015625,0.328125,0.03125,0.5636866641060894,0.5882295825034175,0.14680939019707354,0.33503802554727485,0.16238741254982655,1.1499533284962842,1.214579975663129,68.8487473,81.9398193,44.0774879,14.0993443,28.1950836,29.1291962,88.461235,-70.2721481,-77.0199,-34.7395401,-15.4417467,-41.6917877,-41.1788521,-87.4155045,2025-07-30_2025-09-03
2025-11-11,0,4750,38.28673684210526,34.01768421052632,30.457684210526317,28.194736842105264,34.79157894736842,28.032631578947367,67.46821052631579,0.008421052631578947,0.015789473684210527,0.002105263157894737,0.0035789473684210526,0.004842105263157895,0.034105263157894736,0.010105263157894737,0.4847119988582154,0.922328568997467,0.3684823149969254,0.09824765441181837,0.2259460377197933,0.35321120846325776,0.5522421931806828,0.16,0.16,0.06,0.06,0.04,0.34,0.1,3.0691565220631722,5.82498128250665,0.6630985599972522,0.5504504353704667,0.649478212851172,1.1747640932061156,2.4566851980808995,69.0403748,78.6683121,42.6463394,14.6921873,27.0470295,30.9798965,88.9714737,-67.4938889,-78.899292,-34.3622322,-15.4654608,-40.9525375,-38.4574471,-86.5757675,2025-07-30_2025-09-03
2025-11-12,0,7973,37.40035118525022,33.498808478615324,30.3461683180735,28.291107487771228,34.71779756678791,28.15702997616957,66.96839332748024,0.011538943935783268,0.014549103223378905,0.001755926251097454,0.002508466072996363,0.0023830427693465445,0.03148124921610435,0.013294870186880723,0.399666937234569,0.648869179277848,0.3041704581742626,0.07461744448504402,0.1468175025805824,0.36446754789842706,1.0728685320885256,0.14285714285714285,0.23214285714285715,0.03571428571428571,0.10714285714285714,0.0,0.26785714285714285,0.07142857142857142,0.47138974808480805,3.2974115577351486,0.17505007531823893,0.6473028520210516,0.06745173053217904,1.6324223575171766,4.529111130778414,72.8379059,77.7879257,43.0507698,13.5379496,26.7542152,29.5343914,88.5222702,-66.1131058,-79.6399,-34.9049492,-14.8669481,-39.9266663,-44.7988,-85.9987717,2025-07-30_2025-09-03
2025-11-13,0,8586,38.139762403913345,34.169345446075006,30.741090146750523,28.60062893081761,34.95888655951549,28.358024691358025,66.89296529233636,0.009433962264150943,0.01583973911017936,0.0005823433496389472,0.002795248078266946,0.00395993477754484,0.029350104821802937,0.010482180293501049,0.3039812998051331,0.22559125441855646,0.04633406741853955,0.0532658882138196,0.2436739201983085,0.34390340143310394,0.719005749688593,0.1076923076923077,0.24615384615384617,0.015384615384615385,0.06153846153846154,0.03076923076923077,0.26153846153846155,0.06153846153846154,0.4455347750401512,0.888176430297758,0.09609247107604302,0.19159347928063497,0.22081307881802797,0.8570298473537012,0.5594355336383005,71.8490372,79.9590912,43.9400978,13.6420832,24.8184566,31.2324963,90.740593,-69.9967651,-76.7033844,-34.8349113,-14.6107359,-41.6469383,-45.3220482,-87.1737366,2025-07-30_2025-09-03
2025-11-14,0,4199,38.07573231721839,33.828054298642535,30.310788282924506,27.86234817813765,34.53560371517028,27.857823291259823,67.89521314598714,0.009526077637532746,0.014765420338175756,0.0004763038818766373,0.0009526077637532746,0.004048582995951417,0.032626815908549656,0.00690640628721124,0.19557890352636773,0.20831325286351188,0.04935900732935885,0.04173513305768965,0.06259046227454255,0.30749302624762803,0.24664365297763224,0.2,0.17777777777777778,0.06666666666666667,0.0,0.044444444444444446,0.3333333333333333,0.0,1.0312973191342207,0.6478327037770365,0.14141621623978068,0.0575726321837132,0.32207931721332866,0.8919781224907982,0.08238224497461467,71.4878235,78.8346176,39.5935936,13.8384933,23.6136971,28.9317513,89.7659073,-66.5199203,-64.6703339,-34.8372955,-12.3873186,-41.0046082,-36.4247665,-89.3605804,2025-07-30_2025-09-03
2025-11-15,0,5076,37.38435776201734,33.40681639085894,30.86603624901497,28.81816390858944,35.4091804570528,28.669227738376673,67.39657210401892,0.009456264775413711,0.015563435776201734,0.0027580772261623326,0.0037431048069345944,0.006304176516942475,0.03368794326241135,0.012214342001576044,0.21609679061886175,0.258006114109195,0.11185414194780276,0.10708046098896296,0.09157728866972074,0.4195139482472181,0.30567095278864465,0.18,0.28,0.06,0.04,0.04,0.3,0.02,0.4482479365587362,0.672595611196763,0.180593015224343,0.16861024440095057,0.12564526633135348,0.9864172966549148,0.1149762273557723,71.0884552,77.6293716,42.790287,14.4859819,26.0995121,28.1739445,90.8717194,-69.0523,-76.6944504,-34.1056252,-11.7857122,-40.4787827,-37.9811096,-89.2609177,2025-07-30_2025-09-03
2025-11-16,1,199,21.77386934673367,21.09547738693467,19.57286432160804,21.391959798994975,23.07035175879397,20.14070351758794,29.758793969849247,0.05527638190954774,0.03015075376884422,0.020100502512562814,0.02512562814070352,0.02512562814070352,0.16080402010050251,0.05025125628140704,0.7177753329387364,0.6279494562585725,0.19260416306190964,0.6920159542253178,0.215416703798921,1.4417246813523654,2.263181816482684,0.25,0.5,0.25,0.5,0.0,0.25,0.5,1.4689998500000012,3.7277637649984325,0.45809375624404997,4.740531352548633,0.03192541568615083,4.286224790310622,13.264568711144655,59.2285576,75.8978043,41.3621178,13.545166,25.5994625,32.0681496,90.994278,-45.9887695,-50.6565514,-30.8064079,-14.8922071,-32.6073761,-28.7214222,-88.119812,2025-07-30_2025-09-03
2025-11-17,0,7608,35.65996319663512,31.731992639327025,29.212539432176655,27.32097791798107,33.77195057833859,27.20202418506835,65.43927444794953,0.014721345951629864,0.018796004206098844,0.002103049421661409,0.0030231335436382754,0.004206098843322818,0.0396950578338591,0.014195583596214511,0.34242482541514313,0.3879824799335819,0.14292435928777764,0.13924637406320675,0.15183523537488453,0.45464873449291143,0.673894864462245,0.2857142857142857,0.32142857142857145,0.03571428571428571,0.08928571428571429,0.03571428571428571,0.375,0.14285714285714285,0.9025676209692527,1.1452702314393928,0.1711802849435264,0.34798409643106415,0.1692913079414158,1.209542841418641,0.4603011190945591,70.4375534,80.0166168,43.8304214,14.4138098,27.7192631,33.336319,90.3357468,-67.2992783,-65.4052811,-34.6101952,-13.0430546,-41.8665504,-40.0220375,-91.7605743,2025-07-30_2025-09-03
2025-11-18,0,7756,39.28455389375967,35.5297833935018,32.79757607013925,31.178958225889634,37.42689530685921,30.75219185146983,66.94920061887571,0.00850954100051573,0.010959257349149047,0.0015471892728210418,0.0009025270758122744,0.004383702939659618,0.020113460546673543,0.011346054667354307,0.17758450441342943,0.41815903355477363,0.3999947939842378,0.07359764071367815,0.28579328508937263,0.26240640809200194,0.4991582553919266,0.07407407407407407,0.14814814814814814,0.018518518518518517,0.018518518518518517,0.037037037037037035,0.2222222222222222,0.1111111111111111,0.30971811657124826,3.756322916826845,0.11685747852672301,0.7884982641060565,0.14628204938527145,1.7861738267468419,4.384334286537725,71.1146851,75.7794876,44.1049118,13.2941093,26.3536606,34.4642639,89.8588867,-69.6322708,-78.6727829,-33.882103,-13.6951809,-41.8536606,-39.1219482,-86.5638428,2025-07-30_2025-09-03
2025-11-19,0,3850,40.9625974025974,37.052207792207795,34.024415584415586,32.20207792207792,38.68805194805195,31.854545454545455,69.39844155844156,0.0059740259740259745,0.008571428571428572,0.0012987012987012987,0.002077922077922078,0.003896103896103896,0.013766233766233767,0.01064935064935065,0.2055839118785036,0.45396933534570894,0.09435083976105506,0.09418455183608235,0.13545202067471815,0.28035922571366867,0.5036266125864607,0.10416666666666667,0.10416666666666667,0.020833333333333332,0.041666666666666664,0.020833333333333332,0.1875,0.08333333333333333,0.8386195902079004,2.731792288250869,0.13637747991979315,0.7661019964844732,0.3623774973639616,1.5480686373910104,3.277877500448907,63.308918,73.9912949,40.1062088,13.0064535,25.9902229,29.4364414,87.9553,-68.0419693,-65.0065155,-33.5873489,-12.642498,-37.8666687,-36.1824799,-85.7760849,2025-07-30_2025-09-03
2025-11-20,0,8505,41.02045855379189,37.221281599059374,34.40505584950029,32.389535567313345,39.02880658436214,31.97472075249853,70.14132863021752,0.007995296884185774,0.00940623162845385,0.0010582010582010583,0.0019988242210464435,0.0024691358024691358,0.014462081128747795,0.01199294532627866,0.19288497174646183,0.39825143484173053,0.06496123748411621,0.06337015273735468,0.06843336922339059,0.19198754881806135,0.6130689622409815,0.11940298507462686,0.11940298507462686,0.029850746268656716,0.04477611940298507,0.014925373134328358,0.19402985074626866,0.07462686567164178,0.4628599289226794,0.39596788512537306,0.30158041607729225,0.2815990799702294,0.10945280008438336,0.6102882530675051,0.8421932986795082,72.9413223,79.6887741,43.7353477,13.1590452,25.963932,35.2571297,91.9484558,-68.2017136,-71.8263855,-34.4263115,-13.9828386,-41.7948914,-43.1053352,-92.1988,2025-07-30_2025-09-03
2025-11-21,0,8171,41.493697221882265,37.7196181617917,34.72463590747766,33.001958144657934,39.350875045894014,32.50801615469343,68.9801737853384,0.005996818014930853,0.006608738220536042,0.0009790723289683026,0.002080528699057643,0.0018357606168155672,0.01064741157753029,0.012238404112103782,0.2823353038778616,0.2786815685976246,0.1149286747655024,0.08921683007952282,0.248389088655533,0.2136109681616907,0.4049573081354133,0.07936507936507936,0.07936507936507936,0.0,0.031746031746031744,0.015873015873015872,0.09523809523809523,0.047619047619047616,0.3628694537932479,0.43146329229588437,0.055042634384193635,0.21247728329192694,0.1604602581059779,0.2991193123382434,0.849403367550642,69.3121872,78.0785065,42.5008965,14.1137791,25.5819359,27.6429653,88.7955093,-70.3055267,-79.2286148,-34.7511635,-14.0972834,-40.0127563,-37.3217659,-90.1607361,2025-07-30_2025-09-03
2025-11-22,0,4543,43.12634822804314,39.12150561303104,35.90821043363416,33.463350209112924,40.49284613691393,33.130310367598504,73.3017829627999,0.004842615012106538,0.00814439797490645,0.0008804754567466431,0.0013207131851199648,0.001981069777679947,0.010125467752586397,0.01408760730794629,0.1468878401246758,0.20070772579660687,0.060156371868661,0.03925453679427252,0.11286560007002087,0.14289926041598297,0.3049287303684798,0.01818181818181818,0.09090909090909091,0.0,0.0,0.0,0.05454545454545454,0.05454545454545454,0.2954145833385229,0.5444674274789415,0.029697260013720632,0.014417192766976191,0.02968330942207717,0.30997640024447903,0.1402869928596047,66.8567,72.9088364,42.7443924,14.0245962,24.9591923,36.6428299,88.8021851,-72.4370575,-64.8473587,-33.7411346,-12.9301567,-39.2472153,-43.0919304,-87.4193192,2025-07-30_2025-09-03
2025-11-24,0,6656,41.544921875,37.55138221153846,34.83638822115385,32.86117788461539,39.43584735576923,32.25450721153846,70.85126201923077,0.006009615384615385,0.007061298076923077,0.0009014423076923077,0.0015024038461538462,0.003155048076923077,0.007512019230769231,0.013822115384615384,0.1389197610845066,0.1711004704865177,0.042684798676384306,0.03806036143573375,0.057044088198759155,0.11882262513317088,0.20391089397797355,0.04918032786885246,0.11475409836065574,0.0,0.0,0.01639344262295082,0.04918032786885246,0.03278688524590164,0.28056137680361376,0.42753404958744634,0.044728396445346916,0.07608894048342493,0.09733222173264335,0.5674531242614355,0.16033938549556354,71.4514618,74.5605316,44.2214394,13.9931488,26.0458984,32.9517441,90.5698776,-69.3339386,-76.8106766,-34.6805305,-13.7828188,-40.0766792,-37.6419,-85.5214462,2025-07-30_2025-09-03
2025-11-25,0,8501,41.1851546876838,37.36572167980238,34.42889071873897,32.72826726267498,39.00141159863546,32.03952476179273,68.96765086460417,0.00564639454181861,0.009293024350076461,0.0017644982943183156,0.0023526643924244206,0.003999529467121515,0.010822256205152335,0.013410187036819197,0.2814984822406738,0.5625497912213369,0.11094365329529521,0.13067380414640306,0.10848332981293576,0.29907821053838324,0.8451790007821649,0.05063291139240506,0.11392405063291139,0.02531645569620253,0.012658227848101266,0.0,0.0759493670886076,0.05063291139240506,0.27961502400329175,0.3428969976035101,0.17619280189814512,0.10810611874630878,0.06096529644355362,0.3218981464380395,0.4560850697430998,71.6264,77.5608215,42.9163551,13.8616924,26.39851,34.0570068,90.5818,-68.1024704,-64.3052368,-34.3535919,-13.4518576,-41.786644,-43.2888565,-87.6544,2025-07-30_2025-09-03
2025-11-26,0,5756,44.51650451702571,39.79239054899236,36.73158443363447,34.04725503822099,41.24322446143155,33.48071577484364,75.67338429464907,0.007470465601111883,0.007817929117442668,0.0010423905489923557,0.002953439888811675,0.004343293954134816,0.00990271021542738,0.013724808895066018,0.3619671787600556,0.7915439818960768,0.29609421574358263,0.07333518281197121,0.24052203862387275,0.23912279737782477,0.3831516048167064,0.06172839506172839,0.1111111111111111,0.012345679012345678,0.024691358024691357,0.037037037037037035,0.08641975308641975,0.08641975308641975,0.35675498616098533,0.37818950012281993,0.06144489968515382,0.22802572853337627,0.16168272484970433,0.3124812851340489,0.8573244460440022,70.4453049,80.9727,44.77071,13.5992956,27.4852161,33.9095688,90.7510834,-72.3866882,-76.4765854,-33.8388901,-15.104085,-40.3086586,-36.5923119,-87.6224594,2025-07-30_2025-09-03
2025-11-27,0,8877,42.010138560324435,38.039990987946375,35.246479666554016,33.20232060380759,40.04314520671398,32.69742029965078,71.80725470316548,0.004956629491945477,0.008786752281176074,0.0007885546919004169,0.0031542187676016674,0.0024783147459727386,0.009913258983890954,0.01261687507040667,0.2280106701057647,0.6361433245767413,0.23253191270816356,0.12043352288571947,0.14065452367106276,0.227972440881441,0.6094609697064699,0.041666666666666664,0.1111111111111111,0.0,0.027777777777777776,0.027777777777777776,0.09722222222222222,0.08333333333333333,0.222587054024565,2.4061815079988604,0.04809004713832316,0.8827414087872941,0.10533510433680543,1.536279299476816,4.4414169726494475,72.3157501,80.9274,44.4613533,13.9209766,26.7964897,35.3086777,89.134552,-69.9285126,-70.6220398,-33.6183434,-13.3152466,-40.7700462,-40.3066025,-85.9587173,2025-07-30_2025-09-03
